;FLAVOR:Marlin
;TIME:921
;Filament used: 0.579555m
;Layer height: 0.175
;MINX:46.713
;MINY:49.108
;MINZ:0.306
;MAXX:73.874
;MAXY:70.558
;MAXZ:17.02
;Generated with Cura_SteamEngine 4.5.0
M140 S60
M105
M190 S60
M104 S205
M105
M109 S205
M82 ;absolute extrusion mode
G21;(metric values)
G90;(absolute positioning)
M82;(set extruder to absolute mode)
M107;(start with the fan off)
G28;(Home the printer)
G92 E0;(Reset the extruder to 0)
G0 Z5 E5 F500;(Move up and prime the nozzle)
G0 X-1 Z0;(Move outside the printable area)
G1 Y60 E8 F500;(Draw a priming/wiping line to the rear)
G1 X-1;(Move a little closer to the print area)
G1 Y10 E16 F500;(draw more priming/wiping)
G1 E15 F250;(Small retract)
G92 E0;(Zero the extruder)
G92 E0
G92 E0
G1 F2400 E-4.5
;LAYER_COUNT:92
;LAYER:-5
M107
G0 F7200 X48.888 Y50.649 Z0.306
;TYPE:SUPPORT-INTERFACE
G1 F2400 E0
G1 F1125 X49.111 Y50.446 E0.03069
G1 X49.354 Y50.252 E0.06234
G1 X49.568 Y50.102 E0.08894
G1 X49.841 Y49.936 E0.12145
G1 X50.083 Y49.809 E0.14927
G1 X50.342 Y49.692 E0.17819
G1 X50.621 Y49.587 E0.20853
G1 X50.899 Y49.503 E0.23809
G1 X51.15 Y49.444 E0.26433
G1 X51.477 Y49.391 E0.29805
G1 X51.982 Y49.348 E0.34963
G1 X52.194 Y49.337 E0.37124
G1 X52.99 Y49.333 E0.45225
G1 X53.947 Y49.338 E0.54965
G1 X55.831 Y49.382 E0.74145
G1 X56.765 Y49.421 E0.83659
G1 X57.714 Y49.469 E0.9333
G1 X58.662 Y49.529 E1.02998
G1 X60.54 Y49.679 E1.22172
G1 X61.425 Y49.766 E1.31223
G1 X62.437 Y49.876 E1.41583
G1 X63.361 Y49.988 E1.51056
G1 X64.304 Y50.113 E1.60738
G1 X65.271 Y50.252 E1.7068
G1 X66.189 Y50.396 E1.80138
G1 X67.107 Y50.551 E1.89613
G1 X68.079 Y50.725 E1.99663
G1 X68.959 Y50.893 E2.08781
G1 X69.898 Y51.087 E2.1854
G1 X70.248 Y51.18 E2.22225
G1 X70.529 Y51.274 E2.25241
G1 X70.795 Y51.384 E2.28171
G1 X71.075 Y51.52 E2.31339
G1 X71.3 Y51.647 E2.33968
G1 X71.565 Y51.819 E2.37184
G1 X71.791 Y51.988 E2.40056
G1 X72.012 Y52.176 E2.43009
G1 X72.219 Y52.377 E2.45945
G1 X72.414 Y52.59 E2.48884
G1 X72.595 Y52.816 E2.51831
G1 X72.766 Y53.058 E2.54847
G1 X72.909 Y53.289 E2.57612
G1 X73.059 Y53.573 E2.60881
G1 X73.17 Y53.819 E2.63628
G1 X73.275 Y54.097 E2.66652
G1 X73.368 Y54.398 E2.69859
G1 X73.423 Y54.617 E2.72157
G1 X73.485 Y54.946 E2.75564
G1 X73.57 Y55.516 E2.81429
G1 X73.618 Y56.009 E2.86471
G1 X73.647 Y56.519 E2.9167
G1 X73.655 Y56.841 E2.94948
G1 X73.648 Y57.434 E3.00984
G1 X73.632 Y57.774 E3.04448
G1 X73.575 Y58.444 E3.11291
G1 X73.537 Y58.759 E3.14521
G1 X73.449 Y59.321 E3.2031
G1 X73.39 Y59.634 E3.23552
G1 X73.26 Y60.208 E3.29542
G1 X73.155 Y60.597 E3.33642
G1 X73.005 Y61.095 E3.38936
G1 X72.889 Y61.439 E3.42631
G1 X72.688 Y61.97 E3.48409
G1 X72.534 Y62.332 E3.52413
G1 X72.307 Y62.826 E3.57946
G1 X72.125 Y63.182 E3.62015
G1 X71.864 Y63.659 E3.67549
G1 X71.672 Y63.979 E3.71347
G1 X71.371 Y64.447 E3.77011
G1 X71.193 Y64.705 E3.80201
G1 X70.827 Y65.196 E3.86434
G1 X70.636 Y65.435 E3.89547
G1 X70.214 Y65.926 E3.96137
G1 X69.974 Y66.184 E3.99723
G1 X69.565 Y66.595 E4.05624
G1 X69.362 Y66.787 E4.08468
G1 X68.887 Y67.206 E4.14914
G1 X68.596 Y67.442 E4.18728
G1 X68.151 Y67.781 E4.24421
G1 X67.904 Y67.957 E4.27508
G1 X67.378 Y68.304 E4.33921
G1 X67.073 Y68.487 E4.37541
G1 X66.575 Y68.766 E4.43351
G1 X66.286 Y68.916 E4.46665
G1 X65.74 Y69.174 E4.52811
G1 X65.417 Y69.312 E4.56386
G1 X64.878 Y69.523 E4.62277
G1 X64.561 Y69.635 E4.65699
G1 X63.988 Y69.814 E4.71808
G1 X63.664 Y69.902 E4.75225
G1 X63.063 Y70.044 E4.8151
G1 X62.753 Y70.106 E4.84728
G1 X62.17 Y70.202 E4.90741
G1 X61.845 Y70.243 E4.94075
G1 X61.241 Y70.3 E5.0025
G1 X60.88 Y70.32 E5.0393
G1 X60.297 Y70.335 E5.09865
G1 X59.979 Y70.331 E5.13102
G1 X59.386 Y70.305 E5.19143
G1 X59.019 Y70.275 E5.22891
G1 X58.461 Y70.21 E5.28608
G1 X58.153 Y70.164 E5.31778
G1 X57.555 Y70.052 E5.3797
G1 X57.182 Y69.967 E5.41863
G1 X56.658 Y69.831 E5.47373
G1 X56.306 Y69.726 E5.51112
G1 X55.708 Y69.523 E5.57539
G1 X55.414 Y69.411 E5.60741
G1 X54.887 Y69.191 E5.66553
G1 X54.596 Y69.06 E5.69801
G1 X54.049 Y68.785 E5.76032
G1 X53.753 Y68.623 E5.79466
G1 X53.214 Y68.305 E5.85836
G1 X52.957 Y68.139 E5.8895
G1 X52.438 Y67.78 E5.95372
G1 X52.213 Y67.613 E5.98224
G1 X51.711 Y67.213 E6.04757
G1 X51.482 Y67.016 E6.07831
G1 X51.033 Y66.604 E6.14033
G1 X50.822 Y66.397 E6.17042
G1 X50.398 Y65.95 E6.23312
G1 X50.161 Y65.679 E6.26976
G1 X49.789 Y65.227 E6.32934
G1 X49.58 Y64.954 E6.36433
G1 X49.238 Y64.473 E6.4244
G1 X49.054 Y64.195 E6.45833
G1 X48.751 Y63.7 E6.5174
G1 X48.601 Y63.437 E6.54821
G1 X48.3 Y62.857 E6.61472
G1 X48.167 Y62.578 E6.64618
G1 X47.913 Y61.992 E6.71118
G1 X47.802 Y61.709 E6.74212
G1 X47.599 Y61.133 E6.80427
G1 X47.497 Y60.802 E6.83952
G1 X47.272 Y59.95 E6.92921
G1 X47.144 Y59.322 E6.99444
G1 X47.091 Y58.996 E7.02805
G1 X47.012 Y58.404 E7.08884
G1 X46.983 Y58.105 E7.11941
G1 X46.944 Y57.48 E7.18315
G1 X46.937 Y57.204 E7.21125
G1 X46.941 Y56.556 E7.2772
G1 X46.957 Y56.212 E7.31225
G1 X46.999 Y55.663 E7.36829
G1 X47.039 Y55.307 E7.40475
G1 X47.13 Y54.692 E7.46802
G1 X47.19 Y54.376 E7.50076
G1 X47.312 Y53.819 E7.55879
G1 X47.391 Y53.507 E7.59155
G1 X47.568 Y52.912 E7.65472
G1 X47.745 Y52.419 E7.70804
G1 X47.861 Y52.146 E7.73823
G1 X48.033 Y51.792 E7.77828
G1 X48.176 Y51.541 E7.80768
G1 X48.329 Y51.308 E7.83605
G1 X48.516 Y51.059 E7.86774
G1 X48.705 Y50.837 E7.89742
G1 X48.706 Y50.836 E7.89756
G0 F1012.5 X48.888 Y50.649
G0 F7200 X49.6 Y50.082
G1 F1125 X49.6 Y64.98 E9.41382
G0 F7200 X51.2 Y66.757
G1 F1125 X51.2 Y49.435 E11.17679
G0 F7200 X52.8 Y49.333
G1 F1125 X52.8 Y68.03 E13.07969
G0 F7200 X54.4 Y68.961
G1 F1125 X54.4 Y49.349 E15.07572
G0 F7200 X56 Y49.39
G1 F1125 X56 Y69.622 E17.13485
G0 F7200 X57.6 Y70.06
G1 F1125 X57.6 Y49.464 E19.23103
G0 F7200 X59.2 Y49.572
G1 F1125 X59.2 Y70.289 E21.33953
G0 F7200 X60.8 Y70.323
G1 F1125 X60.8 Y49.705 E23.43794
G0 F7200 X62.4 Y49.872
G1 F1125 X62.4 Y70.165 E25.50329
G0 F7200 X64 Y69.811
G1 F1125 X64 Y50.073 E27.51214
G0 F7200 X65.6 Y50.304
G1 F1125 X65.6 Y69.234 E29.43876
G0 F7200 X67.2 Y68.411
G1 F1125 X67.2 Y50.568 E31.25475
G0 F7200 X68.8 Y50.863
G1 F1125 X68.8 Y67.277 E32.9253
G0 F7200 X70.4 Y65.71
G1 F1125 X70.4 Y51.231 E34.39892
G0 F7200 X72 Y52.166
G1 F1125 X72 Y63.411 E35.54339
M104 S200
G0 F7200 X73.6 Y58.151
G1 F1125 X73.6 Y55.825 E35.78012
G0 F7200 X48 Y51.859
G1 F1125 X48 Y62.192 E36.83177
G0 F600 X48 Y62.192 Z0.525
G0 F7200 X49.196 Y64.5
;TIME_ELAPSED:48.025748
;LAYER:-4
M140 S60
;TYPE:SUPPORT
G1 F1125 X49.539 Y64.983 E36.86953
G1 X49.749 Y65.258 E36.89158
G1 X50.123 Y65.71 E36.92897
G1 X50.36 Y65.983 E36.95201
G1 X50.795 Y66.441 E36.99227
G1 X50.999 Y66.64 E37.01043
G1 X51.444 Y67.048 E37.04891
G1 X51.679 Y67.251 E37.0687
G1 X52.187 Y67.655 E37.11007
G1 X52.409 Y67.82 E37.1277
G1 X52.856 Y68.13 E37.16237
G1 X49.137 Y64.411 E37.49758
G1 X49.016 Y64.229 E37.51151
G1 X48.708 Y63.724 E37.54921
G1 X48.557 Y63.46 E37.5686
G1 X48.252 Y62.874 E37.6107
G1 X48.122 Y62.598 E37.63014
G1 X47.866 Y62.011 E37.67096
G1 X47.773 Y61.774 E37.68719
G1 X55.492 Y69.493 E38.38293
G1 X55.698 Y69.572 E38.397
G1 X56.294 Y69.773 E38.43708
G1 X56.644 Y69.878 E38.46037
G1 X57.176 Y70.016 E38.4954
G1 X57.32 Y70.048 E38.5048
G1 X47.219 Y59.947 E39.41525
G1 X47.094 Y59.33 E39.45538
G1 X47.041 Y59.003 E39.47649
G1 X46.963 Y58.418 E39.5141
G1 X58.849 Y70.304 E40.58544
G1 X59.021 Y70.325 E40.59649
G1 X59.381 Y70.354 E40.61951
G1 X59.977 Y70.38 E40.65753
G1 X60.2 Y70.383 E40.67174
G1 X46.887 Y57.069 E41.87175
G1 X46.891 Y56.552 E41.9047
G1 X46.907 Y56.207 E41.92671
G1 X46.934 Y55.843 E41.94998
G1 X61.422 Y70.332 E43.25589
G1 X61.849 Y70.292 E43.28322
G1 X62.172 Y70.25 E43.30398
G1 X62.551 Y70.188 E43.32846
G1 X47.075 Y54.712 E44.72338
G1 X47.079 Y54.69 E44.72481
G1 X47.14 Y54.364 E44.74594
G1 X47.265 Y53.8 E44.78276
G1 X47.299 Y53.663 E44.79176
G1 X63.602 Y69.966 E46.26122
G1 X63.669 Y69.951 E46.2656
G1 X64 Y69.861 E46.28746
G1 X64.571 Y69.682 E46.3256
G1 X64.585 Y69.676 E46.32657
G1 X47.595 Y52.686 E47.85796
G1 X47.702 Y52.39 E47.87802
G1 X47.815 Y52.123 E47.89649
G1 X47.975 Y51.794 E47.91981
G1 X65.507 Y69.326 E49.50005
G1 X65.76 Y69.219 E49.51756
G1 X66.298 Y68.965 E49.55548
G1 X66.378 Y68.923 E49.56124
G1 X48.478 Y51.024 E51.1746
G1 X48.667 Y50.804 E51.19308
G1 X48.85 Y50.615 E51.20985
G1 X49.08 Y50.404 E51.22974
G1 X49.109 Y50.382 E51.23206
G1 X67.197 Y68.469 E52.86237
G1 X67.403 Y68.345 E52.8777
G1 X67.931 Y67.998 E52.91797
G1 X67.969 Y67.969 E52.92101
G1 X49.866 Y49.866 E54.55272
G1 X50.068 Y49.759 E54.56729
G1 X50.311 Y49.65 E54.58426
G1 X50.613 Y49.537 E54.60481
G1 X50.764 Y49.491 E54.61487
G1 X68.696 Y67.424 E56.23121
G1 X68.918 Y67.243 E56.24947
G1 X69.381 Y66.835 E56.2888
G1 X51.854 Y49.308 E57.86859
G1 X51.973 Y49.298 E57.8762
G1 X52.19 Y49.286 E57.89005
G1 X52.989 Y49.282 E57.94097
G1 X53.101 Y49.283 E57.94811
G1 X70.023 Y66.204 E59.47332
G1 X70.255 Y65.954 E59.49506
G1 X70.62 Y65.529 E59.53077
G1 X54.389 Y49.298 E60.99374
G1 X55.693 Y49.329 E61.07687
G1 X71.175 Y64.811 E62.47234
G1 X71.233 Y64.733 E62.47853
G1 X71.411 Y64.474 E62.49856
G1 X71.686 Y64.049 E62.53082
G1 X57.021 Y49.384 E63.85265
G1 X57.714 Y49.418 E63.89687
G1 X58.37 Y49.46 E63.93876
G1 X72.149 Y63.24 E65.18077
G1 X72.168 Y63.206 E65.18325
G1 X72.351 Y62.847 E65.20894
G1 X72.565 Y62.383 E65.2415
G1 X59.748 Y49.566 E66.39676
G1 X60.543 Y49.628 E66.44758
G1 X61.143 Y49.688 E66.48601
G1 X72.928 Y61.473 E67.54825
G1 X72.93 Y61.465 E67.54877
G1 X73.051 Y61.11 E67.57268
G1 X73.201 Y60.611 E67.60589
G1 X73.231 Y60.503 E67.61303
G1 X62.569 Y49.841 E68.57404
G1 X63.365 Y49.938 E68.62515
G1 X64.026 Y50.025 E68.66764
G1 X73.471 Y59.47 E69.51897
G1 X73.497 Y59.329 E69.5281
G1 X73.587 Y58.756 E69.56507
G1 X73.624 Y58.45 E69.58472
G1 X73.632 Y58.358 E69.5906
G1 X65.512 Y50.238 E70.32249
G1 X66.226 Y50.35 E70.36856
G1 X67.033 Y50.487 E70.42073
G1 X73.701 Y57.154 E71.0217
G1 X73.703 Y56.84 E71.04171
G1 X73.696 Y56.516 E71.06237
G1 X73.667 Y55.999 E71.09537
G1 X73.65 Y55.831 E71.10613
G1 X68.591 Y50.772 E71.56212
G1 X68.966 Y50.843 E71.58645
G1 X69.908 Y51.038 E71.64776
G1 X70.21 Y51.118 E71.66767
G1 X73.387 Y54.295 E71.95403
G0 F7200 X73.324 Y54.092
G1 F1125 X73.212 Y53.792 E71.97444
G1 X73.092 Y53.53 E71.9928
G1 X72.964 Y53.285 E72.01042
G1 X72.799 Y53.018 E72.03043
G1 X72.641 Y52.794 E72.0479
G1 X72.447 Y52.552 E72.06766
G1 X72.264 Y52.352 E72.08494
G1 X72.042 Y52.137 E72.10464
G1 X71.817 Y51.944 E72.12353
G1 X71.591 Y51.777 E72.14144
G1 X71.329 Y51.606 E72.16138
G1 X71.087 Y51.469 E72.17911
G1 X70.819 Y51.34 E72.19806
G1 X70.547 Y51.227 E72.21684
G1 X70.26 Y51.131 E72.23612
G1 X70.21 Y51.118 E72.23942
G0 F600 X70.21 Y51.118 Z0.7
G0 F7200 X59.287 Y49.35
;TIME_ELAPSED:78.167756
;LAYER:-3
;TYPE:SUPPORT-INTERFACE
G1 F1500 X50.636 Y49.35 E72.45971
G1 X51.107 Y49.223 E72.47213
G1 X51.963 Y49.123 E72.49408
G1 X52.941 Y49.108 E72.51899
G1 X53.865 Y49.112 E72.54252
G1 X55.706 Y49.152 E72.58941
G1 X56.692 Y49.191 E72.61454
G1 X57.669 Y49.242 E72.63945
G1 X58.609 Y49.3 E72.66343
G0 F7200 X50.636 Y49.35
G1 F1500 X50.561 Y49.37 E72.66541
G1 X49.984 Y49.607 E72.68129
G1 X49.821 Y49.7 E72.68607
G1 X62.86 Y49.7 E73.01811
G1 X63.335 Y49.757 E73.03029
G1 X64.244 Y49.876 E73.05364
G1 X65.214 Y50.016 E73.07859
G1 X65.434 Y50.05 E73.08426
G1 X49.264 Y50.05 E73.49603
G1 X48.96 Y50.278 E73.5057
G1 X48.835 Y50.4 E73.51015
G1 X67.55 Y50.4 E73.98672
G1 X68.04 Y50.488 E73.9994
G1 X68.958 Y50.663 E74.0232
G1 X69.39 Y50.75 E74.03442
G1 X48.487 Y50.75 E74.56671
G1 X48.207 Y51.1 E74.57813
G1 X70.68 Y51.1 E75.1504
G1 X70.892 Y51.179 E75.15616
G1 X71.41 Y51.45 E75.17104
G1 X47.98 Y51.45 E75.76768
G1 X47.832 Y51.691 E75.77489
G1 X47.784 Y51.8 E75.77792
G1 X71.915 Y51.8 E76.39241
G1 X71.935 Y51.814 E76.39303
G1 X72.304 Y52.15 E76.40574
G1 X47.628 Y52.15 E77.03411
G1 X47.486 Y52.467 E77.04295
G1 X47.475 Y52.5 E77.04384
G1 X72.622 Y52.5 E77.6842
G1 X72.772 Y52.675 E77.69007
G1 X72.888 Y52.85 E77.69542
G1 X47.355 Y52.85 E78.34561
G1 X47.314 Y52.967 E78.34877
G1 X47.25 Y53.2 E78.35492
G1 X73.117 Y53.2 E79.01362
G1 X73.289 Y53.55 E79.02355
G1 X47.153 Y53.55 E79.6891
G1 X47.093 Y53.765 E79.69478
G1 X47.064 Y53.9 E79.6983
G1 X73.436 Y53.9 E80.36986
G1 X73.555 Y54.25 E80.37927
G1 X46.988 Y54.25 E81.05579
G1 X46.971 Y54.326 E81.05778
G1 X46.922 Y54.6 E81.06486
G1 X73.642 Y54.6 E81.74528
G1 X73.706 Y54.902 E81.75314
G1 X73.714 Y54.95 E81.75438
G1 X46.865 Y54.95 E82.43809
G1 X46.822 Y55.3 E82.44707
G1 X73.766 Y55.3 E83.13319
G1 X73.794 Y55.495 E83.13821
G1 X73.806 Y55.65 E83.14217
G1 X46.778 Y55.65 E83.83043
G1 X46.768 Y55.727 E83.83241
G1 X46.753 Y56 E83.83937
G1 X73.833 Y56 E84.52895
G1 X73.86 Y56.35 E84.53789
G1 X46.733 Y56.35 E85.22868
G1 X46.713 Y56.689 E85.23732
G1 X46.713 Y56.7 E85.2376
G1 X73.873 Y56.7 E85.92923
G1 X73.874 Y57.05 E85.93814
G1 X46.718 Y57.05 E86.62966
G1 X46.723 Y57.4 E86.63858
G1 X73.873 Y57.4 E87.32995
G1 X73.851 Y57.75 E87.33888
G1 X46.738 Y57.75 E88.0293
G1 X46.767 Y58.1 E88.03825
G1 X73.828 Y58.1 E88.72735
G1 X73.815 Y58.303 E88.73253
G1 X73.795 Y58.45 E88.73631
G1 X46.795 Y58.45 E89.42386
G1 X46.807 Y58.585 E89.42731
G1 X46.84 Y58.8 E89.43285
G1 X73.748 Y58.8 E90.11805
G1 X73.701 Y59.15 E90.12705
G1 X46.894 Y59.15 E90.80968
G1 X46.946 Y59.493 E90.81851
G1 X46.947 Y59.5 E90.81869
G1 X73.638 Y59.5 E91.49837
G1 X73.565 Y59.85 E91.50748
G1 X47.026 Y59.85 E92.18329
G1 X47.106 Y60.2 E92.19243
G1 X73.491 Y60.2 E92.86432
G1 X73.484 Y60.236 E92.86525
G1 X73.394 Y60.55 E92.87357
G1 X47.194 Y60.55 E93.54075
G1 X47.297 Y60.9 E93.55004
G1 X73.294 Y60.9 E94.21205
G1 X73.22 Y61.161 E94.21896
G1 X73.187 Y61.25 E94.22137
G1 X47.401 Y61.25 E94.87801
G1 X47.416 Y61.299 E94.87931
G1 X47.529 Y61.6 E94.8875
G1 X73.06 Y61.6 E95.53764
G1 X72.933 Y61.95 E95.54712
G1 X47.661 Y61.95 E96.19067
G1 X47.76 Y62.213 E96.19783
G1 X47.799 Y62.3 E96.20025
G1 X72.786 Y62.3 E96.83654
G1 X72.631 Y62.65 E96.84629
G1 X47.96 Y62.65 E97.47453
G1 X48.121 Y63 E97.48434
G1 X72.467 Y63 E98.10431
G1 X72.282 Y63.35 E98.11439
G1 X48.306 Y63.35 E98.72493
G1 X48.496 Y63.7 E98.73507
G1 X72.097 Y63.7 E99.33607
G0 F7200 X72.097 Y63.701
G1 F1500 X71.881 Y64.05 E99.34652
G1 X48.702 Y64.05 E99.93677
G1 X48.927 Y64.4 E99.94736
G1 X71.665 Y64.4 E100.52638
G1 X71.596 Y64.513 E100.52975
G1 X71.425 Y64.75 E100.5372
G1 X49.157 Y64.75 E101.10425
G1 X49.418 Y65.1 E101.11536
G1 X71.173 Y65.1 E101.66935
G1 X71.038 Y65.289 E101.67527
G1 X70.904 Y65.45 E101.6806
G1 X49.679 Y65.45 E102.22109
G1 X49.689 Y65.463 E102.22151
G1 X49.976 Y65.8 E102.23278
G1 X70.614 Y65.8 E102.75832
G1 X70.439 Y66.012 E102.76532
G1 X70.306 Y66.15 E102.7702
G1 X50.275 Y66.15 E103.28029
G0 F7200 X50.277 Y66.152
G1 F1500 X50.62 Y66.5 E103.29273
G1 X69.97 Y66.5 E103.78547
G1 X69.753 Y66.726 E103.79345
G1 X69.616 Y66.85 E103.79816
G1 X50.967 Y66.85 E104.27305
G1 X51.362 Y67.2 E104.28649
G1 X69.23 Y67.2 E104.7415
G1 X69.085 Y67.332 E104.74649
G1 X68.809 Y67.55 E104.75544
G1 X51.772 Y67.55 E105.18929
G1 X52.231 Y67.9 E105.20399
G1 X68.367 Y67.9 E105.61489
G1 X68.332 Y67.928 E105.61603
G1 X67.859 Y68.25 E105.6306
G1 X52.73 Y68.25 E106.01586
G1 X53.205 Y68.564 E106.03036
G1 X53.268 Y68.6 E106.0322
G1 X67.311 Y68.6 E106.38981
G1 X66.714 Y68.947 E106.40739
G1 X66.707 Y68.95 E106.40758
G1 X53.885 Y68.95 E106.73409
G1 X53.993 Y69.011 E106.73725
G1 X54.598 Y69.3 E106.75433
G1 X65.996 Y69.3 E107.04457
G1 X65.873 Y69.361 E107.04807
G1 X65.164 Y69.65 E107.06757
G1 X55.429 Y69.65 E107.31547
G1 X55.771 Y69.784 E107.32482
G1 X56.452 Y70 E107.34301
G1 X64.145 Y70 E107.53891
G1 X64.127 Y70.006 E107.5394
G1 X63.219 Y70.239 E107.56327
G1 X62.615 Y70.35 E107.57891
G1 X57.954 Y70.35 E107.6976
G0 F7200 X58.485 Y70.44
G1 F1500 X59.459 Y70.535 E107.72252
G1 X60.418 Y70.558 E107.74695
G1 X61.327 Y70.52 E107.77011
G1 X62.289 Y70.41 E107.79477
G1 X62.615 Y70.35 E107.80321
G0 F600 X62.615 Y70.35 Z1.226
G0 F7200 X55.596 Y54.852
;TIME_ELAPSED:135.608952
;LAYER:0
M106 S255
;TYPE:WALL-INNER
;MESH:Object 1
G1 F1800 X56.479 Y54.888 E107.83703
G1 X57.369 Y54.934 E107.87114
G1 X58.246 Y54.988 E107.90476
G1 X59.128 Y55.054 E107.93861
G1 X60.017 Y55.129 E107.97275
G1 X60.886 Y55.214 E108.00617
G1 X61.769 Y55.311 E108.04017
G1 X62.65 Y55.417 E108.07412
G1 X63.525 Y55.531 E108.10789
G1 X64.398 Y55.657 E108.14165
