;FLAVOR:Marlin
;TIME:756
;Filament used: 0.446291m
;Layer height: 0.175
;MINX:43.891
;MINY:28.827
;MINZ:0.306
;MAXX:71.061
;MAXY:49.914
;MAXZ:17.02
;Generated with Cura_SteamEngine 4.5.0
M140 S60
M105
M190 S60
M104 S205
M105
M109 S205
M82 ;absolute extrusion mode
G21;(metric values)
G90;(absolute positioning)
M82;(set extruder to absolute mode)
M107;(start with the fan off)
G28;(Home the printer)
G92 E0;(Reset the extruder to 0)
G0 Z5 E5 F500;(Move up and prime the nozzle)
G0 X-1 Z0;(Move outside the printable area)
G1 Y60 E8 F500;(Draw a priming/wiping line to the rear)
G1 X-1;(Move a little closer to the print area)
G1 Y10 E16 F500;(draw more priming/wiping)
G1 E15 F250;(Small retract)
G92 E0;(Zero the extruder)
G92 E0
G92 E0
G1 F2400 E-4.5
;LAYER_COUNT:92
;LAYER:-5
M107
G0 F7200 X46.725 Y34.472 Z0.306
;TYPE:SUPPORT-INTERFACE
G1 F2400 E0
G1 F1125 X46.943 Y34.188 E0.03644
G1 X47.317 Y33.729 E0.0967
G1 X47.542 Y33.471 E0.13154
G1 X47.954 Y33.034 E0.19266
G1 X48.21 Y32.782 E0.22922
G1 X48.607 Y32.414 E0.28432
G1 X48.903 Y32.16 E0.32402
G1 X49.356 Y31.798 E0.38303
G1 X49.621 Y31.6 E0.4167
G1 X50.087 Y31.275 E0.47452
G1 X50.409 Y31.069 E0.51343
G1 X50.894 Y30.779 E0.57094
G1 X51.203 Y30.61 E0.60678
G1 X51.768 Y30.327 E0.6711
G1 X52.031 Y30.206 E0.70056
G1 X52.579 Y29.975 E0.76109
G1 X52.91 Y29.851 E0.79706
G1 X53.434 Y29.672 E0.85342
G1 X53.784 Y29.567 E0.89061
G1 X54.377 Y29.411 E0.95302
G1 X54.679 Y29.344 E0.9845
G1 X55.272 Y29.229 E1.04598
G1 X55.585 Y29.181 E1.07821
G1 X56.189 Y29.108 E1.14013
G1 X56.504 Y29.081 E1.1723
G1 X57.082 Y29.052 E1.2312
G1 X57.411 Y29.045 E1.26469
G1 X57.999 Y29.053 E1.32454
G1 X58.319 Y29.07 E1.35716
G1 X58.964 Y29.126 E1.42305
G1 X59.295 Y29.168 E1.45701
G1 X59.914 Y29.269 E1.52084
G1 X60.209 Y29.327 E1.55144
G1 X60.819 Y29.469 E1.61518
G1 X61.147 Y29.559 E1.6498
G1 X61.688 Y29.725 E1.70739
G1 X61.964 Y29.82 E1.7371
G1 X62.563 Y30.05 E1.80241
G1 X62.883 Y30.188 E1.83787
G1 X63.406 Y30.433 E1.89665
G1 X63.699 Y30.582 E1.93011
G1 X64.205 Y30.862 E1.98897
G1 X64.475 Y31.023 E2.02096
G1 X65.018 Y31.376 E2.08688
G1 X65.295 Y31.572 E2.12141
G1 X65.736 Y31.903 E2.17753
G1 X66.024 Y32.139 E2.21543
G1 X66.451 Y32.507 E2.2728
G1 X66.716 Y32.755 E2.30974
G1 X67.158 Y33.198 E2.37343
G1 X67.378 Y33.437 E2.40649
G1 X67.773 Y33.891 E2.46773
G1 X67.991 Y34.164 E2.50329
G1 X68.342 Y34.633 E2.56291
G1 X68.498 Y34.854 E2.59044
G1 X68.83 Y35.365 E2.65246
G1 X69.002 Y35.648 E2.68617
G1 X69.31 Y36.205 E2.75095
G1 X69.467 Y36.515 E2.78631
G1 X69.7 Y37.014 E2.84236
G1 X69.816 Y37.284 E2.87227
G1 X70.057 Y37.907 E2.94026
G1 X70.166 Y38.226 E2.97457
G1 X70.332 Y38.766 E3.03206
G1 X70.427 Y39.129 E3.07025
G1 X70.552 Y39.665 E3.12627
G1 X70.608 Y39.944 E3.15523
G1 X70.71 Y40.568 E3.21958
G1 X70.752 Y40.909 E3.25455
G1 X70.804 Y41.463 E3.31118
G1 X70.822 Y41.778 E3.34329
G1 X70.838 Y42.432 E3.40987
G1 X70.835 Y42.714 E3.43858
G1 X70.804 Y43.359 E3.5043
G1 X70.781 Y43.653 E3.53431
G1 X70.704 Y44.296 E3.60022
G1 X70.653 Y44.622 E3.6338
G1 X70.504 Y45.381 E3.71253
G1 X70.408 Y45.766 E3.75291
G1 X70.285 Y46.153 E3.79424
G1 X70.184 Y46.416 E3.82291
G1 X70.064 Y46.678 E3.85224
G1 X69.925 Y46.936 E3.88207
G1 X69.771 Y47.181 E3.91152
G1 X69.6 Y47.421 E3.94151
G1 X69.427 Y47.632 E3.96928
G1 X69.199 Y47.877 E4.00334
G1 X69.018 Y48.05 E4.02883
G1 X68.785 Y48.245 E4.05975
G1 X68.552 Y48.416 E4.08916
G1 X68.308 Y48.572 E4.11864
G1 X68.041 Y48.721 E4.14976
G1 X67.805 Y48.833 E4.17634
G1 X67.507 Y48.952 E4.209
G1 X67.255 Y49.034 E4.23597
G1 X66.951 Y49.114 E4.26797
G1 X66.697 Y49.165 E4.29433
G1 X66.372 Y49.211 E4.32774
G1 X65.538 Y49.296 E4.41306
G1 X64.635 Y49.379 E4.50535
G1 X64.201 Y49.412 E4.54965
G1 X63.613 Y49.462 E4.60971
G1 X62.669 Y49.527 E4.70602
G1 X61.702 Y49.582 E4.80459
G1 X60.77 Y49.623 E4.89954
G1 X59.808 Y49.657 E4.99751
G1 X58.887 Y49.678 E5.09127
G1 X57.949 Y49.688 E5.18674
G1 X57.003 Y49.689 E5.28302
G1 X56.052 Y49.679 E5.37982
G1 X55.1 Y49.657 E5.47673
G1 X54.11 Y49.623 E5.57755
G1 X53.212 Y49.582 E5.66904
G1 X52.376 Y49.534 E5.75426
G1 X51.892 Y49.498 E5.80366
G1 X51.892 Y49.501 E5.80397
G1 X51.319 Y49.462 E5.86242
G1 X50.336 Y49.382 E5.96279
G1 X49.434 Y49.299 E6.05498
G1 X48.478 Y49.196 E6.15285
G1 X48.096 Y49.132 E6.19227
G1 X47.811 Y49.066 E6.22204
G1 X47.527 Y48.979 E6.25227
G1 X47.265 Y48.882 E6.2807
G1 X46.993 Y48.761 E6.311
G1 X46.75 Y48.634 E6.33891
G1 X46.491 Y48.476 E6.36979
G1 X46.253 Y48.31 E6.39932
G1 X46.023 Y48.128 E6.42917
G1 X45.82 Y47.944 E6.45705
G1 X45.601 Y47.719 E6.48901
G1 X45.419 Y47.505 E6.5176
G1 X45.25 Y47.281 E6.54616
G1 X45.085 Y47.031 E6.57665
G1 X44.939 Y46.776 E6.60655
G1 X44.818 Y46.528 E6.63464
G1 X44.697 Y46.236 E6.66681
G1 X44.611 Y45.985 E6.69381
G1 X44.528 Y45.693 E6.7247
G1 X44.49 Y45.54 E6.74075
G1 X44.379 Y45.044 E6.79248
G1 X44.308 Y44.657 E6.83252
G1 X44.219 Y44.057 E6.89426
G1 X44.185 Y43.745 E6.9262
G1 X44.14 Y43.201 E6.98175
G1 X44.124 Y42.829 E7.01965
G1 X44.116 Y42.254 E7.07818
G1 X44.127 Y41.853 E7.119
G1 X44.159 Y41.313 E7.17406
G1 X44.193 Y40.965 E7.20965
G1 X44.265 Y40.41 E7.26661
G1 X44.323 Y40.06 E7.30271
G1 X44.441 Y39.472 E7.36375
G1 X44.503 Y39.209 E7.39125
G1 X44.675 Y38.579 E7.45772
G1 X44.78 Y38.243 E7.49354
G1 X44.962 Y37.724 E7.54952
G1 X45.086 Y37.405 E7.58435
G1 X45.338 Y36.822 E7.64899
G1 X45.482 Y36.52 E7.68305
G1 X45.751 Y36 E7.74263
G1 X45.922 Y35.699 E7.77786
G1 X46.228 Y35.197 E7.8377
G1 X46.396 Y34.94 E7.86895
G1 X46.575 Y34.685 E7.90066
G0 F1012.5 X46.725 Y34.472
G0 F7200 X46.4 Y34.934
G1 F1125 X46.4 Y48.412 E9.2724
G0 F7200 X48 Y49.109
G1 F1125 X48 Y32.988 E10.91313
G0 F7200 X49.6 Y31.615
G1 F1125 X49.6 Y49.314 E12.71446
G0 F7200 X51.2 Y49.452
G1 F1125 X51.2 Y30.611 E14.63202
G0 F7200 X52.8 Y29.892
G1 F1125 X52.8 Y49.558 E16.63355
G0 F7200 X54.4 Y49.632
G1 F1125 X54.4 Y29.405 E18.69217
G0 F7200 X56 Y29.13
G1 F1125 X56 Y49.677 E20.78336
G0 F7200 X57.6 Y49.689
G1 F1125 X57.6 Y29.048 E22.88412
G0 F7200 X59.2 Y29.156
G1 F1125 X59.2 Y49.671 E24.97206
G0 F7200 X60.8 Y49.622
G1 F1125 X60.8 Y29.465 E27.02356
G0 F7200 X62.4 Y29.988
G1 F1125 X62.4 Y49.543 E29.01379
G0 F7200 X64 Y49.43
G1 F1125 X64 Y30.749 E30.91506
G0 F7200 X65.6 Y31.801
G1 F1125 X65.6 Y49.29 E32.69503
G0 F7200 X67.2 Y49.049
G1 F1125 X67.2 Y33.244 E34.3036
G0 F7200 X68.8 Y35.319
G1 F1125 X68.8 Y48.233 E35.61793
G0 F7200 X70.4 Y45.792
M104 S200
G1 F1125 X70.4 Y39.026 E36.30655
G0 F7200 X44.8 Y38.185
G1 F1125 X44.8 Y46.484 E37.15119
G0 F600 X44.8 Y46.484 Z0.525
G0 F7200 X44.563 Y45.998
;TIME_ELAPSED:48.057051
;LAYER:-4
M140 S60
;TYPE:SUPPORT
G1 F1125 X44.656 Y46.27 E37.16951
G1 X44.768 Y46.538 E37.18802
G1 X44.89 Y46.791 E37.20592
G1 X45.045 Y47.059 E37.22565
G1 X45.21 Y47.31 E37.2448
G1 X45.382 Y47.539 E37.26305
G1 X45.558 Y47.746 E37.28037
G1 X45.785 Y47.98 E37.30115
G1 X45.993 Y48.166 E37.31893
G1 X46.22 Y48.347 E37.33744
G1 X46.463 Y48.518 E37.35637
G1 X46.717 Y48.672 E37.3753
G1 X46.97 Y48.805 E37.39352
G1 X47.25 Y48.929 E37.41304
G1 X47.511 Y49.025 E37.43076
G1 X47.804 Y49.115 E37.4503
G1 X47.854 Y49.126 E37.45356
G1 X44.498 Y45.771 E37.75601
G0 F7200 X47.854 Y49.126
G1 F1125 X48.088 Y49.18 E37.77131
G1 X48.467 Y49.245 E37.79582
G1 X49.339 Y49.339 E37.85172
G1 X44.187 Y44.187 E38.31609
G1 X44.168 Y44.064 E38.32403
G1 X44.134 Y43.75 E38.34416
G1 X44.089 Y43.202 E38.3792
G1 X44.073 Y42.831 E38.40287
G1 X44.072 Y42.799 E38.40491
G1 X50.737 Y49.464 E39.00566
G1 X51.314 Y49.512 E39.04256
G1 X51.941 Y49.555 E39.08261
G0 F7200 X51.941 Y49.552
G1 F1125 X52.11 Y49.564 E39.09341
G1 X44.093 Y41.548 E39.81597
G1 X44.107 Y41.309 E39.83123
G1 X44.144 Y40.954 E39.85398
G1 X44.214 Y40.401 E39.88951
G0 F7200 X44.215 Y40.397
G1 F1125 X53.461 Y49.643 E40.72289
G1 X54.107 Y49.672 E40.76411
G1 X54.787 Y49.696 E40.80747
G1 X44.422 Y39.331 E41.74172
G1 X44.457 Y39.186 E41.75122
G1 X44.626 Y38.563 E41.79237
G1 X44.699 Y38.335 E41.80762
G1 X56.092 Y49.728 E42.83453
G1 X57.001 Y49.738 E42.89246
G1 X57.374 Y49.737 E42.91624
G1 X45.034 Y37.397 E44.0285
G1 X45.039 Y37.385 E44.02933
G1 X45.293 Y36.797 E44.07015
G1 X45.426 Y36.517 E44.08991
G1 X58.639 Y49.73 E45.28085
G1 X58.886 Y49.727 E45.2966
G1 X59.809 Y49.707 E45.35544
G1 X59.886 Y49.704 E45.36035
G1 X45.869 Y35.686 E46.62381
G1 X45.877 Y35.672 E46.62484
G1 X46.184 Y35.17 E46.66234
G1 X46.348 Y34.919 E46.68145
G1 X46.358 Y34.903 E46.68265
G1 X61.113 Y49.657 E48.01254
G1 X61.704 Y49.632 E48.05024
G1 X62.324 Y49.596 E48.08983
G1 X46.894 Y34.166 E49.4806
G1 X46.903 Y34.156 E49.48146
G1 X47.277 Y33.696 E49.51925
G1 X47.473 Y33.472 E49.53822
G1 X63.517 Y49.517 E50.98438
G1 X63.607 Y49.511 E50.99013
G1 X64.691 Y49.417 E51.05948
G1 X48.096 Y32.823 E52.55521
G1 X48.175 Y32.744 E52.56233
G1 X48.573 Y32.376 E52.59688
G1 X48.761 Y32.215 E52.61266
G1 X65.859 Y49.312 E54.15373
G1 X66.37 Y49.261 E54.18646
G1 X66.692 Y49.216 E54.20718
G1 X66.952 Y49.164 E54.22408
G1 X66.976 Y49.157 E54.22568
G1 X49.469 Y31.65 E55.80366
G1 X49.587 Y31.561 E55.81308
G1 X50.055 Y31.235 E55.84943
G1 X50.221 Y31.129 E55.86199
G1 X67.923 Y48.831 E57.45755
G1 X68.07 Y48.76 E57.46795
G1 X68.343 Y48.608 E57.48787
G1 X68.572 Y48.462 E57.50518
G1 X68.718 Y48.354 E57.51675
G1 X51.018 Y30.653 E59.11218
G1 X51.179 Y30.564 E59.1239
G1 X51.739 Y30.285 E59.16378
G1 X51.864 Y30.227 E59.17256
G1 X69.386 Y47.748 E60.75185
G1 X69.468 Y47.66 E60.75952
G1 X69.635 Y47.453 E60.77647
G1 X69.805 Y47.219 E60.7949
G1 X69.93 Y47.019 E60.80994
G1 X52.762 Y29.852 E62.35732
G1 X52.892 Y29.803 E62.36617
G1 X53.415 Y29.625 E62.40139
G1 X53.717 Y29.534 E62.42149
G1 X70.336 Y46.153 E63.91943
G1 X70.454 Y45.78 E63.94437
G1 X70.592 Y45.206 E63.98199
G1 X70.603 Y45.148 E63.98576
G1 X54.737 Y29.281 E65.41588
G1 X55.263 Y29.178 E65.45004
G1 X55.577 Y29.131 E65.47027
G1 X55.829 Y29.1 E65.48646
G1 X70.782 Y44.054 E66.83428
G1 X70.83 Y43.65 E66.86021
G1 X70.853 Y43.362 E66.87863
G1 X70.876 Y42.875 E66.9097
G1 X57.007 Y29.006 E68.15977
G1 X57.079 Y29.001 E68.16437
G1 X57.41 Y28.994 E68.18548
G1 X57.981 Y29.002 E68.22187
G1 X58.293 Y29.019 E68.24179
G1 X70.86 Y41.586 E69.37451
G1 X70.853 Y41.471 E69.38185
G1 X70.8 Y40.896 E69.41865
G1 X70.758 Y40.561 E69.44017
G1 X70.69 Y40.143 E69.46716
G1 X59.736 Y29.189 E70.4545
G1 X59.918 Y29.218 E70.46624
G1 X60.217 Y29.277 E70.48567
G1 X60.822 Y29.418 E70.52526
G1 X61.161 Y29.511 E70.54766
G1 X61.406 Y29.586 E70.56399
G1 X70.295 Y38.475 E71.3652
G1 X70.213 Y38.211 E71.38282
G1 X70.103 Y37.89 E71.40445
G1 X69.861 Y37.263 E71.44728
G1 X69.745 Y36.993 E71.46601
G1 X69.511 Y36.493 E71.50119
G1 X69.435 Y36.342 E71.51197
G1 X63.537 Y30.444 E72.04358
G1 X63.727 Y30.541 E72.05718
G1 X64.23 Y30.819 E72.09381
G1 X64.5 Y30.98 E72.11384
G1 X65.046 Y31.335 E72.15535
G1 X65.318 Y31.527 E72.17657
G1 X65.765 Y31.862 E72.21217
G1 X66.055 Y32.099 E72.23604
G1 X66.484 Y32.471 E72.27223
G1 X66.75 Y32.718 E72.29537
G1 X67.194 Y33.164 E72.33548
G1 X67.411 Y33.399 E72.35587
G1 X67.81 Y33.859 E72.39468
G1 X68.03 Y34.134 E72.41712
G1 X68.385 Y34.609 E72.45492
G1 X68.544 Y34.834 E72.47248
G1 X68.872 Y35.339 E72.51085
G1 X69.044 Y35.624 E72.53207
G1 X69.355 Y36.186 E72.57301
G0 F600 X69.355 Y36.186 Z0.7
G0 F7200 X59.953 Y29.05
;TIME_ELAPSED:78.362606
;LAYER:-3
;TYPE:SUPPORT-INTERFACE
G1 F1500 X55.014 Y29.05 E72.69878
G1 X55.117 Y29.028 E72.70146
G1 X56.054 Y28.895 E72.72556
G1 X57.039 Y28.827 E72.7507
G1 X57.983 Y28.827 E72.77474
G1 X58.903 Y28.893 E72.79823
G1 X59.82 Y29.022 E72.82181
G0 F7200 X55.014 Y29.05
G1 F1500 X54.2 Y29.222 E72.843
G1 X53.573 Y29.4 E72.85959
G1 X61.401 Y29.4 E73.05893
G1 X61.753 Y29.509 E73.06832
G1 X62.41 Y29.75 E73.08614
G1 X52.552 Y29.75 E73.33717
G1 X52.388 Y29.809 E73.34161
G1 X51.736 Y30.1 E73.35979
G1 X63.221 Y30.1 E73.65225
G1 X63.425 Y30.191 E73.65794
G1 X63.914 Y30.45 E73.67203
G1 X51.042 Y30.45 E73.99981
G1 X50.687 Y30.638 E74.01004
G1 X50.427 Y30.8 E74.01784
G1 X64.528 Y30.8 E74.37692
G1 X65.047 Y31.123 E74.39249
G1 X65.085 Y31.15 E74.39368
G1 X49.87 Y31.15 E74.78112
G1 X49.388 Y31.5 E74.79629
G1 X65.566 Y31.5 E75.20826
G1 X65.866 Y31.718 E75.2177
G1 X66.024 Y31.85 E75.22295
G1 X48.935 Y31.85 E75.65812
G1 X48.514 Y32.2 E75.67206
G1 X66.44 Y32.2 E76.12854
G1 X66.528 Y32.274 E76.13147
G1 X66.817 Y32.55 E76.14164
G1 X48.138 Y32.55 E76.6173
G1 X47.774 Y32.9 E76.63016
G1 X67.183 Y32.9 E77.1244
G1 X67.202 Y32.919 E77.12509
G1 X67.502 Y33.25 E77.13646
G1 X47.452 Y33.25 E77.64703
G1 X47.135 Y33.6 E77.65906
G1 X67.82 Y33.6 E78.1858
G1 X67.85 Y33.634 E78.18695
G1 X68.107 Y33.95 E78.19732
G1 X46.852 Y33.95 E78.73858
G1 X46.575 Y34.3 E78.74995
G1 X68.375 Y34.3 E79.30508
G1 X68.526 Y34.502 E79.3115
G1 X68.626 Y34.65 E79.31605
G1 X46.333 Y34.65 E79.88373
G1 X46.095 Y35 E79.89451
G1 X68.861 Y35 E80.47424
G1 X68.965 Y35.155 E80.479
G1 X69.079 Y35.35 E80.48475
G1 X45.875 Y35.35 E81.07563
G1 X45.671 Y35.7 E81.08595
G1 X69.283 Y35.7 E81.68723
G1 X69.442 Y35.973 E81.69527
G1 X69.482 Y36.05 E81.69748
G1 X45.472 Y36.05 E82.30889
G1 X45.299 Y36.4 E82.31883
G1 X69.662 Y36.4 E82.93923
G1 X69.671 Y36.418 E82.93974
G1 X69.826 Y36.75 E82.94907
G1 X45.127 Y36.75 E83.57803
G1 X45.092 Y36.82 E83.58002
G1 X44.978 Y37.1 E83.58772
G1 X69.979 Y37.1 E84.22436
G1 X70.12 Y37.45 E84.23397
G1 X44.835 Y37.45 E84.87785
G1 X44.724 Y37.72 E84.88528
G1 X44.698 Y37.8 E84.88743
G1 X70.254 Y37.8 E85.5382
G1 X70.369 Y38.15 E85.54759
G1 X44.584 Y38.15 E86.2042
G1 X44.47 Y38.5 E86.21357
G1 X70.485 Y38.5 E86.87604
G1 X70.522 Y38.614 E86.87909
G1 X70.582 Y38.85 E86.88529
G1 X44.371 Y38.85 E87.55275
G1 X44.282 Y39.2 E87.56194
G1 X70.67 Y39.2 E88.23391
G1 X70.754 Y39.534 E88.24268
G1 X70.757 Y39.55 E88.24309
G1 X44.196 Y39.55 E88.91946
G1 X44.132 Y39.9 E88.92852
G1 X70.821 Y39.9 E89.60815
G1 X70.884 Y40.25 E89.61721
G1 X44.069 Y40.25 E90.30005
G1 X44.034 Y40.441 E90.30499
G1 X44.016 Y40.6 E90.30907
G1 X70.937 Y40.6 E90.9946
G1 X70.975 Y40.95 E91.00357
G1 X43.976 Y40.95 E91.69109
G1 X43.936 Y41.288 E91.69976
G1 X43.936 Y41.3 E91.70007
G1 X71.013 Y41.3 E92.38958
G1 X71.028 Y41.449 E92.39339
G1 X71.036 Y41.65 E92.39851
G1 X43.915 Y41.65 E93.08914
G1 X43.902 Y41.848 E93.0942
G1 X43.899 Y42 E93.09807
G1 X71.05 Y42 E93.78946
G1 X71.061 Y42.307 E93.79728
G1 X71.059 Y42.35 E93.79838
G1 X43.892 Y42.35 E94.49018
G1 X43.891 Y42.384 E94.49105
G1 X43.9 Y42.7 E94.4991
G1 X71.05 Y42.7 E95.19047
G1 X71.04 Y43.05 E95.19938
G1 X43.911 Y43.05 E95.89022
G1 X43.919 Y43.278 E95.89603
G1 X43.931 Y43.4 E95.89915
G1 X71.024 Y43.4 E96.58907
G1 X70.988 Y43.75 E96.59803
G1 X43.966 Y43.75 E97.28614
G1 X44.001 Y44.1 E97.29509
G1 X70.953 Y44.1 E97.98142
G1 X70.942 Y44.209 E97.98421
G1 X70.901 Y44.45 E97.99044
G1 X44.052 Y44.45 E98.67414
G1 X44.111 Y44.8 E98.68318
G1 X70.842 Y44.8 E99.36388
G1 X70.786 Y45.137 E99.37258
G1 X70.783 Y45.15 E99.37292
G1 X44.172 Y45.15 E100.05056
G1 X44.253 Y45.5 E100.05971
G1 X70.702 Y45.5 E100.73323
G1 X70.654 Y45.714 E100.73881
G1 X70.612 Y45.85 E100.74244
G1 X44.341 Y45.85 E101.41142
G1 X44.451 Y46.2 E101.42076
G1 X70.505 Y46.2 E102.08422
G1 X70.495 Y46.233 E102.0851
G1 X70.36 Y46.55 E102.09388
G1 X44.59 Y46.55 E102.7501
G1 X44.739 Y46.879 E102.7593
G1 X44.751 Y46.9 E102.75992
G1 X70.194 Y46.9 E103.40782
G1 X69.991 Y47.25 E103.41812
G1 X44.966 Y47.25 E104.05538
G1 X45.062 Y47.405 E104.06002
G1 X45.218 Y47.6 E104.06638
G1 X69.733 Y47.6 E104.69065
G1 X69.59 Y47.787 E104.69664
G1 X69.429 Y47.95 E104.70248
G1 X45.517 Y47.95 E105.31139
G1 X45.878 Y48.3 E105.32419
G1 X69.063 Y48.3 E105.9146
G1 X68.68 Y48.6 E105.92698
G1 X68.596 Y48.65 E105.92947
G1 X46.349 Y48.65 E106.49599
G1 X46.376 Y48.67 E106.49684
G1 X46.894 Y48.963 E106.512
G1 X46.984 Y49 E106.51448
G1 X67.958 Y49 E107.04858
G1 X67.59 Y49.16 E107.05879
G1 X67.008 Y49.331 E107.07424
G1 X66.9 Y49.35 E107.07703
G1 X48.038 Y49.35 E107.55735
G1 X48.046 Y49.352 E107.55756
G1 X48.586 Y49.438 E107.57148
G1 X49.471 Y49.529 E107.59414
G1 X50.451 Y49.618 E107.6192
G1 X51.511 Y49.7 E107.64627
G1 X63.413 Y49.7 E107.94935
G1 X62.786 Y49.743 E107.96536
G1 X61.788 Y49.802 E107.99082
G1 X60.855 Y49.844 E108.0146
G1 X59.904 Y49.878 E108.03883
G1 X58.951 Y49.902 E108.06311
G1 X57.996 Y49.913 E108.08743
G1 X57.055 Y49.914 E108.11139
G1 X56.108 Y49.905 E108.13551
