;FLAVOR:Marlin
;TIME:1027
;Filament used: 0.661063m
;Layer height: 0.175
;MINX:45.919
;MINY:49.134
;MINZ:0.306
;MAXX:74.085
;MAXY:70.875
;MAXZ:18.07
;Generated with Cura_SteamEngine 4.5.0
M140 S60
M105
M190 S60
M104 S205
M105
M109 S205
M82 ;absolute extrusion mode
G21;(metric values)
G90;(absolute positioning)
M82;(set extruder to absolute mode)
M107;(start with the fan off)
G28;(Home the printer)
G92 E0;(Reset the extruder to 0)
G0 Z5 E5 F500;(Move up and prime the nozzle)
G0 X-1 Z0;(Move outside the printable area)
G1 Y60 E8 F500;(Draw a priming/wiping line to the rear)
G1 X-1;(Move a little closer to the print area)
G1 Y10 E16 F500;(draw more priming/wiping)
G1 E15 F250;(Small retract)
G92 E0;(Zero the extruder)
G92 E0
G92 E0
G1 F2400 E-4.5
;LAYER_COUNT:98
;LAYER:-5
M107
G0 F7200 X50.37 Y53.245 Z0.306
;TYPE:SUPPORT-INTERFACE
G1 F2400 E0
G1 F1125 X50.974 Y52.694 E0.08321
G1 X51.087 Y52.6 E0.09817
G1 X51.582 Y52.203 E0.16275
G1 X51.84 Y52.011 E0.19548
G1 X52.337 Y51.663 E0.25723
G1 X52.646 Y51.465 E0.29458
G1 X53.21 Y51.131 E0.36129
G1 X53.49 Y50.978 E0.39377
G1 X54.038 Y50.701 E0.45626
G1 X54.337 Y50.563 E0.48978
G1 X54.897 Y50.326 E0.55167
G1 X55.23 Y50.201 E0.58787
G1 X55.822 Y49.997 E0.65159
G1 X56.167 Y49.895 E0.68821
G1 X56.75 Y49.74 E0.74961
G1 X57.04 Y49.673 E0.7799
G1 X57.679 Y49.548 E0.84617
G1 X58.043 Y49.493 E0.88363
G1 X58.675 Y49.417 E0.94842
G1 X58.975 Y49.391 E0.97907
G1 X59.61 Y49.358 E1.04378
G1 X59.924 Y49.352 E1.07574
G1 X60.597 Y49.365 E1.14425
G1 X60.927 Y49.383 E1.17789
G1 X61.499 Y49.433 E1.23633
G1 X61.871 Y49.479 E1.27448
G1 X62.48 Y49.575 E1.33722
G1 X62.808 Y49.639 E1.37123
G1 X63.455 Y49.79 E1.43885
G1 X63.739 Y49.866 E1.46877
G1 X64.347 Y50.05 E1.53343
G1 X64.671 Y50.163 E1.56835
G1 X65.259 Y50.388 E1.63243
G1 X65.565 Y50.518 E1.66626
G1 X66.124 Y50.778 E1.72901
G1 X66.459 Y50.95 E1.76734
G1 X67.01 Y51.256 E1.83148
G1 X67.253 Y51.401 E1.86028
G1 X67.807 Y51.76 E1.92747
G1 X68.081 Y51.952 E1.96152
G1 X68.596 Y52.341 E2.02721
G1 X68.837 Y52.535 E2.05869
G1 X69.317 Y52.952 E2.12341
G1 X69.544 Y53.162 E2.15488
G1 X69.991 Y53.606 E2.219
G1 X70.237 Y53.87 E2.25573
G1 X70.654 Y54.347 E2.32021
G1 X70.891 Y54.64 E2.35857
G1 X71.248 Y55.114 E2.41896
G1 X71.43 Y55.373 E2.45118
G1 X71.805 Y55.95 E2.52122
G1 X71.931 Y56.157 E2.54588
G1 X72.238 Y56.704 E2.60972
G1 X72.425 Y57.073 E2.65182
G1 X72.676 Y57.608 E2.71197
G1 X72.798 Y57.892 E2.74342
G1 X73.049 Y58.54 E2.81415
G1 X73.143 Y58.811 E2.84334
G1 X73.34 Y59.451 E2.9115
G1 X73.431 Y59.792 E2.94742
G1 X73.564 Y60.357 E3.00649
G1 X73.637 Y60.741 E3.04627
G1 X73.735 Y61.355 E3.10956
G1 X73.771 Y61.64 E3.13879
G1 X73.841 Y62.479 E3.22448
G1 X73.847 Y62.641 E3.24098
G1 X73.86 Y63.25 E3.30297
G1 X73.857 Y63.557 E3.33422
G1 X73.827 Y64.189 E3.39861
G1 X73.804 Y64.489 E3.42924
G1 X73.723 Y65.174 E3.49944
G1 X73.67 Y65.509 E3.53396
G1 X73.548 Y66.137 E3.59907
G1 X73.426 Y66.625 E3.65026
G1 X73.385 Y66.767 E3.66531
G1 X73.332 Y66.927 E3.68246
G1 X73.203 Y67.28 E3.72071
G1 X73.082 Y67.554 E3.7512
G1 X72.948 Y67.814 E3.78097
G1 X72.815 Y68.036 E3.8073
G1 X72.643 Y68.285 E3.83811
G1 X72.448 Y68.532 E3.87013
G1 X72.257 Y68.744 E3.89918
G1 X72.066 Y68.932 E3.92645
G1 X71.835 Y69.132 E3.95755
G1 X71.609 Y69.304 E3.98645
G1 X71.36 Y69.47 E4.01691
G1 X71.105 Y69.617 E4.04687
G1 X70.86 Y69.738 E4.07468
G1 X70.592 Y69.851 E4.10428
G1 X70.33 Y69.943 E4.13254
G1 X70.009 Y70.029 E4.16636
G1 X69.497 Y70.125 E4.21938
G1 X69.306 Y70.153 E4.23903
G1 X68.404 Y70.245 E4.33131
G1 X67.413 Y70.335 E4.43258
G1 X66.472 Y70.41 E4.52866
G1 X65.472 Y70.479 E4.63067
G1 X64.48 Y70.536 E4.7318
G1 X63.486 Y70.58 E4.83307
G1 X62.484 Y70.615 E4.93511
G1 X61.488 Y70.638 E5.03651
G1 X60.497 Y70.649 E5.13737
G1 X59.498 Y70.65 E5.23905
G1 X58.5 Y70.639 E5.34062
G1 X57.5 Y70.616 E5.44243
G1 X56.501 Y70.582 E5.54416
G1 X55.457 Y70.534 E5.65053
G1 X54.434 Y70.473 E5.75483
G1 X53.517 Y70.41 E5.84838
G1 X52.525 Y70.331 E5.94966
G1 X51.52 Y70.239 E6.05237
G1 X50.52 Y70.131 E6.15474
G1 X50.149 Y70.069 E6.19302
G1 X49.882 Y70.006 E6.22094
G1 X49.601 Y69.922 E6.25079
G1 X49.315 Y69.816 E6.28183
G1 X49.072 Y69.707 E6.30894
G1 X48.794 Y69.562 E6.34085
G1 X48.555 Y69.417 E6.3693
G1 X48.316 Y69.251 E6.39892
G1 X48.093 Y69.073 E6.42796
G1 X47.872 Y68.873 E6.45829
G1 X47.668 Y68.663 E6.48809
G1 X47.474 Y68.436 E6.51848
G1 X47.31 Y68.219 E6.54617
G1 X47.145 Y67.969 E6.57665
G1 X46.999 Y67.714 E6.60656
G1 X46.878 Y67.466 E6.63464
G1 X46.747 Y67.15 E6.66946
G1 X46.674 Y66.946 E6.69151
G1 X46.585 Y66.636 E6.72433
G1 X46.435 Y66.041 E6.78678
G1 X46.344 Y65.578 E6.83481
G1 X46.248 Y64.934 E6.90108
G1 X46.213 Y64.624 E6.93283
G1 X46.153 Y63.814 E7.01549
G1 X46.148 Y63.646 E7.0326
G1 X46.14 Y63.062 E7.09204
G1 X46.148 Y62.724 E7.12645
G1 X46.202 Y61.884 E7.21212
G1 X46.217 Y61.752 E7.22564
G1 X46.298 Y61.119 E7.29059
G1 X46.354 Y60.782 E7.32536
G1 X46.472 Y60.193 E7.3865
G1 X46.561 Y59.822 E7.42533
G1 X46.713 Y59.267 E7.48389
G1 X46.802 Y58.978 E7.51467
G1 X47.018 Y58.355 E7.58178
G1 X47.163 Y57.988 E7.62194
G1 X47.389 Y57.461 E7.6803
G1 X47.541 Y57.139 E7.71654
G1 X47.824 Y56.589 E7.77949
G1 X47.996 Y56.286 E7.81495
G1 X48.313 Y55.76 E7.87746
G1 X48.504 Y55.471 E7.91271
G1 X48.877 Y54.943 E7.97851
G1 X49.08 Y54.678 E8.01248
G1 X49.498 Y54.169 E8.07951
G1 X49.696 Y53.946 E8.10987
G1 X50.106 Y53.507 E8.171
G1 X50.185 Y53.429 E8.1823
G0 F1012.5 X50.37 Y53.245
G0 F7200 X51.2 Y52.509
G1 F1125 X51.2 Y70.204 E9.98323
G0 F7200 X52.8 Y70.352
G1 F1125 X52.8 Y51.373 E11.91483
G0 F7200 X54.4 Y50.536
G1 F1125 X54.4 Y70.47 E13.94364
G0 F7200 X56 Y70.558
G1 F1125 X56 Y49.944 E16.04165
G0 F7200 X57.6 Y49.563
G1 F1125 X57.6 Y70.618 E18.18454
G0 F7200 X59.2 Y70.646
G1 F1125 X59.2 Y49.379 E20.34901
G0 F7200 X60.8 Y49.377
G1 F1125 X60.8 Y70.646 E22.51369
G0 F7200 X62.4 Y70.617
G1 F1125 X62.4 Y49.563 E24.65648
G0 F7200 X64 Y49.945
G1 F1125 X64 Y70.558 E26.75439
G0 F7200 X65.6 Y70.471
G1 F1125 X65.6 Y50.535 E28.78339
G0 F7200 X67.2 Y51.37
G1 F1125 X67.2 Y70.352 E30.71531
G0 F7200 X68.8 Y70.205
G1 F1125 X68.8 Y52.506 E32.51664
G0 F7200 X70.4 Y54.057
G1 F1125 X70.4 Y69.919 E34.13101
G0 F7200 X72 Y68.99
G1 F1125 X72 Y56.28 E35.42458
G0 F7200 X73.6 Y60.547
G1 F1125 X73.6 Y65.87 E35.96634
G0 F7200 X49.6 Y69.921
G1 F1125 X49.6 Y54.054 E37.58122
G0 F7200 X48 Y56.279
M104 S200
G1 F1125 X48 Y68.988 E38.87469
G0 F7200 X46.4 Y65.862
G1 F1125 X46.4 Y60.552 E39.41512
G0 F600 X46.4 Y60.552 Z0.525
G0 F7200 X46.706 Y67.184
;TIME_ELAPSED:49.552871
;LAYER:-4
M140 S60
;TYPE:SUPPORT
G1 F1125 X46.828 Y67.477 E39.43535
G1 X46.951 Y67.728 E39.45316
G1 X47.105 Y67.997 E39.47292
G1 X47.27 Y68.248 E39.49206
G1 X47.438 Y68.47 E39.50981
G1 X47.626 Y68.691 E39.5283
G1 X47.826 Y68.898 E39.54664
G1 X48.064 Y69.111 E39.567
G1 X48.291 Y69.292 E39.5855
G1 X48.528 Y69.458 E39.60395
G1 X48.767 Y69.602 E39.62173
G1 X49.037 Y69.744 E39.64117
G1 X49.305 Y69.865 E39.65991
G1 X49.585 Y69.968 E39.67893
G1 X49.611 Y69.975 E39.68065
G1 X46.643 Y67.008 E39.94812
G1 X46.623 Y66.949 E39.95209
G1 X46.536 Y66.649 E39.972
G1 X46.388 Y66.058 E40.01083
G1 X46.294 Y65.586 E40.0415
G1 X46.259 Y65.351 E40.05664
G1 X51.157 Y70.249 E40.49812
G1 X51.516 Y70.288 E40.52114
G1 X52.527 Y70.38 E40.58584
G1 X52.564 Y70.383 E40.58821
G1 X46.109 Y63.928 E41.17003
G1 X46.098 Y63.647 E41.18795
G1 X46.089 Y63.06 E41.22537
G1 X46.098 Y62.721 E41.24698
G1 X46.102 Y62.648 E41.25164
G1 X53.942 Y70.488 E41.95829
G1 X54.43 Y70.521 E41.98947
G1 X55.299 Y70.573 E42.04495
G1 X46.2 Y61.474 E42.86509
G1 X46.248 Y61.11 E42.88849
G1 X46.304 Y60.772 E42.91032
G1 X46.382 Y60.383 E42.93561
G1 X56.635 Y70.635 E43.85971
G1 X57.497 Y70.665 E43.91469
G1 X57.947 Y70.675 E43.94337
G1 X46.635 Y59.363 E44.96297
G1 X46.666 Y59.249 E44.9705
G1 X46.755 Y58.959 E44.98984
G1 X46.948 Y58.403 E45.02735
G1 X59.24 Y70.695 E46.13528
G1 X59.497 Y70.699 E46.15166
G1 X60.497 Y70.697 E46.2154
G1 X60.514 Y70.697 E46.21648
G1 X47.317 Y57.499 E47.40603
G1 X47.344 Y57.438 E47.41028
G1 X47.499 Y57.108 E47.43352
G1 X47.737 Y56.647 E47.46659
G1 X61.77 Y70.68 E48.73145
G1 X62.485 Y70.664 E48.77703
G1 X63.008 Y70.645 E48.81038
G1 X48.204 Y55.84 E50.14478
G1 X48.27 Y55.732 E50.15285
G1 X48.46 Y55.446 E50.17473
G1 X48.717 Y55.081 E50.20318
G1 X64.231 Y70.595 E51.60153
G1 X64.48 Y70.584 E51.61741
G1 X65.439 Y70.53 E51.67863
G1 X49.271 Y54.363 E53.13588
G1 X49.459 Y54.135 E53.15472
G1 X49.658 Y53.911 E53.17381
G1 X49.867 Y53.686 E53.19339
G1 X66.627 Y70.446 E54.70404
G1 X67.8 Y70.345 E54.77908
G1 X50.505 Y53.051 E56.33791
G1 X50.789 Y52.789 E56.36254
G1 X51.055 Y52.559 E56.38495
G1 X51.183 Y52.456 E56.39542
G1 X68.964 Y70.236 E57.99806
G1 X69.316 Y70.2 E58.02061
G1 X69.488 Y70.176 E58.03168
G1 X70.017 Y70.077 E58.06598
G1 X70.064 Y70.064 E58.06909
G1 X51.904 Y51.904 E59.70593
G1 X52.309 Y51.62 E59.73746
G1 X52.618 Y51.422 E59.76085
G1 X52.666 Y51.393 E59.76442
G1 X70.997 Y69.724 E61.41668
G1 X71.136 Y69.655 E61.42657
G1 X71.395 Y69.507 E61.44558
G1 X71.639 Y69.343 E61.46432
G1 X71.781 Y69.235 E61.47569
G1 X53.475 Y50.93 E63.12564
G1 X54.015 Y50.655 E63.16427
G1 X54.309 Y50.52 E63.18489
G1 X54.33 Y50.512 E63.18632
G1 X72.437 Y68.619 E64.81838
G1 X72.479 Y68.57 E64.8225
G1 X72.686 Y68.309 E64.84373
G1 X72.85 Y68.071 E64.86215
G1 X72.967 Y67.876 E64.87664
G1 X55.235 Y50.144 E66.47491
G1 X55.813 Y49.948 E66.51381
G1 X56.148 Y49.848 E66.53609
G1 X56.199 Y49.835 E66.53944
G1 X73.36 Y66.996 E68.08624
G1 X73.378 Y66.945 E68.08969
G1 X73.428 Y66.794 E68.09983
G1 X73.473 Y66.638 E68.11018
G1 X73.596 Y66.149 E68.14231
G1 X73.627 Y65.99 E68.15264
G1 X57.223 Y49.586 E69.6312
G1 X57.67 Y49.498 E69.66024
G1 X58.041 Y49.443 E69.68415
G1 X58.319 Y49.409 E69.702
G1 X73.805 Y64.896 E71.09786
G1 X73.852 Y64.494 E71.12366
G1 X73.876 Y64.193 E71.1429
G1 X73.899 Y63.717 E71.17328
G1 X59.496 Y49.314 E72.47149
G1 X59.607 Y49.307 E72.47857
G1 X59.923 Y49.302 E72.49872
G1 X60.594 Y49.315 E72.54149
G1 X60.78 Y49.325 E72.55336
G1 X73.887 Y62.431 E73.73471
G1 X73.82 Y61.644 E73.78505
G1 X73.784 Y61.353 E73.80374
G1 X73.728 Y61 E73.82652
G1 X62.21 Y49.482 E74.86469
G1 X62.478 Y49.524 E74.88198
G1 X62.817 Y49.59 E74.90399
G1 X63.469 Y49.742 E74.94666
G1 X63.752 Y49.817 E74.96532
G1 X63.848 Y49.847 E74.97173
G1 X73.365 Y59.364 E75.82954
G1 X73.191 Y58.803 E75.86697
G1 X73.095 Y58.522 E75.8859
G1 X72.843 Y57.872 E75.93033
G1 X72.721 Y57.588 E75.95003
G1 X72.597 Y57.324 E75.96862
G1 X65.886 Y50.613 E76.57352
G1 X66.142 Y50.732 E76.59151
G1 X66.487 Y50.908 E76.61619
G1 X67.035 Y51.212 E76.65613
G1 X67.279 Y51.359 E76.67429
G1 X67.834 Y51.719 E76.71645
G1 X68.104 Y51.908 E76.73746
G1 X68.627 Y52.301 E76.77915
G1 X68.867 Y52.497 E76.7989
G1 X69.35 Y52.914 E76.83957
G1 X69.577 Y53.124 E76.85928
G1 X70.017 Y53.561 E76.8988
G1 X70.272 Y53.836 E76.92271
G1 X70.692 Y54.315 E76.96331
G1 X70.934 Y54.615 E76.98788
G1 X71.283 Y55.077 E77.02478
G1 X71.47 Y55.345 E77.04561
G1 X71.846 Y55.924 E77.08961
G1 X71.98 Y56.142 E77.10592
G1 X72.281 Y56.683 E77.14537
G1 X72.469 Y57.051 E77.17171
G0 F600 X72.469 Y57.051 Z0.7
G0 F7200 X62.498 Y49.35
;TIME_ELAPSED:81.656903
;LAYER:-3
;TYPE:SUPPORT-INTERFACE
G1 F1500 X57.525 Y49.35 E77.29835
G1 X57.576 Y49.339 E77.29968
G1 X58.534 Y49.206 E77.32431
G1 X59.53 Y49.135 E77.34973
G1 X60.483 Y49.134 E77.374
G1 X61.525 Y49.208 E77.4006
G1 X62.469 Y49.344 E77.42489
G0 F7200 X57.525 Y49.35
G1 F1500 X56.603 Y49.545 E77.44889
G1 X56.06 Y49.7 E77.46327
G1 X63.95 Y49.7 E77.66418
G1 X64.366 Y49.819 E77.6752
G1 X64.998 Y50.05 E77.69234
G1 X55.005 Y50.05 E77.94681
G1 X54.778 Y50.132 E77.95295
G1 X54.176 Y50.4 E77.96973
G1 X65.834 Y50.4 E78.2666
G1 X66.189 Y50.558 E78.2765
G1 X66.548 Y50.75 E78.28686
G1 X53.46 Y50.75 E78.62015
G1 X52.967 Y51.011 E78.63435
G1 X52.824 Y51.1 E78.63864
G1 X67.177 Y51.1 E79.00414
G1 X67.742 Y51.45 E79.02106
G1 X52.26 Y51.45 E79.41531
G1 X52.156 Y51.514 E79.41842
G1 X51.763 Y51.8 E79.43079
G1 X68.242 Y51.8 E79.85043
G1 X68.652 Y52.098 E79.86334
G1 X68.715 Y52.15 E79.86542
G1 X51.287 Y52.15 E80.30922
G1 X50.869 Y52.5 E80.3231
G1 X69.134 Y52.5 E80.78821
G1 X69.409 Y52.73 E80.79734
G1 X69.534 Y52.85 E80.80176
G1 X50.469 Y52.85 E81.28724
G1 X50.106 Y53.2 E81.30008
G1 X69.897 Y53.2 E81.80406
G1 X70.146 Y53.441 E81.81288
G1 X70.245 Y53.55 E81.81663
G1 X49.762 Y53.55 E82.33823
G1 X49.446 Y53.9 E82.35023
G1 X70.56 Y53.9 E82.8879
G1 X70.744 Y54.105 E82.89491
G1 X70.864 Y54.25 E82.8997
G1 X49.142 Y54.25 E83.45285
G1 X48.867 Y54.6 E83.46419
G1 X71.145 Y54.6 E84.03149
G1 X71.379 Y54.912 E84.04142
G1 X71.405 Y54.95 E84.04259
G1 X48.595 Y54.95 E84.62345
G1 X48.358 Y55.3 E84.63421
G1 X71.643 Y55.3 E85.22716
G1 X71.88 Y55.65 E85.23792
G1 X48.122 Y55.65 E85.84291
G1 X48.07 Y55.726 E85.84526
G1 X47.91 Y56 E85.85334
G1 X72.089 Y56 E86.46905
G1 X72.293 Y56.35 E86.47937
G1 X47.705 Y56.35 E87.1055
G1 X47.607 Y56.517 E87.11043
G1 X47.517 Y56.7 E87.11562
G1 X72.487 Y56.7 E87.75148
G1 X72.658 Y57.05 E87.76139
G1 X47.345 Y57.05 E88.40599
G1 X47.172 Y57.4 E88.41593
G1 X72.829 Y57.4 E89.06928
G1 X72.842 Y57.428 E89.07006
G1 X72.974 Y57.75 E89.07893
G1 X47.027 Y57.75 E89.73966
G1 X46.884 Y58.1 E89.74929
G1 X73.117 Y58.1 E90.41731
G1 X73.216 Y58.343 E90.42399
G1 X73.252 Y58.45 E90.42686
G1 X46.748 Y58.45 E91.10178
G1 X46.632 Y58.8 E91.11117
G1 X73.368 Y58.8 E91.792
G1 X73.483 Y59.15 E91.80138
G1 X46.515 Y59.15 E92.48811
G1 X46.492 Y59.219 E92.48997
G1 X46.419 Y59.5 E92.49736
G1 X73.582 Y59.5 E93.18906
G1 X73.67 Y59.85 E93.19825
G1 X46.329 Y59.85 E93.89448
G1 X46.243 Y60.181 E93.90319
G1 X46.24 Y60.2 E93.90368
G1 X73.759 Y60.2 E94.60445
G1 X73.771 Y60.249 E94.60573
G1 X73.825 Y60.55 E94.61352
G1 X46.177 Y60.55 E95.31757
G1 X46.114 Y60.9 E95.32662
G1 X73.888 Y60.9 E96.03388
G1 X73.939 Y61.188 E96.04133
G1 X73.946 Y61.25 E96.04292
G1 X46.053 Y61.25 E96.75321
G1 X46.015 Y61.6 E96.76217
G1 X73.985 Y61.6 E97.47442
G1 X74.024 Y61.95 E97.48339
G1 X45.977 Y61.95 E98.1976
G1 X45.953 Y62.166 E98.20314
G1 X45.948 Y62.3 E98.20655
G1 X74.053 Y62.3 E98.92224
G1 X74.072 Y62.634 E98.93076
G1 X74.073 Y62.65 E98.93117
G1 X45.935 Y62.65 E99.6477
G1 X45.922 Y63 E99.65661
G1 X74.08 Y63 E100.37365
G1 X74.085 Y63.251 E100.38005
G1 X74.081 Y63.35 E100.38257
G1 X45.919 Y63.35 E101.09971
G1 X45.931 Y63.7 E101.10863
G1 X74.07 Y63.7 E101.82518
G1 X74.058 Y64.05 E101.8341
G1 X45.943 Y64.05 E102.55004
G1 X45.947 Y64.153 E102.55266
G1 X45.971 Y64.4 E102.55898
G1 X74.029 Y64.4 E103.27348
G1 X73.994 Y64.75 E103.28243
G1 X46.006 Y64.75 E103.99514
G1 X46.04 Y65.086 E104.00374
G1 X46.042 Y65.1 E104.0041
G1 X73.958 Y65.1 E104.71498
G1 X73.899 Y65.45 E104.72401
G1 X46.095 Y65.45 E105.43204
G1 X46.121 Y65.617 E105.43634
G1 X46.158 Y65.8 E105.4411
G1 X73.84 Y65.8 E106.14601
G1 X73.801 Y66.031 E106.15198
G1 X73.773 Y66.15 E106.15509
G1 X46.229 Y66.15 E106.85649
G1 X46.235 Y66.179 E106.85725
G1 X46.316 Y66.5 E106.86568
G1 X73.691 Y66.5 E107.56278
G1 X73.685 Y66.529 E107.56353
G1 X73.58 Y66.85 E107.57213
G1 X46.415 Y66.85 E108.26388
G1 X46.526 Y67.2 E108.27323
G1 X73.466 Y67.2 E108.95925
G1 X73.418 Y67.35 E108.96326
G1 X73.322 Y67.55 E108.96891
G1 X46.678 Y67.55 E109.6474
G1 X46.798 Y67.817 E109.65485
G1 X46.848 Y67.9 E109.65732
G1 X73.156 Y67.9 E110.32725
G1 X73.149 Y67.915 E110.32767
G1 X72.932 Y68.25 E110.33783
G1 X47.063 Y68.25 E110.99658
G1 X47.121 Y68.343 E110.99937
G1 X47.328 Y68.6 E111.00777
G1 X72.672 Y68.6 E111.65315
G1 X72.43 Y68.889 E111.66275
G1 X72.364 Y68.95 E111.66504
G1 X47.639 Y68.95 E112.29466
G1 X47.941 Y69.24 E112.30532
G1 X48.021 Y69.3 E112.30787
G1 X71.986 Y69.3 E112.91813
G1 X71.495 Y69.65 E112.93349
G1 X48.511 Y69.65 E113.51877
G1 X48.965 Y69.906 E113.53204
G1 X49.195 Y70 E113.53837
G1 X70.808 Y70 E114.08874
G1 X70.407 Y70.155 E114.09969
G1 X69.522 Y70.349 E114.12276
G1 X69.513 Y70.35 E114.12299
G1 X50.486 Y70.35 E114.60751
G1 X50.642 Y70.375 E114.61153
G1 X51.718 Y70.483 E114.63907
G1 X52.557 Y70.56 E114.66052
G1 X53.553 Y70.638 E114.68596
G1 X54.462 Y70.7 E114.70916
G1 X65.449 Y70.7 E114.98895
G1 X64.545 Y70.757 E115.01201
G1 X63.545 Y70.803 E115.0375
G1 X62.549 Y70.838 E115.06288
G1 X61.548 Y70.862 E115.08838
G1 X60.546 Y70.874 E115.1139
G1 X59.551 Y70.875 E115.13923
