;FLAVOR:Marlin
;TIME:941
;Filament used: 0.559675m
;Layer height: 0.175
;MINX:45.415
;MINY:48.808
;MINZ:0.306
;MAXX:74.584
;MAXY:71.202
;MAXZ:18.945
;Generated with Cura_SteamEngine 4.5.0
M140 S60
M105
M190 S60
M104 S205
M105
M109 S205
M82 ;absolute extrusion mode
G21;(metric values)
G90;(absolute positioning)
M82;(set extruder to absolute mode)
M107;(start with the fan off)
G28;(Home the printer)
G92 E0;(Reset the extruder to 0)
G0 Z5 E5 F500;(Move up and prime the nozzle)
G0 X-1 Z0;(Move outside the printable area)
G1 Y60 E8 F500;(Draw a priming/wiping line to the rear)
G1 X-1;(Move a little closer to the print area)
G1 Y10 E16 F500;(draw more priming/wiping)
G1 E15 F250;(Small retract)
G92 E0;(Zero the extruder)
G92 E0
G92 E0
G1 F2400 E-4.5
;LAYER_COUNT:103
;LAYER:-5
M107
G0 F7200 X50.029 Y53.053 Z0.306
;TYPE:SUPPORT-INTERFACE
G1 F2400 E0
G1 F1125 X50.483 Y52.632 E0.06302
G1 X50.738 Y52.413 E0.09723
G1 X51.288 Y51.971 E0.16904
G1 X51.535 Y51.787 E0.20039
G1 X52.063 Y51.419 E0.26589
G1 X52.389 Y51.21 E0.3053
G1 X52.943 Y50.881 E0.37088
G1 X53.234 Y50.721 E0.40468
G1 X53.828 Y50.42 E0.47245
G1 X54.096 Y50.296 E0.5025
G1 X54.741 Y50.024 E0.57375
G1 X55.054 Y49.906 E0.60779
G1 X55.681 Y49.692 E0.67522
G1 X55.99 Y49.598 E0.70809
G1 X56.602 Y49.435 E0.77255
G1 X56.948 Y49.355 E0.80869
G1 X57.578 Y49.232 E0.87402
G1 X57.922 Y49.178 E0.90946
G1 X58.562 Y49.099 E0.97509
G1 X58.924 Y49.067 E1.01208
G1 X59.626 Y49.032 E1.08362
G1 X59.912 Y49.026 E1.11273
G1 X60.623 Y49.039 E1.1851
G1 X60.927 Y49.056 E1.21609
G1 X61.595 Y49.114 E1.28433
G1 X61.944 Y49.158 E1.32014
G1 X62.578 Y49.259 E1.38548
G1 X62.925 Y49.328 E1.42148
G1 X63.583 Y49.48 E1.49022
G1 X63.871 Y49.557 E1.52056
G1 X64.542 Y49.763 E1.59199
G1 X64.822 Y49.859 E1.62212
G1 X65.428 Y50.09 E1.68812
G1 X65.786 Y50.243 E1.72775
G1 X66.382 Y50.521 E1.79468
G1 X66.662 Y50.663 E1.82663
G1 X67.249 Y50.989 E1.89497
G1 X67.541 Y51.166 E1.92972
G1 X68.087 Y51.518 E1.99584
G1 X68.339 Y51.693 E2.02707
G1 X68.897 Y52.114 E2.09821
G1 X69.164 Y52.33 E2.13316
G1 X69.674 Y52.773 E2.20191
G1 X69.914 Y52.998 E2.2354
G1 X70.356 Y53.437 E2.2988
G1 X70.595 Y53.693 E2.33444
G1 X71.034 Y54.194 E2.40224
G1 X71.244 Y54.453 E2.43617
G1 X71.628 Y54.957 E2.50066
G1 X71.863 Y55.295 E2.54256
G1 X72.322 Y56.011 E2.62912
G1 X72.386 Y56.121 E2.64207
G1 X72.683 Y56.65 E2.70382
G1 X72.876 Y57.031 E2.74728
G1 X73.265 Y57.888 E2.84307
G1 X73.502 Y58.495 E2.90939
G1 X73.619 Y58.832 E2.9457
G1 X73.827 Y59.507 E3.01758
G1 X73.912 Y59.832 E3.05177
G1 X74.057 Y60.449 E3.11628
G1 X74.112 Y60.726 E3.14502
G1 X74.226 Y61.428 E3.21741
G1 X74.27 Y61.797 E3.25523
G1 X74.328 Y62.437 E3.32063
G1 X74.346 Y62.784 E3.35599
G1 X74.36 Y63.429 E3.42166
G1 X74.356 Y63.744 E3.45372
G1 X74.324 Y64.424 E3.523
G1 X74.297 Y64.752 E3.5565
G1 X74.225 Y65.372 E3.62002
G1 X74.184 Y65.644 E3.64802
G1 X74.044 Y66.395 E3.72577
G1 X73.999 Y66.606 E3.74773
G1 X73.893 Y67.019 E3.79112
G1 X73.778 Y67.383 E3.82997
G1 X73.683 Y67.63 E3.85691
G1 X73.547 Y67.926 E3.89006
G1 X73.422 Y68.158 E3.91688
G1 X73.257 Y68.424 E3.94874
G1 X73.1 Y68.643 E3.97616
G1 X72.918 Y68.867 E4.00554
G1 X72.698 Y69.104 E4.03845
G1 X72.506 Y69.287 E4.06545
G1 X72.287 Y69.471 E4.09456
G1 X72.042 Y69.651 E4.1255
G1 X71.803 Y69.804 E4.15438
G1 X71.555 Y69.943 E4.18332
G1 X71.279 Y70.074 E4.21441
G1 X71.022 Y70.177 E4.24259
G1 X70.737 Y70.27 E4.2731
G1 X70.436 Y70.349 E4.30477
G1 X70.196 Y70.398 E4.3297
G1 X69.857 Y70.446 E4.36455
G1 X68.859 Y70.547 E4.46664
G1 X67.851 Y70.641 E4.56967
G1 X66.737 Y70.729 E4.68341
G1 X65.719 Y70.8 E4.78727
G1 X64.689 Y70.859 E4.89227
G1 X63.613 Y70.906 E5.00188
G1 X62.578 Y70.942 E5.10728
G1 X61.546 Y70.965 E5.21234
G1 X60.553 Y70.977 E5.31341
G1 X59.447 Y70.977 E5.42598
G1 X58.404 Y70.964 E5.53214
G1 X57.35 Y70.94 E5.63944
G1 X56.307 Y70.903 E5.74566
G1 X55.261 Y70.856 E5.85222
G1 X54.183 Y70.794 E5.96212
G1 X53.14 Y70.72 E6.06854
G1 X52.115 Y70.638 E6.17319
G1 X51.057 Y70.54 E6.28133
G1 X50.015 Y70.428 E6.38799
G1 X49.661 Y70.368 E6.42454
G1 X49.365 Y70.299 E6.45547
G1 X49.087 Y70.214 E6.48506
G1 X48.814 Y70.113 E6.51468
G1 X48.562 Y70 E6.54279
G1 X48.292 Y69.859 E6.57379
G1 X48.052 Y69.713 E6.60238
G1 X47.806 Y69.54 E6.63299
G1 X47.584 Y69.364 E6.66182
G1 X47.37 Y69.17 E6.69122
G1 X47.164 Y68.958 E6.72131
G1 X46.976 Y68.739 E6.75068
G1 X46.798 Y68.502 E6.78085
G1 X46.645 Y68.269 E6.80922
G1 X46.49 Y67.996 E6.84117
G1 X46.365 Y67.74 E6.87016
G1 X46.256 Y67.477 E6.89914
G1 X46.166 Y67.217 E6.92714
G1 X46.054 Y66.81 E6.9701
G1 X45.912 Y66.17 E7.03682
G1 X45.85 Y65.829 E7.0721
G1 X45.751 Y65.171 E7.13982
G1 X45.719 Y64.885 E7.16911
G1 X45.662 Y64.179 E7.2412
G1 X45.65 Y63.871 E7.27257
G1 X45.64 Y63.226 E7.33822
G1 X45.648 Y62.893 E7.37212
G1 X45.689 Y62.183 E7.4445
G1 X45.716 Y61.899 E7.47354
G1 X45.8 Y61.238 E7.54135
G1 X45.864 Y60.856 E7.58077
G1 X45.988 Y60.241 E7.64463
G1 X46.069 Y59.903 E7.68
G1 X46.247 Y59.254 E7.74849
G1 X46.323 Y59.004 E7.77509
G1 X46.55 Y58.35 E7.84554
G1 X46.688 Y57.999 E7.88393
G1 X46.946 Y57.399 E7.9504
G1 X47.082 Y57.112 E7.98272
G1 X47.405 Y56.486 E8.05442
G1 X47.529 Y56.263 E8.08038
G1 X47.881 Y55.681 E8.14961
G1 X48.084 Y55.373 E8.18715
G1 X48.456 Y54.845 E8.25289
G1 X48.672 Y54.559 E8.28936
G1 X49.085 Y54.053 E8.35584
G1 X49.322 Y53.785 E8.39225
G1 X49.757 Y53.321 E8.45698
G1 X49.843 Y53.236 E8.46929
G0 F1012.5 X50.029 Y53.053
G0 F7200 X49.6 Y53.488
G1 F1125 X49.6 Y70.353 E10.18574
G0 F7200 X51.2 Y70.553
G1 F1125 X51.2 Y52.041 E12.06982
G0 F7200 X52.8 Y50.965
G1 F1125 X52.8 Y70.692 E14.07755
G0 F7200 X54.4 Y70.806
G1 F1125 X54.4 Y50.167 E16.17811
G0 F7200 X56 Y49.595
G1 F1125 X56 Y70.889 E18.34533
G0 F7200 X57.6 Y70.945
G1 F1125 X57.6 Y49.228 E20.5556
G0 F7200 X59.2 Y49.053
G1 F1125 X59.2 Y70.973 E22.78653
G0 F7200 X60.8 Y70.975
G1 F1125 X60.8 Y49.049 E25.01807
G0 F7200 X62.4 Y49.231
G1 F1125 X62.4 Y70.946 E27.22814
G0 F7200 X64 Y70.89
G1 F1125 X64 Y49.597 E29.39525
G0 F7200 X65.6 Y50.164
G1 F1125 X65.6 Y70.807 E31.49621
G0 F7200 X67.2 Y70.693
G1 F1125 X67.2 Y50.962 E33.50436
G0 F7200 X68.8 Y52.041
G1 F1125 X68.8 Y70.553 E35.38843
G0 F7200 X70.4 Y70.357
G1 F1125 X70.4 Y53.485 E37.1056
G0 F7200 X72 Y55.509
G1 F1125 X72 Y69.678 E38.54766
G0 F7200 X73.6 Y67.811
G1 F1125 X73.6 Y58.778 E39.46701
G0 F7200 X48 Y55.5
M104 S200
G1 F1125 X48 Y69.676 E40.90978
G0 F7200 X46.4 Y67.811
G1 F1125 X46.4 Y58.782 E41.82872
G0 F600 X46.4 Y58.782 Z0.525
G0 F7200 X46.528 Y68.165
;TIME_ELAPSED:50.770373
;LAYER:-4
M140 S60
;TYPE:SUPPORT
G1 F1125 X48.26 Y69.897 E41.98483
G1 X48.021 Y69.751 E42.00268
G1 X47.78 Y69.583 E42.02141
G1 X47.543 Y69.394 E42.04073
G1 X47.335 Y69.206 E42.05859
G1 X47.133 Y68.997 E42.07712
G1 X46.934 Y68.765 E42.0966
G1 X46.761 Y68.536 E42.11489
G1 X46.592 Y68.279 E42.1345
G0 F7200 X48.26 Y69.897
G1 F1125 X48.271 Y69.904 E42.13533
G1 X48.54 Y70.045 E42.15468
G1 X48.786 Y70.155 E42.17186
G1 X49.071 Y70.261 E42.19124
G1 X49.356 Y70.347 E42.21021
G1 X49.644 Y70.415 E42.22907
G1 X50.003 Y70.475 E42.25227
G1 X50.126 Y70.491 E42.26018
G1 X45.876 Y66.241 E42.64325
G1 X45.862 Y66.178 E42.64736
G1 X45.8 Y65.835 E42.66958
G1 X45.702 Y65.176 E42.71204
G1 X45.669 Y64.894 E42.73014
G1 X45.657 Y64.749 E42.73941
G1 X51.542 Y70.634 E43.26985
G1 X52.114 Y70.687 E43.30646
G1 X52.934 Y70.753 E43.35889
G1 X45.592 Y63.411 E44.02066
G1 X45.59 Y63.223 E44.03265
G1 X45.597 Y62.889 E44.05394
G1 X45.638 Y62.185 E44.09888
G1 X54.303 Y70.849 E44.87985
G1 X55.256 Y70.905 E44.9407
G1 X55.648 Y70.922 E44.9657
G1 X45.779 Y61.053 E45.85524
G1 X45.814 Y60.846 E45.86862
G1 X45.937 Y60.239 E45.9081
G1 X45.995 Y59.995 E45.92408
G1 X56.975 Y70.975 E46.91376
G1 X57.347 Y70.989 E46.93748
G1 X58.282 Y71.01 E46.99709
G1 X46.271 Y58.999 E48.0797
G1 X46.275 Y58.986 E48.08056
G1 X46.502 Y58.331 E48.12475
G1 X46.608 Y58.063 E48.14311
G1 X59.57 Y71.026 E49.31148
G1 X60.553 Y71.026 E49.37413
G1 X60.84 Y71.022 E49.39243
G1 X46.995 Y57.177 E50.64034
G1 X47.039 Y57.083 E50.64696
G1 X47.362 Y56.459 E50.69174
G1 X47.429 Y56.338 E50.70055
G1 X62.091 Y71.001 E52.02215
G1 X62.578 Y70.99 E52.0532
G1 X63.327 Y70.964 E52.10096
G1 X47.909 Y55.546 E53.49066
G1 X48.042 Y55.344 E53.50607
G1 X48.418 Y54.812 E53.54759
G1 X48.431 Y54.795 E53.54896
G1 X64.549 Y70.913 E55.00174
G1 X64.691 Y70.907 E55.0108
G1 X65.721 Y70.849 E55.07655
G1 X65.755 Y70.846 E55.07873
G1 X48.994 Y54.085 E56.58947
G1 X49.048 Y54.019 E56.59491
G1 X49.281 Y53.755 E56.61735
G1 X49.597 Y53.416 E56.64689
G1 X66.943 Y70.762 E58.21036
G1 X67.802 Y70.694 E58.26528
G1 X68.119 Y70.664 E58.28558
G1 X50.242 Y52.787 E59.89691
G1 X50.449 Y52.593 E59.91499
G1 X50.705 Y52.373 E59.93651
G1 X50.925 Y52.197 E59.95446
G1 X69.28 Y70.552 E61.60888
G1 X69.873 Y70.494 E61.64686
G1 X70.192 Y70.448 E61.6674
G1 X70.405 Y70.405 E61.68125
G1 X51.647 Y51.647 E63.37199
G1 X52.034 Y51.376 E63.4021
G1 X52.366 Y51.164 E63.42721
G1 X52.411 Y51.138 E63.43052
G1 X71.361 Y70.089 E65.13861
G1 X71.577 Y69.986 E65.15387
G1 X71.837 Y69.841 E65.17284
G1 X72.057 Y69.7 E65.18949
G1 X72.165 Y69.62 E65.19806
G1 X53.218 Y50.673 E66.90584
G1 X53.797 Y50.379 E66.94723
G1 X54.071 Y50.253 E66.96645
G1 X72.841 Y69.022 E68.65823
G1 X72.957 Y68.896 E68.66914
G1 X73.135 Y68.677 E68.68713
G1 X73.298 Y68.45 E68.70494
G1 X73.392 Y68.3 E68.71622
G1 X54.973 Y49.882 E70.37637
G1 X55.034 Y49.858 E70.38054
G1 X55.665 Y49.643 E70.42303
G1 X55.928 Y49.564 E70.44053
G1 X73.807 Y67.443 E72.05205
G1 X73.823 Y67.4 E72.05497
G1 X73.944 Y67.018 E72.08051
G1 X74.044 Y66.627 E72.10623
G1 X74.084 Y66.447 E72.11799
G1 X56.941 Y49.305 E73.66312
G1 X57.567 Y49.182 E73.70378
G1 X57.918 Y49.127 E73.72642
G1 X58.024 Y49.114 E73.73323
G1 X74.274 Y65.364 E75.19791
G1 X74.345 Y64.758 E75.2368
G1 X74.372 Y64.428 E75.2579
G1 X74.384 Y64.201 E75.27239
G1 X59.186 Y49.003 E76.64226
G1 X59.623 Y48.981 E76.67014
G1 X59.91 Y48.975 E76.68844
G1 X60.441 Y48.986 E76.72229
G1 X74.398 Y62.943 E77.9803
G1 X74.395 Y62.783 E77.9905
G1 X74.377 Y62.433 E78.01283
G1 X74.319 Y61.791 E78.05392
G1 X74.292 Y61.564 E78.06849
G1 X61.82 Y49.093 E79.1926
G1 X61.95 Y49.109 E79.20095
G1 X62.577 Y49.207 E79.2414
G1 X62.934 Y49.278 E79.2646
G1 X63.384 Y49.383 E79.29405
G1 X74.002 Y60.002 E80.25114
G1 X73.958 Y59.813 E80.26351
G1 X73.874 Y59.493 E80.28459
G1 X73.666 Y58.817 E80.32967
G1 X73.548 Y58.478 E80.35255
G1 X73.418 Y58.145 E80.37533
G1 X65.236 Y49.963 E81.11281
G1 X65.446 Y50.042 E81.12711
G1 X65.806 Y50.197 E81.15209
G1 X66.398 Y50.473 E81.19372
G1 X66.685 Y50.618 E81.21422
G1 X67.273 Y50.946 E81.25713
G1 X67.566 Y51.123 E81.27895
G1 X67.858 Y51.312 E81.30112
G1 X72.073 Y55.526 E81.68099
G0 F7200 X71.904 Y55.267
G1 F1125 X71.675 Y54.939 E81.70648
G1 X71.279 Y54.418 E81.74819
G1 X71.072 Y54.162 E81.76918
G1 X70.632 Y53.66 E81.81172
G1 X70.381 Y53.392 E81.83512
G1 X69.948 Y52.962 E81.87402
G1 X69.707 Y52.735 E81.89512
G1 X69.195 Y52.291 E81.93831
G1 X68.928 Y52.074 E81.96024
G1 X68.368 Y51.653 E82.00489
G1 X68.114 Y51.477 E82.02459
G1 X67.858 Y51.312 E82.044
G0 F600 X67.858 Y51.312 Z0.7
G0 F7200 X61.545 Y48.882
;TIME_ELAPSED:84.993586
;LAYER:-3
;TYPE:SUPPORT-INTERFACE
G1 F1500 X60.502 Y48.808 E82.07063
G1 X59.495 Y48.81 E82.09627
G1 X58.539 Y48.875 E82.12067
G1 X57.617 Y49 E82.14436
G1 X62.372 Y49 E82.26545
G1 X62.554 Y49.026 E82.27013
G1 X63.522 Y49.232 E82.29533
G1 X63.936 Y49.35 E82.30629
G1 X56.071 Y49.35 E82.50657
G1 X55.53 Y49.503 E82.52089
G1 X54.983 Y49.7 E82.5357
G1 X65.018 Y49.7 E82.79124
G1 X65.49 Y49.872 E82.80403
G1 X65.889 Y50.05 E82.81515
G1 X54.118 Y50.05 E83.1149
G1 X53.64 Y50.262 E83.12822
G1 X53.38 Y50.4 E83.13571
G1 X66.626 Y50.4 E83.47302
G1 X67.288 Y50.75 E83.49209
G1 X52.722 Y50.75 E83.86301
G1 X52.155 Y51.1 E83.87997
G1 X67.85 Y51.1 E84.27964
G1 X68.139 Y51.281 E84.28833
G1 X68.372 Y51.45 E84.29566
G1 X51.633 Y51.45 E84.72191
G1 X51.151 Y51.8 E84.73708
G1 X68.854 Y51.8 E85.18788
G1 X68.976 Y51.889 E85.19173
G1 X69.288 Y52.15 E85.20209
G1 X50.716 Y52.15 E85.67502
G1 X50.296 Y52.5 E85.68894
G1 X69.705 Y52.5 E86.18319
G1 X69.761 Y52.547 E86.18505
G1 X70.075 Y52.85 E86.19616
G1 X49.927 Y52.85 E86.70923
G1 X49.562 Y53.2 E86.7221
G1 X70.437 Y53.2 E87.25368
G1 X70.511 Y53.272 E87.25631
G1 X70.761 Y53.55 E87.26583
G1 X49.242 Y53.55 E87.81381
G1 X48.923 Y53.9 E87.82587
G1 X71.075 Y53.9 E88.38996
G1 X71.17 Y54.006 E88.39359
G1 X71.361 Y54.25 E88.40148
G1 X48.642 Y54.25 E88.98001
G1 X48.367 Y54.6 E88.99135
G1 X71.635 Y54.6 E89.58386
G1 X71.812 Y54.827 E89.59119
G1 X71.895 Y54.95 E89.59497
G1 X48.108 Y54.95 E90.2007
G1 X47.869 Y55.3 E90.21149
G1 X72.131 Y55.3 E90.82932
G1 X72.351 Y55.628 E90.83938
G1 X72.364 Y55.65 E90.84003
G1 X47.638 Y55.65 E91.46967
G1 X47.433 Y56 E91.48
G1 X72.567 Y56 E92.12003
G1 X72.77 Y56.35 E92.13034
G1 X47.228 Y56.35 E92.78076
G1 X47.163 Y56.461 E92.78403
G1 X47.046 Y56.7 E92.79081
G1 X72.959 Y56.7 E93.45068
G1 X73.129 Y57.05 E93.46059
G1 X46.874 Y57.05 E94.12917
G1 X46.701 Y57.4 E94.13911
G1 X73.299 Y57.4 E94.81642
G1 X73.443 Y57.75 E94.82606
G1 X46.556 Y57.75 E95.51073
G1 X46.412 Y58.1 E95.52037
G1 X73.586 Y58.1 E96.21235
G1 X73.695 Y58.367 E96.21969
G1 X73.723 Y58.45 E96.22192
G1 X46.28 Y58.45 E96.92075
G1 X46.165 Y58.8 E96.93013
G1 X73.838 Y58.8 E97.63482
G1 X73.952 Y59.15 E97.64419
G1 X46.05 Y59.15 E98.35471
G1 X45.992 Y59.325 E98.35941
G1 X45.947 Y59.5 E98.36401
G1 X74.054 Y59.5 E99.07975
G1 X74.142 Y59.85 E99.08894
G1 X45.858 Y59.85 E99.80918
G1 X45.77 Y60.2 E99.81837
G1 X74.23 Y60.2 E100.5431
G1 X74.254 Y60.297 E100.54565
G1 X74.3 Y60.55 E100.55219
G1 X45.7 Y60.55 E101.28049
G1 X45.635 Y60.9 E101.28955
G1 X74.363 Y60.9 E102.0211
G1 X74.426 Y61.25 E102.03016
G1 X45.57 Y61.25 E102.76497
G1 X45.568 Y61.259 E102.76521
G1 X45.531 Y61.6 E102.77394
G1 X74.468 Y61.6 E103.51082
G1 X74.506 Y61.95 E103.51978
G1 X45.492 Y61.95 E104.25862
G1 X45.456 Y62.272 E104.26687
G1 X45.455 Y62.3 E104.26758
G1 X74.544 Y62.3 E105.00833
G1 X74.558 Y62.65 E105.01725
G1 X45.441 Y62.65 E105.7587
G1 X45.427 Y63 E105.76762
G1 X74.572 Y63 E106.5098
G1 X74.584 Y63.307 E106.51762
G1 X74.582 Y63.35 E106.51872
G1 X45.415 Y63.35 E107.26145
G1 X45.425 Y63.7 E107.27036
G1 X74.573 Y63.7 E108.01261
G1 X74.563 Y64.05 E108.02153
G1 X45.435 Y64.05 E108.76327
G1 X45.443 Y64.302 E108.76969
G1 X45.452 Y64.4 E108.77219
G1 X74.547 Y64.4 E109.51309
G1 X74.512 Y64.75 E109.52205
G1 X45.487 Y64.75 E110.26116
G1 X45.522 Y65.1 E110.27012
G1 X74.478 Y65.1 E111.00748
G1 X74.454 Y65.344 E111.01372
G1 X74.437 Y65.45 E111.01646
G1 X45.564 Y65.45 E111.7517
G1 X45.624 Y65.8 E111.76074
G1 X74.382 Y65.8 E112.49306
G1 X74.372 Y65.867 E112.49479
G1 X74.318 Y66.15 E112.50212
G1 X45.683 Y66.15 E113.23131
G1 X45.711 Y66.314 E113.23554
G1 X45.753 Y66.5 E113.2404
G1 X74.247 Y66.5 E113.96599
G1 X74.168 Y66.85 E113.97513
G1 X45.834 Y66.85 E114.69665
G1 X45.871 Y67.007 E114.70076
G1 X45.931 Y67.2 E114.7059
G1 X74.068 Y67.2 E115.42241
G1 X73.988 Y67.463 E115.42941
G1 X73.951 Y67.55 E115.43181
G1 X46.043 Y67.55 E116.14248
G1 X46.2 Y67.9 E116.15225
G1 X73.803 Y67.9 E116.85516
G1 X73.755 Y68.015 E116.85833
G1 X73.618 Y68.25 E116.86526
G1 X46.379 Y68.25 E117.55889
G1 X46.593 Y68.6 E117.56934
G1 X73.404 Y68.6 E118.25208
G1 X73.136 Y68.95 E118.2633
G1 X46.868 Y68.95 E118.93221
G1 X47.003 Y69.117 E118.93768
G1 X47.193 Y69.3 E118.9444
G1 X72.807 Y69.3 E119.59665
G1 X72.655 Y69.455 E119.60218
G1 X72.406 Y69.65 E119.61023
G1 X47.59 Y69.65 E120.24217
G1 X47.929 Y69.902 E120.25292
G1 X48.102 Y70 E120.25799
G1 X71.895 Y70 E120.86387
G1 X71.655 Y70.144 E120.871
G1 X71.186 Y70.35 E120.88404
G1 X48.825 Y70.35 E121.45346
G1 X49.024 Y70.431 E121.45893
G1 X49.598 Y70.585 E121.47407
G1 X50.152 Y70.673 E121.48835
G1 X50.413 Y70.7 E121.49503
G1 X69.573 Y70.7 E121.98294
G1 X69.008 Y70.76 E121.99741
G1 X67.906 Y70.862 E122.02559
G1 X66.853 Y70.947 E122.05249
G1 X65.809 Y71.019 E122.07914
G1 X65.272 Y71.05 E122.09284
G1 X54.715 Y71.05 E122.36167
G0 F7200 X55.302 Y71.083
G1 F1500 X56.377 Y71.131 E122.38907
G1 X57.406 Y71.167 E122.41529
G1 X58.448 Y71.19 E122.44183
G1 X59.443 Y71.202 E122.46717
G1 X60.555 Y71.202 E122.49549
G1 X61.598 Y71.189 E122.52205
G1 X62.659 Y71.165 E122.54907
G1 X63.703 Y71.128 E122.57567
