;FLAVOR:Marlin
;TIME:1620
;Filament used: 0.870389m
;Layer height: 0.175
;MINX:45.174
;MINY:49.372
;MINZ:0.306
;MAXX:74.825
;MAXY:69.347
;MAXZ:18.245
;Generated with Cura_SteamEngine 4.5.0
M140 S70
M105
M190 S70
M104 S235
M105
M109 S235
M82 ;absolute extrusion mode
G21;(metric values)
G90;(absolute positioning)
M82;(set extruder to absolute mode)
M107;(start with the fan off)
G28;(Home the printer)
G92 E0;(Reset the extruder to 0)
G0 Z5 E5 F500;(Move up and prime the nozzle)
G0 X-1 Z0;(Move outside the printable area)
G1 Y60 E8 F500;(Draw a priming/wiping line to the rear)
G1 X-1;(Move a little closer to the print area)
G1 Y10 E16 F500;(draw more priming/wiping)
G1 E15 F250;(Small retract)
G92 E0;(Zero the extruder)
G92 E0
G92 E0
G1 F2400 E-4.5
;LAYER_COUNT:99
;LAYER:-5
M107
G0 F7200 X46.899 Y52.102 Z0.306
;TYPE:SUPPORT-INTERFACE
G1 F2400 E0
G1 F1125 X47.184 Y51.849 E0.03879
G1 X47.403 Y51.679 E0.067
G1 X47.642 Y51.514 E0.09656
G1 X47.906 Y51.359 E0.12772
G1 X48.162 Y51.228 E0.15699
G1 X48.408 Y51.12 E0.18433
G1 X48.689 Y51.018 E0.21475
G1 X48.99 Y50.931 E0.24664
G1 X49.219 Y50.879 E0.27054
G1 X49.565 Y50.828 E0.30614
G1 X50.031 Y50.791 E0.35372
G1 X50.236 Y50.782 E0.3746
G1 X53.208 Y50.781 E0.67708
G1 X53.876 Y50.739 E0.7452
G1 X54.546 Y50.609 E0.81466
G1 X55.195 Y50.398 E0.88412
G1 X56.1 Y49.969 E0.98605
G1 X56.361 Y49.867 E1.01457
G1 X56.664 Y49.772 E1.04689
G1 X56.885 Y49.718 E1.07004
G1 X57.241 Y49.658 E1.10678
G1 X57.795 Y49.608 E1.1634
G1 X58.017 Y49.598 E1.18601
G1 X60.96 Y49.602 E1.48554
G1 X61.337 Y49.626 E1.52399
G1 X61.635 Y49.663 E1.55455
G1 X61.919 Y49.718 E1.58399
G1 X62.21 Y49.794 E1.6146
G1 X62.468 Y49.878 E1.64222
G1 X62.747 Y49.989 E1.67278
G1 X63.005 Y50.111 E1.70182
G1 X63.263 Y50.254 E1.73184
G1 X63.488 Y50.398 E1.75903
G1 X63.759 Y50.599 E1.79337
G1 X64.321 Y50.965 E1.86163
G1 X64.936 Y51.262 E1.93114
G1 X65.583 Y51.479 E2.00059
G1 X66.258 Y51.614 E2.07065
G1 X67.203 Y51.656 E2.16693
G1 X67.682 Y51.635 E2.21572
G1 X67.949 Y51.639 E2.2429
G1 X68.259 Y51.663 E2.27455
G1 X68.501 Y51.698 E2.29943
G1 X68.847 Y51.773 E2.33546
G1 X69.302 Y51.907 E2.38374
G1 X69.498 Y51.974 E2.40482
G1 X70.047 Y52.189 E2.46483
G1 X70.394 Y52.348 E2.50367
G1 X71.191 Y52.776 E2.59575
G1 X71.196 Y52.763 E2.59716
G1 X71.379 Y52.857 E2.6181
G1 X71.626 Y52.96 E2.64534
G1 X71.941 Y53.1 E2.68042
G1 X72.193 Y53.232 E2.70938
G1 X72.448 Y53.387 E2.73975
G1 X72.685 Y53.551 E2.76908
G1 X72.91 Y53.732 E2.79847
G1 X73.124 Y53.926 E2.82787
G1 X73.34 Y54.149 E2.85946
G1 X73.514 Y54.35 E2.88652
G1 X73.746 Y54.652 E2.92528
G1 X73.802 Y54.738 E2.93572
G1 X74.004 Y55.072 E2.97545
G1 X74.138 Y55.333 E3.00531
G1 X74.261 Y55.609 E3.03606
G1 X74.356 Y55.867 E3.06405
G1 X74.441 Y56.154 E3.09451
G1 X74.506 Y56.439 E3.12426
G1 X74.554 Y56.733 E3.15458
G1 X74.583 Y56.991 E3.181
G1 X74.6 Y57.4 E3.22267
G1 X74.596 Y60.391 E3.52708
G1 X74.572 Y60.767 E3.56542
G1 X74.535 Y61.066 E3.59609
G1 X74.48 Y61.35 E3.62553
G1 X74.405 Y61.639 E3.65592
G1 X74.32 Y61.899 E3.68376
G1 X74.209 Y62.178 E3.71432
G1 X74.083 Y62.444 E3.74427
G1 X73.948 Y62.691 E3.77292
G1 X73.755 Y62.997 E3.80974
G1 X73.664 Y63.119 E3.82523
G1 X73.44 Y63.401 E3.86188
G1 X73.251 Y63.61 E3.89056
G1 X73.034 Y63.822 E3.92144
G1 X72.812 Y64.012 E3.95118
G1 X72.592 Y64.178 E3.97923
G1 X72.347 Y64.339 E4.00907
G1 X72.055 Y64.506 E4.0433
G1 X71.85 Y64.609 E4.06665
G1 X71.554 Y64.738 E4.09951
G1 X71.449 Y64.778 E4.11095
G1 X70.684 Y65.148 E4.19744
G1 X70.572 Y65.213 E4.21062
G1 X70.092 Y65.449 E4.26505
G1 X69.893 Y65.536 E4.28716
G1 X69.348 Y65.742 E4.34646
G1 X68.966 Y65.862 E4.38721
G1 X68.705 Y65.926 E4.41456
G1 X68.392 Y65.983 E4.44694
G1 X68.121 Y66.014 E4.4747
G1 X67.864 Y66.027 E4.50089
G1 X67.514 Y66.02 E4.53652
G1 X66.916 Y65.964 E4.59765
G1 X66.247 Y65.943 E4.66577
G1 X65.566 Y66.008 E4.73539
G1 X64.895 Y66.161 E4.80544
G1 X63.997 Y66.517 E4.90375
G1 X63.917 Y66.557 E4.91285
G1 X63.661 Y66.666 E4.94117
G1 X63.404 Y66.759 E4.96899
G1 X63.112 Y66.843 E4.99991
G1 X62.851 Y66.899 E5.02708
G1 X62.53 Y66.947 E5.06011
G1 X61.997 Y66.988 E5.11452
G1 X61.333 Y67.081 E5.18276
G1 X60.674 Y67.261 E5.25229
G1 X60.044 Y67.522 E5.32169
G1 X59.454 Y67.858 E5.39079
G1 X59.095 Y68.117 E5.43585
G1 X58.975 Y68.211 E5.45136
G1 X58.718 Y68.389 E5.48318
G1 X58.47 Y68.536 E5.51252
G1 X58.205 Y68.671 E5.54279
G1 X57.973 Y68.773 E5.56858
G1 X57.665 Y68.885 E5.60194
G1 X57.401 Y68.961 E5.6299
G1 X57.122 Y69.024 E5.65901
G1 X56.827 Y69.069 E5.68938
G1 X56.341 Y69.108 E5.739
G1 X56.142 Y69.116 E5.75927
G1 X53.651 Y69.122 E6.0128
G1 X50.193 Y69.116 E6.36474
G1 X50.017 Y69.11 E6.38266
G1 X49.68 Y69.088 E6.41703
G1 X49.365 Y69.048 E6.44935
G1 X49.092 Y68.995 E6.47765
G1 X48.795 Y68.917 E6.50891
G1 X48.522 Y68.828 E6.53813
G1 X48.266 Y68.725 E6.56621
G1 X48.003 Y68.6 E6.59585
G1 X47.742 Y68.455 E6.62624
G1 X47.498 Y68.298 E6.65577
G1 X47.265 Y68.125 E6.6853
G1 X46.911 Y67.821 E6.73279
G1 X46.812 Y67.729 E6.74655
G1 X46.716 Y67.629 E6.76066
G1 X46.476 Y67.358 E6.7975
G1 X46.298 Y67.131 E6.82686
G1 X46.134 Y66.893 E6.85628
G1 X45.972 Y66.62 E6.88858
G1 X45.848 Y66.377 E6.91635
G1 X45.74 Y66.131 E6.94369
G1 X45.629 Y65.824 E6.97692
G1 X45.554 Y65.562 E7.00465
G1 X45.493 Y65.29 E7.03302
G1 X45.447 Y64.987 E7.06422
G1 X45.409 Y64.505 E7.11342
G1 X45.4 Y64.293 E7.13502
G1 X45.413 Y61.042 E7.4659
G1 X45.4 Y60.655 E7.50531
G1 X45.404 Y55.451 E8.03495
G1 X45.428 Y55.072 E8.0736
G1 X45.465 Y54.776 E8.10396
G1 X45.52 Y54.492 E8.1334
G1 X45.596 Y54.201 E8.16401
G1 X45.68 Y53.943 E8.19163
G1 X45.791 Y53.664 E8.22219
G1 X45.913 Y53.406 E8.25123
G1 X46.059 Y53.143 E8.28185
G1 X46.198 Y52.925 E8.30816
G1 X46.392 Y52.663 E8.34134
G1 X46.691 Y52.314 E8.38811
G1 X46.715 Y52.288 E8.39171
G0 F1012.5 X46.807 Y52.189
G0 X46.899 Y52.102
G0 F7200 X46.4 Y52.653
G1 F1125 X46.4 Y67.261 E9.87846
G0 F7200 X48 Y68.598
G1 F1125 X48 Y51.31 E11.63796
G0 F7200 X49.6 Y50.825
G1 F1125 X49.6 Y69.077 E13.49558
G0 F7200 X51.2 Y69.117
G1 F1125 X51.2 Y50.781 E15.36174
G0 F7200 X52.8 Y50.781
G1 F1125 X52.8 Y69.12 E17.22821
G0 F7200 X54.4 Y69.121
G1 F1125 X54.4 Y50.637 E19.10944
G0 F7200 X56 Y50.016
G1 F1125 X56 Y69.117 E21.05346
G0 F7200 X57.6 Y68.904
G1 F1125 X57.6 Y49.625 E23.0156
G0 F7200 X59.2 Y49.6
G1 F1125 X59.2 Y68.042 E24.89256
G0 F7200 X60.8 Y67.227
G1 F1125 X60.8 Y49.602 E26.68636
G0 F7200 X62.4 Y49.856
G1 F1125 X62.4 Y66.957 E28.42683
G0 F7200 X64 Y66.516
G1 F1125 X64 Y50.756 E30.03082
G0 F7200 X65.6 Y51.483
G1 F1125 X65.6 Y66.005 E31.50881
G0 F7200 X67.2 Y65.99
G1 F1125 X67.2 Y51.656 E32.96767
G0 F7200 X68.8 Y51.763
G1 F1125 X68.8 Y65.903 E34.40678
G0 F7200 X70.4 Y65.298
G1 F1125 X70.4 Y52.352 E35.72438
G0 F7200 X72 Y53.131
M104 S230
G1 F1125 X72 Y64.534 E36.88493
G0 F7200 X73.6 Y63.2
G1 F1125 X73.6 Y54.462 E37.77425
G0 F600 X73.6 Y54.462 Z0.525
G0 F7200 X73.843 Y54.711
;TIME_ELAPSED:48.162754
;LAYER:-4
M140 S70
;TYPE:SUPPORT
G1 F1125 X73.785 Y54.622 E37.78102
G1 X73.551 Y54.317 E37.80552
G1 X73.377 Y54.116 E37.82246
G1 X73.169 Y53.9 E37.84157
G1 X72.939 Y53.69 E37.86142
G1 X72.716 Y53.513 E37.87957
G1 X72.465 Y53.339 E37.89903
G1 X72.379 Y53.287 E37.90544
G1 X73.903 Y54.811 E38.04281
G0 F7200 X72.379 Y53.287
G1 F1125 X72.223 Y53.192 E38.05445
G1 X71.962 Y53.055 E38.07323
G1 X71.636 Y52.91 E38.09597
G1 X71.399 Y52.812 E38.11232
G1 X71.17 Y52.693 E38.12877
G1 X71.165 Y52.705 E38.1296
G1 X70.409 Y52.3 E38.18426
G1 X70.066 Y52.142 E38.20833
G1 X69.894 Y52.075 E38.22009
G1 X74.61 Y56.791 E38.64517
G1 X74.63 Y56.977 E38.65709
G1 X74.649 Y57.4 E38.68408
G1 X74.648 Y58.102 E38.72882
G1 X68.151 Y51.605 E39.31442
G1 X67.952 Y51.589 E39.32715
G1 X67.679 Y51.585 E39.34455
G1 X67.202 Y51.606 E39.37498
G1 X66.864 Y51.591 E39.39654
G1 X74.647 Y59.373 E40.09801
G1 X74.645 Y60.392 E40.16296
G1 X74.63 Y60.629 E40.17809
G1 X65.349 Y51.348 E41.01463
G1 X64.954 Y51.216 E41.04118
G1 X64.345 Y50.921 E41.08431
G1 X63.787 Y50.557 E41.12677
G1 X63.518 Y50.358 E41.14809
G1 X63.285 Y50.209 E41.16572
G1 X63.034 Y50.071 E41.18398
G1 X62.752 Y49.937 E41.20388
G1 X62.607 Y49.879 E41.21383
G1 X74.434 Y61.706 E42.27985
G1 X74.357 Y61.938 E42.29543
G1 X74.26 Y62.184 E42.31228
G1 X74.126 Y62.467 E42.33224
G1 X74.055 Y62.6 E42.34185
G1 X61.01 Y49.555 E43.51765
G1 X60.961 Y49.551 E43.52079
G1 X59.732 Y49.55 E43.59912
G1 X73.539 Y63.356 E44.84356
G1 X73.483 Y63.425 E44.84922
G1 X73.279 Y63.651 E44.86863
G1 X73.073 Y63.853 E44.88702
G1 X72.905 Y63.995 E44.90104
G1 X58.457 Y49.548 E46.20325
G1 X58.014 Y49.547 E46.23149
G1 X57.802 Y49.557 E46.24502
G1 X57.245 Y49.608 E46.28066
G1 X72.147 Y64.51 E47.62385
G1 X72.093 Y64.541 E47.62782
G1 X71.861 Y64.658 E47.64438
G1 X71.467 Y64.824 E47.67163
G1 X71.279 Y64.915 E47.68494
G1 X56.229 Y49.865 E49.04146
G1 X56.076 Y49.924 E49.05192
G1 X55.82 Y50.041 E49.06985
G1 X55.731 Y50.09 E49.07633
G1 X55.357 Y50.266 E49.10267
G1 X70.429 Y65.338 E50.46118
G1 X70.111 Y65.495 E50.48378
G1 X69.926 Y65.576 E50.49666
G1 X69.539 Y65.721 E50.523
G1 X54.404 Y50.586 E51.88718
G1 X53.868 Y50.688 E51.92196
G1 X53.272 Y50.727 E51.96002
G1 X68.55 Y66.004 E53.33705
G1 X68.418 Y66.029 E53.34562
G1 X68.126 Y66.062 E53.36435
G1 X67.851 Y66.077 E53.3819
G1 X67.506 Y66.069 E53.40389
G1 X67.325 Y66.052 E53.41548
G1 X52.004 Y50.731 E54.79643
G1 X50.731 Y50.731 E54.87757
G1 X66.014 Y66.014 E56.25509
G1 X65.573 Y66.057 E56.28333
G1 X64.93 Y66.203 E56.32536
G1 X49.511 Y50.784 E57.71514
G1 X49.226 Y50.826 E57.7335
G1 X48.966 Y50.885 E57.75049
G1 X48.673 Y50.97 E57.76994
G1 X48.49 Y51.036 E57.78234
G1 X64.017 Y66.562 E59.18181
G1 X63.95 Y66.596 E59.1866
G1 X63.679 Y66.712 E59.20539
G1 X63.404 Y66.811 E59.22402
G1 X63.136 Y66.888 E59.24179
G1 X63.08 Y66.899 E59.24542
G1 X47.638 Y51.456 E60.63733
G1 X47.625 Y51.464 E60.6383
G1 X47.378 Y51.632 E60.65734
G1 X47.134 Y51.825 E60.67717
G1 X46.922 Y52.013 E60.69523
G1 X61.952 Y67.043 E62.04995
G1 X61.342 Y67.129 E62.08921
G1 X60.888 Y67.252 E62.11919
G1 X46.315 Y52.679 E63.43272
G1 X46.166 Y52.882 E63.44877
G1 X46.014 Y53.118 E63.46666
G1 X45.872 Y53.375 E63.48537
G1 X45.829 Y53.465 E63.49173
G1 X59.978 Y67.615 E64.76709
G1 X59.48 Y67.899 E64.80363
G1 X59.194 Y68.104 E64.82606
G1 X45.491 Y54.401 E66.06117
G1 X45.469 Y54.485 E66.0667
G1 X45.413 Y54.777 E66.08565
G1 X45.377 Y55.065 E66.10415
G1 X45.353 Y55.448 E66.12861
G1 X45.353 Y55.535 E66.13415
G1 X58.428 Y68.611 E67.31271
G1 X58.241 Y68.708 E67.32613
G1 X57.974 Y68.824 E67.34469
G1 X57.685 Y68.93 E67.36431
G1 X57.522 Y68.977 E67.37512
G1 X45.352 Y56.807 E68.47206
G1 X45.351 Y58.078 E68.55306
G1 X56.422 Y69.15 E69.55099
G1 X56.347 Y69.157 E69.55579
G1 X56.144 Y69.164 E69.56873
G1 X55.166 Y69.167 E69.63107
G1 X45.35 Y59.351 E70.51583
G1 X45.349 Y60.623 E70.5969
G1 X53.897 Y69.17 E71.36732
G1 X53.65 Y69.171 E71.38307
G1 X52.622 Y69.169 E71.44859
G1 X45.358 Y61.905 E72.10332
G1 X45.353 Y63.172 E72.18408
G1 X51.347 Y69.167 E72.72439
G1 X50.191 Y69.165 E72.79806
G1 X50.068 Y69.16 E72.80591
G1 X45.355 Y64.447 E73.23071
G1 X45.357 Y64.497 E73.2339
G1 X45.396 Y64.983 E73.26498
G1 X45.441 Y65.287 E73.28456
G1 X45.508 Y65.586 E73.30409
G1 X45.585 Y65.85 E73.32162
G1 X45.641 Y66.006 E73.33218
G1 X48.511 Y68.875 E73.59083
G1 X48.247 Y68.77 E73.60893
G1 X47.979 Y68.642 E73.62786
G1 X47.713 Y68.495 E73.64723
G1 X47.47 Y68.339 E73.66564
G1 X47.229 Y68.16 E73.68477
G1 X46.785 Y67.771 E73.72239
G1 X46.679 Y67.662 E73.73208
G1 X46.422 Y67.371 E73.75683
G1 X46.265 Y67.172 E73.77298
G1 X46.087 Y66.911 E73.79312
G1 X45.935 Y66.654 E73.81215
G1 X45.804 Y66.4 E73.83036
G1 X45.688 Y66.133 E73.84892
G0 F600 X45.688 Y66.133 Z0.7
G0 F7200 X49.651 Y69.311
;TIME_ELAPSED:78.871791
;LAYER:-3
;TYPE:SUPPORT-INTERFACE
G1 F1500 X50.184 Y69.341 E73.86251
G1 X53.669 Y69.347 E73.95126
G1 X56.15 Y69.341 E74.01443
G1 X56.764 Y69.3 E74.0301
G1 X49.581 Y69.3 E74.21302
G1 X49.044 Y69.215 E74.22686
G1 X48.443 Y69.039 E74.24281
G1 X48.24 Y68.95 E74.24845
G1 X58.121 Y68.95 E74.50007
G1 X58.584 Y68.729 E74.51314
G1 X58.785 Y68.6 E74.51922
G1 X47.563 Y68.6 E74.80498
G1 X47.385 Y68.494 E74.81026
G1 X47.083 Y68.25 E74.82015
G1 X59.301 Y68.25 E75.13128
G1 X59.575 Y68.048 E75.13994
G1 X59.834 Y67.9 E75.14754
G1 X46.678 Y67.9 E75.48256
G1 X46.347 Y67.55 E75.49482
G1 X60.563 Y67.55 E75.85683
G1 X60.746 Y67.474 E75.86188
G1 X61.378 Y67.302 E75.87855
G1 X62.02 Y67.212 E75.89506
G1 X62.135 Y67.2 E75.89801
G1 X46.08 Y67.2 E76.30684
G1 X45.941 Y67.01 E76.31284
G1 X45.852 Y66.85 E76.3175
G1 X63.772 Y66.85 E76.77383
G1 X64.088 Y66.722 E76.78251
G1 X64.648 Y66.5 E76.79785
G1 X45.659 Y66.5 E77.2814
G1 X45.64 Y66.465 E77.28242
G1 X45.515 Y66.15 E77.29105
G1 X68.689 Y66.15 E77.88117
G1 X69.044 Y66.074 E77.89041
G1 X69.529 Y65.918 E77.90339
G1 X69.823 Y65.8 E77.91145
G1 X45.39 Y65.8 E78.53364
G1 X45.301 Y65.45 E78.54283
G1 X70.584 Y65.45 E79.18666
G1 X70.79 Y65.345 E79.19255
G1 X71.308 Y65.1 E79.20714
G1 X45.245 Y65.1 E79.87083
G1 X45.207 Y64.75 E79.87979
G1 X72.059 Y64.75 E80.56357
G1 X72.164 Y64.702 E80.56651
G1 X72.658 Y64.4 E80.58126
G1 X45.182 Y64.4 E81.28093
G1 X45.181 Y64.05 E81.28984
G1 X73.107 Y64.05 E82.00097
G1 X73.193 Y63.981 E82.00378
G1 X73.463 Y63.7 E82.0137
G1 X45.18 Y63.7 E82.73392
G1 X45.179 Y63.35 E82.74283
G1 X73.759 Y63.35 E83.47062
G1 X74.002 Y63.028 E83.48089
G1 X74.018 Y63 E83.48171
G1 X45.178 Y63 E84.21612
G1 X45.176 Y62.65 E84.22503
G1 X74.222 Y62.65 E84.96468
G1 X74.28 Y62.551 E84.9676
G1 X74.39 Y62.3 E84.97458
G1 X45.175 Y62.3 E85.71853
G1 X45.174 Y61.95 E85.72745
G1 X74.539 Y61.95 E86.47522
G1 X74.641 Y61.6 E86.4845
G1 X45.177 Y61.6 E87.2348
G1 X45.184 Y61.25 E87.24371
G1 X74.723 Y61.25 E87.99592
G1 X74.777 Y60.9 E88.00493
G1 X45.186 Y60.9 E88.75846
G1 X45.185 Y60.55 E88.76738
G1 X74.809 Y60.55 E89.52174
G1 X74.825 Y60.271 E89.52886
G1 X74.825 Y60.2 E89.53067
G1 X45.184 Y60.2 E90.28547
G1 X45.184 Y59.85 E90.29438
G1 X74.823 Y59.85 E91.04913
G1 X74.821 Y59.5 E91.05805
G1 X45.183 Y59.5 E91.81277
G1 X45.183 Y59.15 E91.82169
G1 X74.819 Y59.15 E92.57636
G1 X74.817 Y58.8 E92.58527
G1 X45.182 Y58.8 E93.33992
G1 X45.181 Y58.45 E93.34883
G1 X74.816 Y58.45 E94.10348
G1 X74.814 Y58.1 E94.1124
G1 X45.181 Y58.1 E94.86699
G1 X45.18 Y57.75 E94.87591
G1 X74.812 Y57.75 E95.63048
G1 X74.81 Y57.4 E95.63939
G1 X45.179 Y57.4 E96.39394
G1 X45.178 Y57.05 E96.40285
G1 X74.808 Y57.05 E97.15737
G1 X74.807 Y56.967 E97.15949
G1 X74.77 Y56.7 E97.16635
G1 X45.177 Y56.7 E97.91993
G1 X45.176 Y56.35 E97.92884
G1 X74.715 Y56.35 E98.68105
G1 X74.624 Y56 E98.69026
G1 X45.176 Y56 E99.44015
G1 X45.175 Y55.65 E99.44906
G1 X74.51 Y55.65 E100.19607
G1 X74.369 Y55.3 E100.20568
G1 X45.191 Y55.3 E100.94869
G1 X45.204 Y55.056 E100.95491
G1 X45.221 Y54.95 E100.95764
G1 X74.181 Y54.95 E101.6951
G1 X73.994 Y54.62 E101.70476
G1 X73.98 Y54.6 E101.70539
G1 X45.276 Y54.6 E102.43633
G1 X45.301 Y54.438 E102.4405
G1 X45.356 Y54.25 E102.44549
G1 X73.721 Y54.25 E103.1678
G1 X73.679 Y54.194 E103.16958
G1 X73.407 Y53.9 E103.17978
G1 X45.459 Y53.9 E103.89147
G1 X45.47 Y53.86 E103.89253
G1 X45.606 Y53.55 E103.90115
G1 X73.031 Y53.55 E104.59952
G1 X72.828 Y53.377 E104.60631
G1 X72.556 Y53.2 E104.61457
G1 X45.774 Y53.2 E105.29657
G1 X45.983 Y52.85 E105.30695
G1 X71.919 Y52.85 E105.96741
G1 X71.712 Y52.751 E105.97325
G1 X71.168 Y52.5 E105.98851
G1 X46.252 Y52.5 E106.62299
G1 X46.516 Y52.173 E106.63369
G1 X46.541 Y52.15 E106.63455
G1 X70.502 Y52.15 E107.24472
G1 X70.487 Y52.142 E107.24515
G1 X69.991 Y51.92 E107.25899
G1 X69.665 Y51.8 E107.26783
G1 X46.909 Y51.8 E107.84731
G1 X47.026 Y51.688 E107.85143
G1 X47.35 Y51.45 E107.86167
G1 X68.31 Y51.45 E108.39541
G1 X67.968 Y51.413 E108.40417
G1 X67.203 Y51.43 E108.42366
G1 X66.285 Y51.389 E108.44706
G1 X65.641 Y51.26 E108.46378
G1 X65.165 Y51.1 E108.47657
G1 X47.93 Y51.1 E108.91546
G1 X48.071 Y51.022 E108.91956
G1 X48.627 Y50.802 E108.93479
G1 X48.829 Y50.75 E108.9401
G1 X64.406 Y50.75 E109.33676
G1 X63.893 Y50.4 E109.35258
G1 X54.444 Y50.4 E109.59319
G1 X54.49 Y50.391 E109.59439
G1 X55.112 Y50.188 E109.61105
G1 X55.406 Y50.05 E109.61932
G1 X63.344 Y50.05 E109.82146
G1 X63.117 Y49.915 E109.82819
G1 X62.627 Y49.7 E109.84181
G1 X56.184 Y49.7 E110.00588
G1 X56.288 Y49.654 E110.00878
G1 X56.836 Y49.499 E110.02328
