;FLAVOR:Marlin
;TIME:1230
;Filament used: 0.669397m
;Layer height: 0.175
;MINX:49.13
;MINY:51.267
;MINZ:0.306
;MAXX:70.87
;MAXY:69.349
;MAXZ:18.245
;Generated with Cura_SteamEngine 4.5.0
M140 S70
M105
M190 S70
M104 S235
M105
M109 S235
M82 ;absolute extrusion mode
G21;(metric values)
G90;(absolute positioning)
M82;(set extruder to absolute mode)
M107;(start with the fan off)
G28;(Home the printer)
G92 E0;(Reset the extruder to 0)
G0 Z5 E5 F500;(Move up and prime the nozzle)
G0 X-1 Z0;(Move outside the printable area)
G1 Y60 E8 F500;(Draw a priming/wiping line to the rear)
G1 X-1;(Move a little closer to the print area)
G1 Y10 E16 F500;(draw more priming/wiping)
G1 E15 F250;(Small retract)
G92 E0;(Zero the extruder)
G92 E0
G92 E0
G1 F2400 E-4.5
;LAYER_COUNT:99
;LAYER:-5
M107
G0 F7200 X50.765 Y53.196 Z0.306
;TYPE:SUPPORT-INTERFACE
G1 F2400 E0
G1 F1125 X50.867 Y53.101 E0.01419
G1 X51.162 Y52.842 E0.05414
G1 X51.377 Y52.675 E0.08185
G1 X51.609 Y52.518 E0.11036
G1 X51.876 Y52.361 E0.14188
G1 X52.133 Y52.231 E0.17119
G1 X52.403 Y52.115 E0.2011
G1 X52.659 Y52.023 E0.22879
G1 X52.951 Y51.939 E0.25971
G1 X53.212 Y51.883 E0.28688
G1 X53.532 Y51.835 E0.31981
G1 X53.999 Y51.799 E0.36748
G1 X54.192 Y51.792 E0.38714
G1 X57.345 Y51.791 E0.70804
G1 X58.01 Y51.749 E0.77585
G1 X58.524 Y51.657 E0.829
G1 X58.844 Y51.584 E0.8624
G1 X59.17 Y51.533 E0.89599
G1 X59.844 Y51.489 E0.96473
G1 X60.222 Y51.513 E1.00328
G1 X60.52 Y51.55 E1.03384
G1 X60.804 Y51.605 E1.06328
G1 X61.095 Y51.681 E1.09389
G1 X61.352 Y51.765 E1.12141
G1 X61.632 Y51.876 E1.15207
G1 X61.89 Y51.998 E1.18111
G1 X62.076 Y52.101 E1.20275
G1 X62.682 Y52.388 E1.27099
G1 X63.331 Y52.601 E1.34051
G1 X64.002 Y52.73 E1.41006
G1 X64.67 Y52.772 E1.47818
G1 X65.971 Y52.776 E1.61059
G1 X66.348 Y52.8 E1.64903
G1 X66.643 Y52.837 E1.67929
G1 X66.941 Y52.895 E1.71019
G1 X67.213 Y52.965 E1.73878
G1 X67.485 Y53.054 E1.7679
G1 X67.749 Y53.159 E1.79682
G1 X68.017 Y53.286 E1.827
G1 X68.278 Y53.431 E1.85739
G1 X68.506 Y53.577 E1.88495
G1 X68.759 Y53.765 E1.91703
G1 X69.144 Y54.097 E1.96877
G1 X69.246 Y54.193 E1.98302
G1 X69.333 Y54.286 E1.99598
G1 X69.565 Y54.552 E2.03191
G1 X69.759 Y54.804 E2.06427
G1 X69.918 Y55.042 E2.09341
G1 X70.058 Y55.281 E2.1216
G1 X70.198 Y55.561 E2.15346
G1 X70.306 Y55.816 E2.18164
G1 X70.4 Y56.084 E2.21055
G1 X70.479 Y56.368 E2.24055
G1 X70.538 Y56.642 E2.26907
G1 X70.582 Y56.943 E2.30003
G1 X70.615 Y57.362 E2.34281
G1 X70.623 Y57.551 E2.36206
G1 X70.642 Y60.718 E2.68439
G1 X70.632 Y60.886 E2.70152
G1 X70.634 Y61.067 E2.71994
G1 X70.621 Y61.067 E2.72127
G1 X70.645 Y61.749 E2.79072
G1 X70.641 Y64.464 E3.06704
G1 X70.617 Y64.841 E3.10549
G1 X70.58 Y65.136 E3.13575
G1 X70.525 Y65.421 E3.16529
G1 X70.449 Y65.714 E3.1961
G1 X70.365 Y65.972 E3.22371
G1 X70.254 Y66.251 E3.25427
G1 X70.132 Y66.509 E3.28332
G1 X69.993 Y66.759 E3.31243
G1 X69.837 Y67.003 E3.34191
G1 X69.653 Y67.251 E3.37334
G1 X69.26 Y67.704 E3.43437
G1 X69.159 Y67.799 E3.44849
G1 X68.887 Y68.041 E3.48554
G1 X68.66 Y68.219 E3.5149
G1 X68.426 Y68.38 E3.54381
G1 X68.149 Y68.545 E3.57662
G1 X67.912 Y68.666 E3.6037
G1 X67.66 Y68.777 E3.63173
G1 X67.359 Y68.886 E3.66431
G1 X67.095 Y68.962 E3.69227
G1 X66.819 Y69.025 E3.72108
G1 X66.52 Y69.07 E3.75186
G1 X66.037 Y69.109 E3.80117
G1 X65.842 Y69.117 E3.82104
G1 X64.039 Y69.124 E4.00454
G1 X59.886 Y69.116 E4.42722
G1 X59.71 Y69.11 E4.44514
G1 X59.358 Y69.087 E4.48104
G1 X59.073 Y69.051 E4.51028
G1 X58.767 Y68.992 E4.542
G1 X58.508 Y68.924 E4.56925
G1 X58.224 Y68.83 E4.5997
G1 X57.949 Y68.72 E4.62984
G1 X57.7 Y68.601 E4.65793
G1 X57.434 Y68.454 E4.68886
G1 X57.219 Y68.315 E4.71492
G1 X56.938 Y68.106 E4.75056
G1 X56.597 Y67.81 E4.79651
G1 X56.452 Y67.675 E4.81668
G1 X56.34 Y67.549 E4.83384
G1 X55.869 Y67.072 E4.90206
G1 X55.332 Y66.651 E4.97151
G1 X54.746 Y66.301 E5.04098
G1 X54.117 Y66.025 E5.11089
G1 X53.303 Y65.801 E5.19681
G1 X53.053 Y65.753 E5.22272
G1 X52.758 Y65.676 E5.25375
G1 X52.498 Y65.591 E5.28159
G1 X52.221 Y65.481 E5.31192
G1 X51.962 Y65.358 E5.34111
G1 X51.704 Y65.215 E5.37113
G1 X51.485 Y65.076 E5.39753
G1 X51.219 Y64.878 E5.43128
G1 X50.865 Y64.574 E5.47877
G1 X50.743 Y64.462 E5.49562
G1 X50.664 Y64.377 E5.50743
G1 X50.405 Y64.082 E5.54739
G1 X50.238 Y63.867 E5.57509
G1 X50.081 Y63.634 E5.60369
G1 X49.924 Y63.368 E5.63512
G1 X49.794 Y63.111 E5.66444
G1 X49.678 Y62.841 E5.69435
G1 X49.586 Y62.585 E5.72203
G1 X49.502 Y62.293 E5.75296
G1 X49.446 Y62.032 E5.78012
G1 X49.398 Y61.712 E5.81306
G1 X49.361 Y61.234 E5.86185
G1 X49.355 Y61.066 E5.87896
G1 X49.36 Y56.443 E6.34947
G1 X49.383 Y56.085 E6.38598
G1 X49.42 Y55.787 E6.41654
G1 X49.475 Y55.503 E6.44598
G1 X49.551 Y55.212 E6.4766
G1 X49.635 Y54.954 E6.50421
G1 X49.746 Y54.675 E6.53477
G1 X49.868 Y54.417 E6.56382
G1 X50.017 Y54.149 E6.59502
G1 X50.151 Y53.939 E6.62038
G1 X50.349 Y53.673 E6.65413
G1 X50.594 Y53.392 E6.69207
G0 F1012.5 X50.765 Y53.196
G0 F7200 X51.2 Y52.812
G1 F1125 X51.2 Y64.861 E7.91837
G0 F7200 X52.8 Y65.686
G1 F1125 X52.8 Y51.982 E9.31311
G0 F7200 X54.4 Y51.791
G1 F1125 X54.4 Y66.149 E10.77441
G0 F7200 X56 Y67.204
G1 F1125 X56 Y51.791 E12.34308
G0 F7200 X57.6 Y51.774
G1 F1125 X57.6 Y68.545 E14.04997
G0 F7200 X59.2 Y69.067
G1 F1125 X59.2 Y51.531 E15.83471
G0 F7200 X60.8 Y51.605
G1 F1125 X60.8 Y69.117 E17.61701
G0 F7200 X62.4 Y69.12
G1 F1125 X62.4 Y52.255 E19.33346
G0 F7200 X64 Y52.73
G1 F1125 X64 Y69.123 E21.00188
G0 F7200 X65.6 Y69.118
G1 F1125 X65.6 Y52.775 E22.6652
G0 F7200 X67.2 Y52.962
G1 F1125 X67.2 Y68.932 E24.29057
G0 F7200 X68.8 Y68.11
G1 F1125 X68.8 Y53.801 E25.74688
G0 F7200 X70.4 Y56.084
M104 S230
G1 F1125 X70.4 Y65.865 E26.74235
G0 F7200 X49.6 Y62.623
G1 F1125 X49.6 Y55.061 E27.51198
G0 F600 X49.6 Y55.061 Z0.525
G0 F7200 X49.455 Y62.316
;TIME_ELAPSED:42.863359
;LAYER:-4
M140 S70
;TYPE:SUPPORT
G1 F1125 X49.533 Y62.585 E27.52983
G1 X49.631 Y62.858 E27.54832
G1 X49.752 Y63.142 E27.56799
G1 X49.88 Y63.392 E27.5859
G1 X50.027 Y63.641 E27.60432
G1 X50.201 Y63.9 E27.62421
G1 X50.371 Y64.12 E27.64193
G1 X50.618 Y64.401 E27.66578
G1 X50.714 Y64.504 E27.67475
G1 X51.183 Y64.914 E27.71445
G1 X51.456 Y65.116 E27.7361
G1 X51.681 Y65.259 E27.75309
G1 X51.933 Y65.398 E27.77143
G1 X52.214 Y65.531 E27.79125
G1 X52.46 Y65.63 E27.80815
G1 X52.75 Y65.724 E27.82758
G1 X53.043 Y65.801 E27.84688
G1 X53.08 Y65.808 E27.84928
G1 X49.418 Y62.146 E28.17936
G1 X49.394 Y62.036 E28.18653
G1 X49.348 Y61.721 E28.20682
G1 X49.31 Y61.236 E28.23783
G1 X49.305 Y61.065 E28.24873
G1 X49.305 Y60.76 E28.26817
G1 X55.135 Y66.59 E28.79366
G1 X55.304 Y66.691 E28.8062
G1 X55.835 Y67.108 E28.84924
G1 X56.302 Y67.582 E28.89164
G1 X56.426 Y67.72 E28.90347
G1 X56.552 Y67.836 E28.91438
G1 X56.911 Y68.147 E28.94466
G1 X57.19 Y68.355 E28.96684
G1 X57.41 Y68.498 E28.98356
G1 X57.67 Y68.641 E29.00247
G1 X57.943 Y68.771 E29.02174
G1 X58.204 Y68.876 E29.03967
G1 X58.478 Y68.966 E29.05806
G1 X58.76 Y69.04 E29.07664
G1 X58.881 Y69.063 E29.08449
G1 X49.306 Y59.488 E29.94753
G1 X49.307 Y58.217 E30.02853
G1 X60.256 Y69.165 E31.01537
G1 X61.531 Y69.167 E31.09663
G1 X49.309 Y56.946 E32.19821
G1 X49.31 Y56.44 E32.23046
G1 X49.334 Y56.067 E32.25428
G1 X49.368 Y55.787 E32.27226
G1 X49.377 Y55.741 E32.27525
G1 X62.806 Y69.17 E33.48566
G1 X64.039 Y69.172 E33.56425
G1 X64.08 Y69.172 E33.56686
G1 X49.66 Y54.751 E34.86665
G1 X49.694 Y54.667 E34.87242
G1 X49.828 Y54.386 E34.89226
G1 X49.973 Y54.124 E34.91135
G1 X50.102 Y53.92 E34.92673
G1 X65.349 Y69.167 E36.30101
G1 X65.844 Y69.166 E36.33256
G1 X66.043 Y69.158 E36.34526
G1 X66.516 Y69.12 E36.3755
G1 X66.567 Y69.112 E36.37879
G1 X50.674 Y53.22 E37.81125
G1 X50.744 Y53.144 E37.81784
G1 X50.833 Y53.062 E37.82555
G1 X51.123 Y52.808 E37.85012
G1 X51.344 Y52.637 E37.86793
G1 X51.356 Y52.629 E37.86885
G1 X67.583 Y68.856 E39.33146
G1 X67.663 Y68.828 E39.33687
G1 X67.932 Y68.71 E39.35559
G1 X68.184 Y68.581 E39.37363
G1 X68.433 Y68.433 E39.39209
G1 X52.163 Y52.163 E40.85858
G1 X52.383 Y52.069 E40.87383
G1 X52.657 Y51.97 E40.8924
G1 X52.926 Y51.892 E40.91025
G1 X53.122 Y51.85 E40.92302
G1 X69.147 Y67.874 E42.36738
G1 X69.201 Y67.827 E42.37195
G1 X69.282 Y67.752 E42.37898
G1 X69.403 Y67.618 E42.39049
G1 X69.681 Y67.293 E42.41775
G1 X69.749 Y67.203 E42.42494
G1 X54.288 Y51.742 E43.81851
G1 X55.56 Y51.742 E43.89958
G1 X70.231 Y66.413 E45.22194
G1 X70.305 Y66.258 E45.23289
G1 X70.403 Y66.01 E45.24988
G1 X70.497 Y65.722 E45.26919
G1 X70.562 Y65.471 E45.28572
G1 X56.833 Y51.741 E46.52322
G1 X57.342 Y51.741 E46.55566
G1 X58.003 Y51.698 E46.59788
G1 X58.054 Y51.69 E46.60117
G1 X70.69 Y64.326 E47.74011
G1 X70.693 Y63.056 E47.82105
G1 X59.126 Y51.49 E48.86359
G1 X59.172 Y51.483 E48.86656
G1 X59.672 Y51.442 E48.89853
G1 X59.845 Y51.439 E48.90956
G1 X60.229 Y51.462 E48.93408
G1 X60.393 Y51.483 E48.94462
G1 X70.694 Y61.784 E49.87309
G1 X70.694 Y61.749 E49.87532
G1 X70.671 Y61.116 E49.91569
G1 X70.683 Y61.117 E49.91646
G1 X70.681 Y60.886 E49.93118
G1 X70.691 Y60.719 E49.94185
G1 X70.69 Y60.508 E49.95529
G1 X62.366 Y52.184 E50.70557
G1 X62.699 Y52.342 E50.72907
G1 X63.341 Y52.552 E50.77212
G1 X64.007 Y52.679 E50.81533
G1 X64.143 Y52.688 E50.82402
G1 X70.683 Y59.227 E51.41345
G1 X70.675 Y57.947 E51.49503
G1 X65.452 Y52.724 E51.9658
G1 X65.972 Y52.725 E51.99895
G1 X66.354 Y52.75 E52.02335
G1 X66.642 Y52.786 E52.04184
G1 X66.822 Y52.821 E52.05353
G1 X70.574 Y56.574 E52.39176
G0 F7200 X70.53 Y56.367
G1 F1125 X70.447 Y56.069 E52.41148
G1 X70.348 Y55.789 E52.43041
G1 X70.242 Y55.538 E52.44777
G1 X70.106 Y55.266 E52.46715
G1 X69.948 Y54.997 E52.48704
G1 X69.807 Y54.785 E52.50326
G1 X69.599 Y54.515 E52.52499
G1 X69.37 Y54.252 E52.54721
G1 X69.29 Y54.166 E52.5547
G1 X69.164 Y54.049 E52.56566
G1 X68.785 Y53.723 E52.59752
G1 X68.532 Y53.535 E52.61761
G1 X68.3 Y53.385 E52.63522
G1 X68.039 Y53.24 E52.65425
G1 X67.773 Y53.116 E52.67295
G1 X67.502 Y53.006 E52.69159
G1 X67.224 Y52.917 E52.7102
G1 X66.95 Y52.846 E52.72824
G1 X66.822 Y52.821 E52.73655
G0 F600 X66.822 Y52.821 Z0.7
G0 F7200 X66.371 Y52.576
;TIME_ELAPSED:64.280921
;LAYER:-3
;TYPE:SUPPORT-INTERFACE
G1 F1500 X65.852 Y52.546 E52.74979
G1 X64.677 Y52.546 E52.77971
G1 X64.03 Y52.505 E52.79622
G1 X64.004 Y52.5 E52.79689
G1 X51.252 Y52.5 E53.12162
G1 X51.495 Y52.324 E53.12926
G1 X51.812 Y52.15 E53.13847
G1 X62.71 Y52.15 E53.41598
G1 X62.002 Y51.802 E53.43607
G0 F7200 X61.998 Y51.8
G1 F1500 X52.62 Y51.8 E53.67488
G1 X53.175 Y51.66 E53.68946
G1 X53.984 Y51.574 E53.71017
G1 X57.338 Y51.566 E53.79558
G1 X57.983 Y51.525 E53.81204
G1 X58.406 Y51.45 E53.82298
G1 X61.081 Y51.45 E53.8911
G0 F7200 X60.858 Y51.385
G1 F1500 X60.245 Y51.289 E53.9069
G1 X59.665 Y51.267 E53.92168
G1 X59.158 Y51.308 E53.93463
G1 X58.479 Y51.437 E53.95223
G1 X58.406 Y51.45 E53.95412
G0 F7200 X66.371 Y52.576
G1 F1500 X66.992 Y52.674 E53.97013
G1 X67.563 Y52.841 E53.98528
G1 X67.584 Y52.85 E53.98586
G1 X50.825 Y52.85 E54.41262
G1 X50.482 Y53.172 E54.4246
G1 X50.46 Y53.2 E54.42551
G1 X68.315 Y53.2 E54.88018
G1 X68.618 Y53.38 E54.88916
G1 X68.828 Y53.55 E54.89604
G1 X50.177 Y53.55 E55.37098
G1 X49.973 Y53.801 E55.37922
G1 X49.915 Y53.9 E55.38214
G1 X69.26 Y53.9 E55.87476
G1 X69.285 Y53.921 E55.87559
G1 X69.592 Y54.25 E55.88705
G1 X49.706 Y54.25 E56.39344
G1 X49.671 Y54.308 E56.39517
G1 X49.544 Y54.6 E56.40327
G1 X69.878 Y54.6 E56.92108
G1 X70.105 Y54.916 E56.93098
G1 X70.124 Y54.95 E56.93198
G1 X49.402 Y54.95 E57.45966
G1 X49.3 Y55.3 E57.46894
G1 X70.313 Y55.3 E58.00403
G1 X70.399 Y55.459 E58.00864
G1 X70.474 Y55.65 E58.01386
G1 X49.225 Y55.65 E58.55496
G1 X49.17 Y56 E58.56398
G1 X70.609 Y56 E59.10992
G1 X70.613 Y56.011 E59.11022
G1 X70.698 Y56.35 E59.11912
G1 X49.144 Y56.35 E59.66799
G1 X49.13 Y56.581 E59.67388
G1 X49.13 Y56.7 E59.67691
G1 X70.772 Y56.7 E60.22802
G1 X70.809 Y57.05 E60.23698
G1 X49.13 Y57.05 E60.78904
G1 X49.131 Y57.4 E60.79795
G1 X70.841 Y57.4 E61.35079
G1 X70.844 Y57.75 E61.3597
G1 X49.131 Y57.75 E61.91262
G1 X49.132 Y58.1 E61.92153
G1 X70.847 Y58.1 E62.4745
G1 X70.851 Y58.45 E62.48341
G1 X49.132 Y58.45 E63.03648
G1 X49.133 Y58.8 E63.0454
G1 X70.854 Y58.8 E63.59852
G1 X70.857 Y59.15 E63.60743
G1 X49.133 Y59.15 E64.16063
G1 X49.133 Y59.5 E64.16954
G1 X70.86 Y59.5 E64.72281
G1 X70.863 Y59.85 E64.73173
G1 X49.133 Y59.85 E65.28508
G1 X49.134 Y60.2 E65.29399
G1 X70.867 Y60.2 E65.84741
G1 X70.87 Y60.55 E65.85633
G1 X49.134 Y60.55 E66.40983
G1 X49.135 Y60.9 E66.41874
G1 X70.866 Y60.9 E66.97212
G1 X70.861 Y61.25 E66.98103
G1 X49.135 Y61.25 E67.53428
G1 X49.136 Y61.259 E67.53451
G1 X49.172 Y61.6 E67.54324
G1 X70.862 Y61.6 E68.09557
G1 X70.863 Y61.95 E68.10449
G1 X49.208 Y61.95 E68.65593
G1 X49.221 Y62.064 E68.65885
G1 X49.28 Y62.3 E68.66504
G1 X70.864 Y62.3 E69.21467
G1 X70.866 Y62.65 E69.22359
G1 X49.37 Y62.65 E69.77098
G1 X49.508 Y63 E69.78056
G1 X70.867 Y63 E70.32446
G1 X70.868 Y63.35 E70.33337
G1 X49.667 Y63.35 E70.87325
G1 X49.859 Y63.7 E70.88342
G1 X70.869 Y63.7 E71.41843
G1 X70.87 Y64.05 E71.42735
G1 X50.103 Y64.05 E71.95617
G1 X50.235 Y64.231 E71.96188
G1 X50.385 Y64.4 E71.96763
G1 X70.866 Y64.4 E72.48918
G1 X70.847 Y64.75 E72.4981
G1 X50.73 Y64.75 E73.01038
G1 X51.077 Y65.054 E73.02213
G1 X51.143 Y65.1 E73.02417
G1 X70.803 Y65.1 E73.52481
G1 X70.748 Y65.45 E73.53383
G1 X51.667 Y65.45 E74.01973
G1 X52.137 Y65.69 E74.03317
G1 X52.439 Y65.8 E74.04135
G1 X70.649 Y65.8 E74.50507
G1 X70.575 Y66.055 E74.51183
G1 X70.533 Y66.15 E74.51447
G1 X53.722 Y66.15 E74.94256
G1 X54.041 Y66.238 E74.95099
G1 X54.638 Y66.5 E74.96759
G1 X70.38 Y66.5 E75.36846
G1 X70.329 Y66.618 E75.37173
G1 X70.19 Y66.85 E75.37862
G1 X55.22 Y66.85 E75.75982
G1 X55.667 Y67.2 E75.77428
G1 X69.965 Y67.2 E76.13838
G1 X69.683 Y67.55 E76.14982
G1 X56.023 Y67.55 E76.49767
G1 X56.368 Y67.9 E76.51019
G1 X69.362 Y67.9 E76.84108
G1 X69.026 Y68.218 E76.85286
G1 X68.982 Y68.25 E76.85424
G1 X56.78 Y68.25 E77.16496
G1 X57.082 Y68.495 E77.17487
G1 X57.257 Y68.6 E77.18006
G1 X68.493 Y68.6 E77.46619
G1 X67.995 Y68.876 E77.48068
G1 X67.808 Y68.95 E77.48581
G1 X57.937 Y68.95 E77.73717
G1 X58.151 Y69.043 E77.74311
G1 X58.715 Y69.211 E77.7581
G1 X59.268 Y69.3 E77.77236
G1 X66.364 Y69.3 E77.95306
G1 X66.053 Y69.334 E77.96102
G1 X64.064 Y69.349 E78.01167
G1 X59.877 Y69.341 E78.1183
G1 X59.331 Y69.31 E78.13222
G0 F600 X59.331 Y69.31 Z0.898
G0 F7200 X54.148 Y56.567
;TIME_ELAPSED:105.399613
;LAYER:-2
M106 S255
;TYPE:SUPPORT
G1 F808.2 X59.299 Y56.566 E78.28063
G1 X59.62 Y56.432 E78.29065
G1 X59.62 Y57.198 E78.31272
G1 X59.97 Y57.548 E78.32698
G1 X65.849 Y57.547 E78.49637
G1 X65.854 Y57.75 E78.50222
G1 X65.87 Y57.766 E78.50287
G1 X65.87 Y60.439 E78.57988
G1 X59.726 Y60.439 E78.7569
G1 X59.52 Y60.645 E78.76529
G1 X59.52 Y60.678 E78.76625
G1 X59.432 Y60.678 E78.76878
G1 X59.017 Y61.097 E78.78577
G1 X54.131 Y61.097 E78.92655
G1 X54.13 Y57.482 E79.0307
G0 F727.4 X54.13 Y56.585
G0 X54.148 Y56.567
G0 F7200 X54.305 Y58.325
G1 F808.2 X65.695 Y58.325 E79.35886
G0 F7200 X65.324 Y57.722
G1 F808.2 X65.324 Y60.264 E79.4321
G0 F7200 X62.991 Y60.264
G1 F808.2 X62.991 Y57.722 E79.50534
G0 F7200 X60.658 Y57.722
G1 F808.2 X60.658 Y60.264 E79.57858
G0 F7200 X59.204 Y60.658
G1 F808.2 X54.304 Y60.658 E79.71976
G0 F7200 X55.992 Y60.922
G1 F808.2 X55.992 Y56.741 E79.84022
G0 F7200 X58.325 Y56.741
G1 F808.2 X58.325 Y60.922 E79.96068
G0 F600 X58.325 Y60.922 Z1.096
G0 F7200 X54.148 Y56.567
;TIME_ELAPSED:111.102965
;LAYER:-1
;TYPE:SUPPORT
G1 F797.5 X59.299 Y56.566 E80.10909
G1 X59.62 Y56.432 E80.11911
G1 X59.62 Y57.198 E80.14118
G1 X59.97 Y57.548 E80.15544
G1 X65.849 Y57.547 E80.32482
G1 X65.854 Y57.75 E80.33067
G1 X65.87 Y57.766 E80.33133
G1 X65.87 Y60.439 E80.40834
G1 X59.726 Y60.439 E80.58536
G1 X59.52 Y60.645 E80.59375
G1 X59.52 Y60.678 E80.5947
G1 X59.432 Y60.678 E80.59724
G1 X59.017 Y61.097 E80.61423
G1 X54.131 Y61.097 E80.755
G1 X54.13 Y57.482 E80.85916
G0 F717.8 X54.13 Y56.585
G0 X54.148 Y56.567
G0 F7200 X54.305 Y58.325
G1 F797.5 X65.695 Y58.325 E81.18732
G0 F7200 X65.324 Y57.722
G1 F797.5 X65.324 Y60.264 E81.26056
G0 F7200 X62.991 Y60.264
G1 F797.5 X62.991 Y57.722 E81.3338
G0 F7200 X60.658 Y57.722
G1 F797.5 X60.658 Y60.264 E81.40704
G0 F7200 X59.204 Y60.658
G1 F797.5 X54.304 Y60.658 E81.54822
G0 F7200 X55.992 Y60.922
G1 F797.5 X55.992 Y56.741 E81.66868
