;FLAVOR:Marlin
;TIME:1590
;Filament used: 0.848424m
;Layer height: 0.175
;MINX:45.174
;MINY:51.27
;MINZ:0.306
;MAXX:74.825
;MAXY:69.347
;MAXZ:18.245
;Generated with Cura_SteamEngine 4.5.0
M140 S70
M105
M190 S70
M104 S235
M105
M109 S235
M82 ;absolute extrusion mode
G21;(metric values)
G90;(absolute positioning)
M82;(set extruder to absolute mode)
M107;(start with the fan off)
G28;(Home the printer)
G92 E0;(Reset the extruder to 0)
G0 Z5 E5 F500;(Move up and prime the nozzle)
G0 X-1 Z0;(Move outside the printable area)
G1 Y60 E8 F500;(Draw a priming/wiping line to the rear)
G1 X-1;(Move a little closer to the print area)
G1 Y10 E16 F500;(draw more priming/wiping)
G1 E15 F250;(Small retract)
G92 E0;(Zero the extruder)
G92 E0
G92 E0
G1 F2400 E-4.5
;LAYER_COUNT:99
;LAYER:-5
M107
G0 F7200 X47.179 Y53.84 Z0.306
;TYPE:SUPPORT-INTERFACE
G1 F2400 E0
G1 F1125 X47.391 Y53.675 E0.02734
G1 X47.643 Y53.502 E0.05845
G1 X47.899 Y53.351 E0.0887
G1 X48.155 Y53.22 E0.11797
G1 X48.401 Y53.112 E0.14531
G1 X48.682 Y53.01 E0.17574
G1 X48.983 Y52.923 E0.20763
G1 X49.213 Y52.872 E0.2316
G1 X49.557 Y52.82 E0.26701
G1 X50.025 Y52.783 E0.31479
G1 X50.231 Y52.774 E0.33578
G1 X51.373 Y52.774 E0.452
G1 X52.041 Y52.732 E0.52013
G1 X52.712 Y52.603 E0.58967
G1 X53.36 Y52.391 E0.65906
G1 X53.912 Y52.133 E0.72107
G1 X54.187 Y51.985 E0.75286
G1 X54.464 Y51.856 E0.78396
G1 X54.724 Y51.755 E0.81234
G1 X55.027 Y51.66 E0.84466
G1 X55.275 Y51.598 E0.87068
G1 X55.585 Y51.543 E0.90272
G1 X55.877 Y51.508 E0.93265
G1 X56.137 Y51.495 E0.95915
G1 X56.446 Y51.498 E0.9906
G1 X56.743 Y51.52 E1.02091
G1 X57.024 Y51.559 E1.04978
G1 X57.964 Y51.749 E1.14739
G1 X57.964 Y51.744 E1.1479
G1 X58.659 Y51.792 E1.2188
G1 X62.024 Y51.797 E1.56128
G1 X62.399 Y51.821 E1.59952
G1 X62.698 Y51.858 E1.63018
G1 X63.651 Y52.044 E1.72901
G1 X64.332 Y52.089 E1.79847
G1 X65.013 Y52.048 E1.8679
G1 X65.784 Y51.899 E1.94782
G1 X66.86 Y51.71 E2.05901
G1 X67.014 Y51.689 E2.07483
G1 X67.372 Y51.649 E2.11149
G1 X67.686 Y51.635 E2.14348
G1 X67.949 Y51.639 E2.17025
G1 X68.259 Y51.663 E2.2019
G1 X68.501 Y51.698 E2.22678
G1 X68.847 Y51.773 E2.26281
G1 X69.302 Y51.907 E2.31109
G1 X69.498 Y51.974 E2.33217
G1 X70.047 Y52.189 E2.39218
G1 X70.394 Y52.348 E2.43102
G1 X71.191 Y52.776 E2.5231
G1 X71.196 Y52.763 E2.52451
G1 X71.379 Y52.857 E2.54545
G1 X71.626 Y52.96 E2.57269
G1 X71.941 Y53.1 E2.60777
G1 X72.193 Y53.232 E2.63672
G1 X72.448 Y53.387 E2.6671
G1 X72.685 Y53.551 E2.69643
G1 X72.91 Y53.732 E2.72582
G1 X73.124 Y53.926 E2.75522
G1 X73.34 Y54.149 E2.78681
G1 X73.514 Y54.35 E2.81387
G1 X73.746 Y54.652 E2.85263
G1 X73.802 Y54.738 E2.86307
G1 X74.004 Y55.072 E2.9028
G1 X74.138 Y55.333 E2.93266
G1 X74.261 Y55.609 E2.96341
G1 X74.356 Y55.867 E2.9914
G1 X74.441 Y56.154 E3.02186
G1 X74.506 Y56.439 E3.05161
G1 X74.554 Y56.733 E3.08193
G1 X74.583 Y56.991 E3.10835
G1 X74.6 Y57.4 E3.15001
G1 X74.596 Y60.389 E3.45422
G1 X74.572 Y60.762 E3.49226
G1 X74.535 Y61.064 E3.52323
G1 X74.48 Y61.348 E3.55267
G1 X74.406 Y61.632 E3.58254
G1 X74.32 Y61.897 E3.6109
G1 X74.209 Y62.176 E3.64146
G1 X74.084 Y62.44 E3.67119
G1 X73.955 Y62.676 E3.69856
G1 X73.712 Y63.056 E3.74447
G1 X73.654 Y63.132 E3.7542
G1 X73.416 Y63.426 E3.79269
G1 X73.202 Y63.657 E3.82474
G1 X73.01 Y63.841 E3.85181
G1 X72.778 Y64.037 E3.88272
G1 X72.547 Y64.208 E3.91197
G1 X72.314 Y64.358 E3.94017
G1 X72.008 Y64.529 E3.97585
G1 X71.819 Y64.623 E3.99733
G1 X71.588 Y64.722 E4.02291
G1 X71.444 Y64.778 E4.03863
G1 X70.726 Y65.124 E4.11975
G1 X70.543 Y65.231 E4.14133
G1 X70.064 Y65.462 E4.19545
G1 X69.905 Y65.531 E4.21309
G1 X69.342 Y65.744 E4.27435
G1 X68.976 Y65.858 E4.31337
G1 X68.691 Y65.929 E4.34326
G1 X68.421 Y65.978 E4.37119
G1 X68.121 Y66.013 E4.40193
G1 X67.865 Y66.027 E4.42802
G1 X67.527 Y66.02 E4.46243
G1 X66.999 Y65.971 E4.5164
G1 X66.863 Y65.953 E4.53036
G1 X65.592 Y65.721 E4.66186
G1 X64.933 Y65.607 E4.72992
G1 X64.25 Y65.578 E4.7995
G1 X63.575 Y65.634 E4.86843
G1 X63.206 Y65.702 E4.90662
G1 X62.304 Y65.9 E5.00061
G1 X62.305 Y65.905 E5.00113
G1 X61.666 Y66.129 E5.07004
G1 X61.055 Y66.434 E5.13955
G1 X60.488 Y66.814 E5.20901
G1 X59.977 Y67.259 E5.27798
G1 X59.56 Y67.709 E5.34042
G1 X59.485 Y67.78 E5.35093
G1 X59.185 Y68.047 E5.3918
G1 X58.973 Y68.213 E5.41921
G1 X58.718 Y68.389 E5.45074
G1 X58.47 Y68.536 E5.48008
G1 X58.205 Y68.671 E5.51035
G1 X57.973 Y68.773 E5.53615
G1 X57.665 Y68.885 E5.5695
G1 X57.401 Y68.961 E5.59746
G1 X57.122 Y69.024 E5.62657
G1 X56.827 Y69.069 E5.65694
G1 X56.341 Y69.108 E5.70656
G1 X56.142 Y69.116 E5.72683
G1 X53.651 Y69.122 E5.98036
G1 X50.193 Y69.116 E6.3323
G1 X50.017 Y69.11 E6.35022
G1 X49.68 Y69.088 E6.3846
G1 X49.365 Y69.048 E6.41691
G1 X49.092 Y68.995 E6.44522
G1 X48.795 Y68.917 E6.47647
G1 X48.522 Y68.828 E6.50569
G1 X48.266 Y68.725 E6.53378
G1 X48.003 Y68.6 E6.56341
G1 X47.742 Y68.455 E6.5938
G1 X47.498 Y68.298 E6.62333
G1 X47.265 Y68.125 E6.65287
G1 X46.911 Y67.821 E6.70036
G1 X46.812 Y67.729 E6.71411
G1 X46.716 Y67.629 E6.72822
G1 X46.476 Y67.358 E6.76506
G1 X46.303 Y67.138 E6.79355
G1 X46.125 Y66.879 E6.82553
G1 X45.972 Y66.621 E6.85606
G1 X45.847 Y66.374 E6.88424
G1 X45.74 Y66.129 E6.91145
G1 X45.629 Y65.824 E6.94448
G1 X45.554 Y65.562 E6.97221
G1 X45.493 Y65.29 E7.00059
G1 X45.447 Y64.987 E7.03178
G1 X45.408 Y64.494 E7.08211
G1 X45.4 Y64.293 E7.10258
G1 X45.413 Y61.042 E7.43346
G1 X45.4 Y60.655 E7.47287
G1 X45.404 Y57.437 E7.80038
G1 X45.428 Y57.06 E7.83883
G1 X45.465 Y56.762 E7.86939
G1 X45.52 Y56.478 E7.89883
G1 X45.596 Y56.187 E7.92945
G1 X45.68 Y55.929 E7.95706
G1 X45.791 Y55.65 E7.98762
G1 X45.913 Y55.392 E8.01667
G1 X46.059 Y55.129 E8.04728
G1 X46.201 Y54.908 E8.07402
G1 X46.398 Y54.643 E8.10762
G1 X46.678 Y54.315 E8.15151
G1 X46.804 Y54.178 E8.17046
G1 X46.879 Y54.107 E8.18097
G1 X46.984 Y54.013 E8.19531
G0 F1012.5 X47.179 Y53.84
G0 F7200 X48 Y53.299
G1 F1125 X48 Y68.598 E9.75238
G0 F7200 X49.6 Y69.077
G1 F1125 X49.6 Y52.816 E11.40736
G0 F7200 X51.2 Y52.774
G1 F1125 X51.2 Y69.117 E13.07069
G0 F7200 X52.8 Y69.12
G1 F1125 X52.8 Y52.574 E14.75468
G0 F7200 X54.4 Y51.885
G1 F1125 X54.4 Y69.121 E16.50889
G0 F7200 X56 Y69.117
G1 F1125 X56 Y51.501 E18.30177
G0 F7200 X57.6 Y51.676
G1 F1125 X57.6 Y68.904 E20.05517
G0 F7200 X59.2 Y68.034
G1 F1125 X59.2 Y51.793 E21.70811
G0 F7200 X60.8 Y51.796
G1 F1125 X60.8 Y66.605 E23.21532
G0 F7200 X62.4 Y65.879
G1 F1125 X62.4 Y51.822 E24.64598
G0 F7200 X64 Y52.068
G1 F1125 X64 Y65.599 E26.02311
G0 F7200 X65.6 Y65.722
G1 F1125 X65.6 Y51.934 E27.4264
G0 F7200 X67.2 Y51.668
G1 F1125 X67.2 Y65.989 E28.88393
G0 F7200 X68.8 Y65.902
G1 F1125 X68.8 Y51.763 E30.32294
G0 F7200 X70.4 Y52.352
G1 F1125 X70.4 Y65.3 E31.64074
G0 F7200 X72 Y64.533
G1 F1125 X72 Y53.131 E32.80119
G0 F7200 X73.6 Y54.462
M104 S230
G1 F1125 X73.6 Y63.199 E33.69041
G0 F7200 X46.4 Y67.261
G1 F1125 X46.4 Y54.64 E34.97492
G0 F600 X46.4 Y54.64 Z0.525
G0 F7200 X45.688 Y66.133
;TIME_ELAPSED:47.183102
;LAYER:-4
M140 S70
;TYPE:SUPPORT
G1 F1125 X45.804 Y66.4 E34.99348
G1 X45.935 Y66.654 E35.01169
G1 X46.095 Y66.925 E35.03175
G1 X46.258 Y67.161 E35.05003
G1 X46.422 Y67.371 E35.06701
G1 X46.679 Y67.662 E35.09176
G1 X46.785 Y67.771 E35.10145
G1 X47.229 Y68.16 E35.13907
G1 X47.47 Y68.339 E35.1582
G1 X47.713 Y68.495 E35.17661
G1 X47.979 Y68.642 E35.19598
G1 X48.247 Y68.77 E35.21491
G1 X48.511 Y68.875 E35.23301
G1 X45.641 Y66.006 E35.49166
G1 X45.585 Y65.85 E35.50222
G1 X45.508 Y65.586 E35.51975
G1 X45.441 Y65.287 E35.53928
G1 X45.396 Y64.983 E35.55886
G1 X45.357 Y64.497 E35.58994
G1 X45.355 Y64.447 E35.59313
G1 X50.068 Y69.16 E36.01793
G1 X50.191 Y69.165 E36.02578
G1 X51.347 Y69.167 E36.09945
G1 X45.353 Y63.172 E36.63976
G1 X45.358 Y61.905 E36.72052
G1 X52.622 Y69.169 E37.37525
G1 X53.65 Y69.171 E37.44077
G1 X53.897 Y69.17 E37.45652
G1 X45.349 Y60.623 E38.22694
G1 X45.351 Y59.351 E38.30801
G1 X55.166 Y69.167 E39.19273
G1 X56.144 Y69.164 E39.25506
G1 X56.347 Y69.157 E39.26801
G1 X56.422 Y69.15 E39.27281
G1 X45.352 Y58.08 E40.2706
G1 X45.353 Y57.434 E40.31177
G1 X45.377 Y57.05 E40.33629
G1 X45.401 Y56.857 E40.34869
G1 X57.522 Y68.977 E41.44116
G1 X57.685 Y68.93 E41.45197
G1 X57.974 Y68.824 E41.47159
G1 X58.241 Y68.708 E41.49015
G1 X58.428 Y68.611 E41.50357
G1 X45.659 Y55.841 E42.65455
G1 X45.738 Y55.642 E42.66819
G1 X45.872 Y55.36 E42.68809
G1 X46.014 Y55.104 E42.70675
G1 X46.084 Y54.993 E42.71511
G1 X59.193 Y68.102 E43.89669
G1 X59.212 Y68.088 E43.89819
G1 X59.51 Y67.824 E43.92356
G1 X59.596 Y67.742 E43.93114
G1 X59.841 Y67.477 E43.95414
G1 X46.642 Y54.278 E45.14383
G1 X46.768 Y54.143 E45.1556
G1 X46.854 Y54.061 E45.16317
G1 X47.137 Y53.809 E45.18732
G1 X47.31 Y53.674 E45.20131
G1 X60.502 Y66.866 E46.39036
G1 X60.519 Y66.853 E46.39172
G1 X61.081 Y66.476 E46.43486
G1 X61.283 Y66.374 E46.44928
G1 X48.1 Y53.191 E47.63752
G1 X48.124 Y53.177 E47.63929
G1 X48.393 Y53.06 E47.65799
G1 X48.667 Y52.962 E47.67654
G1 X48.958 Y52.877 E47.69586
G1 X49.04 Y52.859 E47.70121
G1 X62.181 Y65.999 E48.88562
G1 X62.324 Y65.95 E48.89526
G1 X62.361 Y65.941 E48.89768
G0 F7200 X62.36 Y65.938
G1 F1125 X63.206 Y65.751 E48.9529
G1 X50.179 Y52.725 E50.12704
G1 X50.228 Y52.723 E50.13017
G1 X51.371 Y52.723 E50.20302
G1 X51.446 Y52.719 E50.2078
G1 X64.358 Y65.631 E51.37162
G1 X64.926 Y65.656 E51.40786
G1 X65.582 Y65.768 E51.45027
G1 X65.81 Y65.81 E51.46505
G1 X52.578 Y52.578 E52.65771
G1 X52.699 Y52.555 E52.66556
G1 X53.339 Y52.344 E52.70851
G1 X53.529 Y52.256 E52.72185
G1 X67.323 Y66.05 E53.96517
G1 X67.534 Y66.07 E53.97868
G1 X67.865 Y66.077 E53.99978
G1 X68.114 Y66.062 E54.01568
G1 X68.434 Y66.026 E54.0362
G1 X68.549 Y66.004 E54.04366
G1 X54.384 Y51.838 E55.32046
G1 X54.452 Y51.806 E55.32525
G1 X54.706 Y51.707 E55.34263
G1 X54.998 Y51.615 E55.36214
G1 X55.284 Y51.545 E55.38091
G1 X55.351 Y51.533 E55.38524
G1 X69.54 Y65.722 E56.66416
G1 X69.932 Y65.573 E56.69089
G1 X70.082 Y65.507 E56.70134
G1 X70.43 Y65.339 E56.72596
G1 X56.547 Y51.456 E57.9773
G1 X56.737 Y51.469 E57.98944
G1 X57.04 Y51.512 E58.00895
G1 X57.951 Y51.693 E58.06814
G1 X58.065 Y51.701 E58.07543
G1 X71.277 Y64.913 E59.26628
G1 X71.463 Y64.824 E59.27943
G1 X71.83 Y64.672 E59.30474
G1 X72.047 Y64.564 E59.32019
G1 X72.145 Y64.508 E59.32739
G1 X59.379 Y51.743 E60.478
G1 X60.654 Y51.745 E60.55926
G1 X72.904 Y63.994 E61.66336
G1 X73.031 Y63.888 E61.67391
G1 X73.243 Y63.684 E61.69266
G1 X73.458 Y63.452 E61.71282
G1 X73.537 Y63.355 E61.72079
G1 X61.929 Y51.746 E62.76712
G1 X62.023 Y51.746 E62.77311
G1 X62.407 Y51.77 E62.79763
G1 X62.696 Y51.806 E62.81619
G1 X63.399 Y51.944 E62.86185
G1 X74.053 Y62.598 E63.82214
G1 X74.127 Y62.464 E63.8319
G1 X74.26 Y62.181 E63.85183
G1 X74.358 Y61.936 E63.86865
G1 X74.433 Y61.705 E63.88413
G1 X64.741 Y52.014 E64.75767
G1 X65.005 Y51.997 E64.77453
G1 X65.659 Y51.874 E64.81694
G1 X65.842 Y51.841 E64.82879
G1 X74.63 Y60.63 E65.62094
G1 X74.645 Y60.391 E65.6362
G1 X74.647 Y59.373 E65.70108
G1 X66.924 Y51.651 E66.39715
G1 X67.017 Y51.637 E66.40314
G1 X67.363 Y51.6 E66.42532
G1 X67.682 Y51.584 E66.44568
G1 X67.952 Y51.589 E66.46289
G1 X68.151 Y51.605 E66.47561
G1 X74.648 Y58.102 E67.06122
G1 X74.649 Y57.4 E67.10596
G1 X74.63 Y56.977 E67.13295
G1 X74.61 Y56.791 E67.14487
G1 X69.894 Y52.075 E67.56994
G1 X70.066 Y52.142 E67.58171
G1 X70.409 Y52.3 E67.60578
G1 X71.165 Y52.705 E67.66044
G1 X71.17 Y52.693 E67.66127
G1 X71.399 Y52.812 E67.67772
G1 X71.636 Y52.91 E67.69406
G1 X71.962 Y53.055 E67.7168
G1 X72.223 Y53.192 E67.73559
G1 X72.379 Y53.287 E67.74723
G1 X73.903 Y54.811 E67.88459
G0 F7200 X73.843 Y54.711
G1 F1125 X73.785 Y54.622 E67.89136
G1 X73.551 Y54.317 E67.91587
G1 X73.377 Y54.116 E67.93281
G1 X73.169 Y53.9 E67.95192
G1 X72.939 Y53.69 E67.97177
G1 X72.716 Y53.513 E67.98992
G1 X72.465 Y53.339 E68.00938
G1 X72.379 Y53.287 E68.01579
G0 F600 X72.379 Y53.287 Z0.7
G0 F7200 X68.348 Y51.45
;TIME_ELAPSED:75.284590
;LAYER:-3
;TYPE:SUPPORT-INTERFACE
G1 F1500 X67.134 Y51.45 E68.0467
G1 X67.352 Y51.424 E68.05229
G1 X68.278 Y51.437 E68.07588
G0 F7200 X67.134 Y51.45
G1 F1500 X66.815 Y51.488 E68.08406
G1 X65.111 Y51.8 E68.12817
G1 X69.674 Y51.8 E68.24437
G1 X70.129 Y51.978 E68.25681
G1 X70.469 Y52.15 E68.26651
G1 X53.344 Y52.15 E68.70259
G1 X53.277 Y52.181 E68.70447
G1 X52.656 Y52.385 E68.72112
G1 X52.055 Y52.5 E68.7367
G1 X71.168 Y52.5 E69.22341
G1 X71.712 Y52.751 E69.23867
G1 X71.919 Y52.85 E69.24451
G1 X48.479 Y52.85 E69.8414
G1 X48.064 Y53.014 E69.85277
G1 X47.727 Y53.2 E69.86257
G1 X72.556 Y53.2 E70.49483
G1 X72.828 Y53.377 E70.5031
G1 X73.031 Y53.55 E70.50989
G1 X47.197 Y53.55 E71.16775
G1 X47.021 Y53.679 E71.1733
G1 X46.789 Y53.9 E71.18146
G1 X73.407 Y53.9 E71.85929
G1 X73.679 Y54.194 E71.86948
G1 X73.721 Y54.25 E71.87127
G1 X46.443 Y54.25 E72.5659
G1 X46.16 Y54.6 E72.57736
G1 X73.98 Y54.6 E73.28579
G1 X73.994 Y54.62 E73.28641
G1 X74.181 Y54.95 E73.29607
G1 X45.915 Y54.95 E74.01586
G1 X45.716 Y55.283 E74.02573
G1 X45.709 Y55.3 E74.0262
G1 X74.369 Y55.3 E74.75602
G1 X74.51 Y55.65 E74.76563
G1 X45.556 Y55.65 E75.50294
G1 X45.47 Y55.846 E75.50839
G1 X45.425 Y56 E75.51248
G1 X74.624 Y56 E76.25602
G1 X74.715 Y56.35 E76.26523
G1 X45.323 Y56.35 E77.01369
G1 X45.301 Y56.424 E77.01566
G1 X45.258 Y56.7 E77.02277
G1 X74.77 Y56.7 E77.77429
G1 X74.807 Y56.967 E77.78115
G1 X74.808 Y57.05 E77.78327
G1 X45.204 Y57.05 E78.53713
G1 X45.184 Y57.4 E78.54605
G1 X74.81 Y57.4 E79.30047
G1 X74.812 Y57.75 E79.30939
G1 X45.175 Y57.75 E80.06409
G1 X45.177 Y58.1 E80.073
G1 X74.814 Y58.1 E80.8277
G1 X74.816 Y58.45 E80.83661
G1 X45.178 Y58.45 E81.59134
G1 X45.179 Y58.8 E81.60025
G1 X74.817 Y58.8 E82.35498
G1 X74.819 Y59.15 E82.36389
G1 X45.18 Y59.15 E83.11864
G1 X45.181 Y59.5 E83.12755
G1 X74.821 Y59.5 E83.88233
G1 X74.823 Y59.85 E83.89124
G1 X45.182 Y59.85 E84.64604
G1 X45.183 Y60.2 E84.65496
G1 X74.825 Y60.2 E85.40978
G1 X74.825 Y60.269 E85.41154
G1 X74.809 Y60.55 E85.41871
G1 X45.185 Y60.55 E86.17308
G1 X45.186 Y60.9 E86.18199
G1 X74.777 Y60.9 E86.93552
G1 X74.722 Y61.25 E86.94454
G1 X45.184 Y61.25 E87.69672
G1 X45.177 Y61.6 E87.70563
G1 X74.64 Y61.6 E88.4559
G1 X74.538 Y61.95 E88.46519
G1 X45.174 Y61.95 E89.21293
G1 X45.175 Y62.3 E89.22185
G1 X74.389 Y62.3 E89.96577
G1 X74.277 Y62.556 E89.97289
G1 X74.221 Y62.65 E89.97568
G1 X45.176 Y62.65 E90.7153
G1 X45.178 Y63 E90.72421
G1 X74.014 Y63 E91.45852
G1 X73.969 Y63.077 E91.46079
G1 X73.757 Y63.35 E91.46959
G1 X45.179 Y63.35 E92.19732
G1 X45.18 Y63.7 E92.20624
G1 X73.46 Y63.7 E92.92638
G1 X73.155 Y64.012 E92.93749
G1 X73.106 Y64.05 E92.93907
G1 X45.181 Y64.05 E93.65017
G1 X45.182 Y64.4 E93.65909
G1 X72.662 Y64.4 E94.35886
G0 F7200 X72.661 Y64.401
G1 F1500 X72.118 Y64.725 E94.37496
G1 X72.061 Y64.75 E94.37655
G1 X45.207 Y64.75 E95.06038
G1 X45.245 Y65.1 E95.06934
G1 X71.291 Y65.1 E95.7326
G1 X70.831 Y65.322 E95.7456
G1 X70.58 Y65.45 E95.75278
G1 X45.301 Y65.45 E96.3965
G1 X45.391 Y65.8 E96.40571
G1 X69.823 Y65.8 E97.02786
G1 X69.572 Y65.9 E97.03474
G1 X69.048 Y66.072 E97.04879
G1 X68.686 Y66.15 E97.05822
G1 X66.712 Y66.15 E97.10848
G1 X65.742 Y65.984 E97.13354
G1 X64.908 Y65.832 E97.15513
G1 X64.254 Y65.804 E97.1718
G1 X63.604 Y65.857 E97.18841
G1 X62.555 Y66.075 E97.21569
G0 F7200 X62.324 Y66.15
G1 F1500 X45.514 Y66.15 E97.64375
G1 X45.64 Y66.465 E97.65239
G1 X45.659 Y66.5 E97.65341
G1 X61.424 Y66.5 E98.05486
G1 X61.168 Y66.628 E98.06215
G1 X60.837 Y66.85 E98.0723
G1 X45.851 Y66.85 E98.45391
G1 X45.938 Y67.007 E98.45848
G1 X46.079 Y67.2 E98.46457
G1 X60.386 Y67.2 E98.8289
G1 X60.132 Y67.421 E98.83747
G1 X60.012 Y67.55 E98.84196
G1 X46.347 Y67.55 E99.18993
G1 X46.678 Y67.9 E99.2022
G1 X59.683 Y67.9 E99.53337
G1 X59.331 Y68.217 E99.54543
G1 X59.286 Y68.25 E99.54685
G1 X47.083 Y68.25 E99.8576
G1 X47.385 Y68.494 E99.86749
G1 X47.563 Y68.6 E99.87276
G1 X58.8 Y68.6 E100.15891
G1 X58.301 Y68.874 E100.17341
G1 X58.11 Y68.95 E100.17864
G1 X48.24 Y68.95 E100.42998
G1 X48.443 Y69.039 E100.43562
G1 X49.044 Y69.215 E100.45157
G1 X49.581 Y69.3 E100.46541
G1 X56.66 Y69.3 E100.64568
G1 X56.356 Y69.333 E100.65347
G1 X53.669 Y69.347 E100.72189
G1 X50.184 Y69.341 E100.81064
G1 X49.651 Y69.311 E100.82423
G0 F7200 X66.975 Y66.195
G1 F1500 X67.859 Y66.252 E100.84679
G1 X68.455 Y66.2 E100.86202
G1 X68.686 Y66.15 E100.86804
G0 F7200 X64.985 Y51.823
