;FLAVOR:Marlin
;TIME:686
;Filament used: 0.409943m
;Layer height: 0.175
;MINX:47.289
;MINY:52.782
;MINZ:0.306
;MAXX:72.71
;MAXY:74.217
;MAXZ:5.645
;Generated with Cura_SteamEngine 4.6.1
M140 S70
M105
M190 S70
M104 S235
M105
M109 S235
M82 ;absolute extrusion mode
G21;(metric values)
G90;(absolute positioning)
M82;(set extruder to absolute mode)
M107;(start with the fan off)
G28;(Home the printer)
G92 E0;(Reset the extruder to 0)
G0 Z5 E5 F500;(Move up and prime the nozzle)
G0 X-1 Z0;(Move outside the printable area)
G1 Y60 E8 F500;(Draw a priming/wiping line to the rear)
G1 X-1;(Move a little closer to the print area)
G1 Y10 E16 F500;(draw more priming/wiping)
G1 E15 F250;(Small retract)
G92 E0;(Zero the extruder)
G92 E0
G92 E0
G1 F2400 E-4.5
;LAYER_COUNT:27
;LAYER:-5
M107
G0 F7200 X49.865 Y54.344 Z0.306
;TYPE:SUPPORT-INTERFACE
G1 F2400 E0
G1 F1125 X50.16 Y54.085 E0.03995
G1 X50.368 Y53.923 E0.06679
G1 X50.618 Y53.754 E0.0975
G1 X50.874 Y53.605 E0.12764
G1 X51.331 Y53.379 E0.17953
G1 X51.399 Y53.353 E0.18694
G1 X51.778 Y53.221 E0.22779
G1 X52.032 Y53.151 E0.2546
G1 X52.31 Y53.091 E0.28355
G1 X52.621 Y53.047 E0.31552
G1 X53.06 Y53.015 E0.36031
G1 X53.247 Y53.008 E0.37936
G1 X66.913 Y53.012 E1.77023
G1 X67.29 Y53.036 E1.80868
G1 X67.588 Y53.073 E1.83924
G1 X67.872 Y53.128 E1.86868
G1 X68.163 Y53.204 E1.89929
G1 X68.421 Y53.288 E1.92691
G1 X68.7 Y53.399 E1.95747
G1 X68.958 Y53.521 E1.98651
G1 X69.208 Y53.66 E2.01563
G1 X69.47 Y53.827 E2.04725
G1 X69.685 Y53.986 E2.07446
G1 X70.11 Y54.348 E2.13128
G1 X71.09 Y55.298 E2.27019
G1 X71.327 Y55.556 E2.30585
G1 X71.54 Y55.821 E2.34045
G1 X71.68 Y56.021 E2.3653
G1 X71.847 Y56.297 E2.39813
G1 X72.11 Y56.814 E2.45717
G1 X72.14 Y56.892 E2.46567
G1 X72.272 Y57.271 E2.50652
G1 X72.341 Y57.519 E2.53272
G1 X72.402 Y57.803 E2.56228
G1 X72.446 Y58.114 E2.59425
G1 X72.478 Y58.553 E2.63905
G1 X72.485 Y58.74 E2.65809
G1 X72.481 Y61.42 E2.93085
G1 X72.458 Y61.787 E2.96828
G1 X72.418 Y62.102 E3.00059
G1 X72.342 Y62.502 E3.04203
G1 X72.257 Y63.167 E3.11026
G1 X72.257 Y63.851 E3.17988
G1 X72.364 Y64.626 E3.2595
G1 X72.401 Y64.803 E3.27791
G1 X72.446 Y65.114 E3.30989
G1 X72.478 Y65.553 E3.35469
G1 X72.485 Y65.74 E3.37373
G1 X72.481 Y68.42 E3.64649
G1 X72.457 Y68.797 E3.68494
G1 X72.42 Y69.095 E3.7155
G1 X72.366 Y69.374 E3.74442
G1 X72.293 Y69.654 E3.77387
G1 X72.102 Y70.205 E3.83323
G1 X72.079 Y70.255 E3.83883
G1 X71.898 Y70.618 E3.88011
G1 X71.758 Y70.859 E3.90848
G1 X71.592 Y71.108 E3.93893
G1 X71.421 Y71.332 E3.96762
G1 X71.067 Y71.731 E4.0219
G1 X70.135 Y72.656 E4.15555
G1 X69.842 Y72.913 E4.19521
G1 X69.632 Y73.077 E4.22233
G1 X69.382 Y73.246 E4.25304
G1 X69.126 Y73.395 E4.28319
G1 X68.669 Y73.621 E4.33508
G1 X68.601 Y73.647 E4.34249
G1 X68.223 Y73.779 E4.38324
G1 X67.968 Y73.849 E4.41015
G1 X67.69 Y73.909 E4.43909
G1 X67.379 Y73.953 E4.47106
G1 X66.94 Y73.985 E4.51586
G1 X66.753 Y73.992 E4.53491
G1 X53.087 Y73.988 E5.92578
G1 X52.71 Y73.964 E5.96422
G1 X52.415 Y73.927 E5.99448
G1 X52.128 Y73.871 E6.02424
G1 X51.853 Y73.8 E6.05315
G1 X51.302 Y73.609 E6.1125
G1 X51.242 Y73.581 E6.11924
G1 X50.887 Y73.404 E6.15961
G1 X50.648 Y73.265 E6.18775
G1 X50.393 Y73.095 E6.21894
G1 X50.175 Y72.928 E6.24689
G1 X49.776 Y72.574 E6.30118
G1 X48.944 Y71.742 E6.42093
G1 X48.843 Y71.633 E6.43606
G1 X48.592 Y71.347 E6.47478
G1 X48.43 Y71.139 E6.50162
G1 X48.261 Y70.889 E6.53233
G1 X48.109 Y70.628 E6.56307
G1 X47.884 Y70.172 E6.61482
G1 X47.852 Y70.088 E6.62397
G1 X47.728 Y69.73 E6.66253
G1 X47.658 Y69.475 E6.68944
G1 X47.598 Y69.197 E6.71839
G1 X47.554 Y68.886 E6.75036
G1 X47.521 Y68.433 E6.79658
G1 X47.515 Y68.26 E6.8142
G1 X47.519 Y65.58 E7.08696
G1 X47.542 Y65.213 E7.12438
G1 X47.582 Y64.898 E7.1567
G1 X47.658 Y64.498 E7.19814
G1 X47.743 Y63.833 E7.26637
G1 X47.743 Y63.149 E7.33599
G1 X47.636 Y62.374 E7.41561
G1 X47.599 Y62.197 E7.43402
G1 X47.554 Y61.886 E7.466
G1 X47.521 Y61.433 E7.51222
G1 X47.515 Y61.26 E7.52984
G1 X47.519 Y58.58 E7.8026
G1 X47.543 Y58.203 E7.84105
G1 X47.58 Y57.908 E7.87131
G1 X47.636 Y57.621 E7.90107
G1 X47.708 Y57.342 E7.93039
G1 X47.896 Y56.799 E7.98888
G1 X47.921 Y56.745 E7.99493
G1 X48.102 Y56.382 E8.03622
G1 X48.249 Y56.129 E8.066
G1 X48.399 Y55.905 E8.09343
G1 X48.591 Y55.654 E8.1256
G1 X48.933 Y55.269 E8.17801
G1 X49.68 Y54.527 E8.28517
G0 F1012.5 X49.865 Y54.344
G0 F7200 X49.6 Y54.607
G1 F1125 X49.6 Y72.398 E10.09586
G0 F7200 X51.2 Y73.56
G1 F1125 X51.2 Y53.443 E12.14329
G0 F7200 X52.8 Y53.033
G1 F1125 X52.8 Y73.969 E14.27407
G0 F7200 X54.4 Y73.988
G1 F1125 X54.4 Y53.009 E16.40923
G0 F7200 X56 Y53.009
G1 F1125 X56 Y73.988 E18.54439
G0 F7200 X57.6 Y73.989
G1 F1125 X57.6 Y53.01 E20.67955
G0 F7200 X59.2 Y53.01
G1 F1125 X59.2 Y73.989 E22.81471
G0 F7200 X60.8 Y73.99
G1 F1125 X60.8 Y53.011 E24.94987
G0 F7200 X62.4 Y53.011
G1 F1125 X62.4 Y73.99 E27.08503
G0 F7200 X64 Y73.991
G1 F1125 X64 Y53.012 E29.22019
G0 F7200 X65.6 Y53.012
G1 F1125 X65.6 Y73.991 E31.35535
G0 F7200 X67.2 Y73.967
G1 F1125 X67.2 Y53.031 E33.48613
G0 F7200 X68.8 Y53.447
G1 F1125 X68.8 Y73.557 E35.53284
G0 F7200 X70.4 Y72.393
G1 F1125 X70.4 Y54.63 E37.34069
G0 F7200 X72 Y56.598
G1 F1125 X72 Y70.414 E38.74683
M104 S230
G0 F7200 X48 Y70.407
G1 F1125 X48 Y56.586 E40.15348
G0 F600 X48 Y56.586 Z0.525
G0 F7200 X47.545 Y69.183
;TIME_ELAPSED:49.707497
;LAYER:-4
M140 S70
;TYPE:SUPPORT
G1 F1125 X52.321 Y73.959 E40.58396
G1 X52.118 Y73.919 E40.59714
G1 X51.826 Y73.844 E40.61636
G1 X51.276 Y73.652 E40.65349
G1 X51.22 Y73.626 E40.65742
G1 X50.876 Y73.454 E40.68194
G1 X50.611 Y73.3 E40.70147
G1 X50.381 Y73.145 E40.71915
G1 X50.131 Y72.955 E40.73916
G1 X49.73 Y72.6 E40.77329
G1 X48.914 Y71.783 E40.84689
G1 X48.812 Y71.673 E40.85645
G1 X48.558 Y71.385 E40.88092
G1 X48.388 Y71.163 E40.89875
G1 X48.221 Y70.921 E40.91749
G1 X48.071 Y70.664 E40.93645
G1 X47.847 Y70.211 E40.96866
G1 X47.808 Y70.11 E40.97556
G1 X47.68 Y69.745 E41.00021
G1 X47.608 Y69.481 E41.01765
G1 X47.55 Y69.215 E41.035
G0 F7200 X52.321 Y73.959
G1 F1125 X52.414 Y73.977 E41.04104
G1 X52.702 Y74.012 E41.05953
G1 X53.084 Y74.037 E41.08393
G1 X53.672 Y74.037 E41.12141
G1 X47.465 Y67.829 E41.68092
G1 X47.467 Y66.559 E41.76186
G1 X54.945 Y74.037 E42.43589
G1 X56.219 Y74.038 E42.51708
G1 X47.485 Y65.304 E43.30432
G1 X47.492 Y65.195 E43.31128
G1 X47.53 Y64.901 E43.33018
G1 X47.608 Y64.488 E43.35696
G1 X47.646 Y64.192 E43.37598
G1 X57.492 Y74.038 E44.26345
G1 X58.765 Y74.039 E44.34458
G1 X47.663 Y62.936 E45.3453
G1 X47.586 Y62.382 E45.38095
G1 X47.55 Y62.211 E45.39209
G1 X47.503 Y61.877 E45.41358
G1 X47.473 Y61.473 E45.4394
G1 X60.038 Y74.039 E46.57199
G1 X61.311 Y74.039 E46.65312
G1 X47.465 Y60.193 E47.90113
G1 X47.468 Y58.923 E47.98207
G1 X62.584 Y74.039 E49.34454
G1 X63.857 Y74.039 E49.42568
G1 X47.56 Y57.742 E50.8946
G1 X47.587 Y57.603 E50.90362
G1 X47.659 Y57.327 E50.9218
G1 X47.851 Y56.776 E50.95899
G1 X47.855 Y56.765 E50.95974
G1 X65.13 Y74.04 E52.51681
G1 X66.403 Y74.04 E52.59795
G1 X48.31 Y55.947 E54.22875
G1 X48.367 Y55.864 E54.23517
G1 X48.55 Y55.623 E54.25445
G1 X48.883 Y55.247 E54.28647
G1 X67.605 Y73.969 E55.97396
G1 X67.709 Y73.955 E55.98065
G1 X67.975 Y73.898 E55.99799
G1 X68.237 Y73.825 E56.01533
G1 X68.605 Y73.696 E56.04018
G1 X49.519 Y54.61 E57.76049
G1 X49.723 Y54.406 E57.77887
G1 X49.831 Y54.305 E57.7883
G1 X50.121 Y54.051 E57.81287
G1 X50.184 Y54.002 E57.81796
G1 X69.444 Y73.263 E59.55399
G1 X69.657 Y73.118 E59.57041
G1 X69.878 Y72.947 E59.58822
G1 X70.157 Y72.702 E59.61189
G1 X50.96 Y53.506 E61.34216
G1 X51.294 Y53.339 E61.36596
G1 X51.393 Y53.301 E61.37271
G1 X51.76 Y53.173 E61.39749
G1 X51.87 Y53.143 E61.40475
G1 X70.798 Y72.071 E63.11082
G1 X71.095 Y71.774 E63.13759
G1 X71.414 Y71.414 E63.16825
G1 X52.971 Y52.971 E64.8306
G1 X53.057 Y52.965 E64.83609
G1 X53.243 Y52.958 E64.84795
G1 X54.231 Y52.958 E64.91092
G1 X71.931 Y70.659 E66.50635
G1 X71.947 Y70.63 E66.50846
G1 X72.123 Y70.277 E66.5336
G1 X72.308 Y69.762 E66.56848
G1 X55.504 Y52.958 E68.0831
G1 X56.777 Y52.959 E68.16423
G1 X72.513 Y68.694 E69.58255
G1 X72.53 Y68.421 E69.59998
G1 X72.532 Y67.441 E69.66244
G1 X58.05 Y52.959 E70.96777
G1 X59.324 Y52.96 E71.04897
G1 X72.534 Y66.17 E72.23964
G1 X72.534 Y65.724 E72.26807
G1 X72.527 Y65.55 E72.27917
G1 X72.496 Y65.122 E72.30652
G1 X72.453 Y64.816 E72.32621
G1 X60.596 Y52.96 E73.39489
G1 X61.87 Y52.96 E73.47609
G1 X72.306 Y63.397 E74.41678
G1 X72.305 Y63.17 E74.43125
G1 X72.39 Y62.51 E74.47366
G1 X72.438 Y62.256 E74.49013
G1 X63.143 Y52.96 E75.32798
G1 X64.416 Y52.961 E75.40911
G1 X72.531 Y61.076 E76.14055
G1 X72.532 Y59.804 E76.22163
G1 X65.689 Y52.961 E76.83842
G1 X66.914 Y52.961 E76.91649
G1 X66.965 Y52.965 E76.91975
G1 X72.525 Y58.525 E77.4209
G1 X72.496 Y58.122 E77.44665
G1 X72.448 Y57.781 E77.4686
G1 X72.391 Y57.516 E77.48587
G1 X72.317 Y57.253 E77.50329
G1 X72.206 Y56.933 E77.52488
G1 X68.564 Y53.291 E77.85315
G1 X68.706 Y53.346 E77.86285
G1 X68.987 Y53.48 E77.88269
G1 X69.23 Y53.614 E77.90038
G1 X69.5 Y53.788 E77.92085
G1 X69.719 Y53.949 E77.93817
G1 X70.144 Y54.312 E77.9738
G1 X71.125 Y55.263 E78.06088
G1 X71.369 Y55.529 E78.08388
G1 X71.578 Y55.788 E78.1051
G1 X71.714 Y55.983 E78.12025
G1 X71.891 Y56.275 E78.14201
G1 X72.16 Y56.804 E78.17983
G1 X72.186 Y56.874 E78.18459
G0 F600 X72.186 Y56.874 Z0.7
G0 F7200 X67.556 Y52.85
;TIME_ELAPSED:82.141506
;LAYER:-3
;TYPE:SUPPORT-INTERFACE
G1 F1500 X52.456 Y52.85 E78.56911
G1 X53.058 Y52.79 E78.58452
G1 X66.794 Y52.782 E78.9343
G1 X67.313 Y52.812 E78.94754
G0 F7200 X52.456 Y52.85
G1 F1500 X52.275 Y52.868 E78.95217
G1 X51.693 Y53.012 E78.96744
G1 X51.197 Y53.2 E78.98095
G1 X68.785 Y53.2 E79.42882
G1 X69.07 Y53.325 E79.43675
G1 X69.447 Y53.55 E79.44793
G1 X50.524 Y53.55 E79.9298
G1 X50.497 Y53.564 E79.93057
G1 X50.034 Y53.9 E79.94514
G1 X69.922 Y53.9 E80.45158
G1 X70.155 Y54.086 E80.45917
G1 X70.327 Y54.25 E80.46523
G1 X49.637 Y54.25 E80.99209
G1 X49.609 Y54.275 E80.99305
G1 X49.287 Y54.6 E81.0047
G1 X70.693 Y54.6 E81.5498
G1 X71.059 Y54.95 E81.56269
G1 X48.939 Y54.95 E82.12598
G1 X48.691 Y55.199 E82.13492
G1 X48.608 Y55.3 E82.13825
G1 X71.397 Y55.3 E82.71857
G1 X71.503 Y55.414 E82.72253
G1 X71.682 Y55.65 E82.73008
G1 X48.318 Y55.65 E83.32504
G1 X48.22 Y55.768 E83.32894
G1 X48.076 Y56 E83.3359
G1 X71.931 Y56 E83.94336
G1 X72.048 Y56.193 E83.94911
G1 X72.128 Y56.35 E83.95359
G1 X47.868 Y56.35 E84.57137
G1 X47.695 Y56.7 E84.58131
G1 X72.304 Y56.7 E85.20797
G1 X72.326 Y56.745 E85.20925
G1 X72.434 Y57.05 E85.21749
G1 X47.572 Y57.05 E85.85059
G1 X47.491 Y57.282 E85.85685
G1 X47.461 Y57.4 E85.85995
G1 X72.535 Y57.4 E86.49846
G1 X72.621 Y57.75 E86.50763
G1 X47.388 Y57.75 E87.15019
G1 X47.333 Y58.1 E87.15921
G1 X72.659 Y58.1 E87.80413
G1 X72.694 Y58.45 E87.81309
G1 X47.305 Y58.45 E88.45961
G1 X47.29 Y58.699 E88.46597
G1 X47.29 Y58.8 E88.46854
G1 X72.704 Y58.8 E89.1157
G1 X72.705 Y59.15 E89.12461
G1 X47.29 Y59.15 E89.7718
G1 X47.289 Y59.5 E89.78071
G1 X72.706 Y59.5 E90.42795
G1 X72.707 Y59.85 E90.43686
G1 X47.289 Y59.85 E91.08413
G1 X47.289 Y60.2 E91.09304
G1 X72.708 Y60.2 E91.74033
G1 X72.709 Y60.55 E91.74924
G1 X47.289 Y60.55 E92.39656
G1 X47.289 Y60.9 E92.40547
G1 X72.709 Y60.9 E93.05279
G1 X72.71 Y61.25 E93.0617
G1 X47.289 Y61.25 E93.70904
G1 X47.289 Y61.275 E93.70968
G1 X47.309 Y61.6 E93.71797
G1 X72.693 Y61.6 E94.36437
G1 X72.681 Y61.814 E94.36982
G1 X72.658 Y61.95 E94.37334
G1 X47.335 Y61.95 E95.01818
G1 X47.394 Y62.3 E95.02722
G1 X72.602 Y62.3 E95.66914
G1 X72.564 Y62.536 E95.67522
G1 X72.549 Y62.65 E95.67815
G1 X47.445 Y62.65 E96.31742
G1 X47.494 Y63 E96.32642
G1 X72.504 Y63 E96.96329
G1 X72.482 Y63.18 E96.96791
G1 X72.482 Y63.35 E96.97224
G1 X47.517 Y63.35 E97.60797
G1 X47.517 Y63.7 E97.61688
G1 X72.482 Y63.7 E98.25261
G1 X72.482 Y63.835 E98.25605
G1 X72.512 Y64.05 E98.26158
G1 X47.488 Y64.05 E98.89881
G1 X47.444 Y64.4 E98.90779
G1 X72.561 Y64.4 E99.54739
G1 X72.586 Y64.586 E99.55217
G1 X72.614 Y64.75 E99.5564
G1 X47.389 Y64.75 E100.19875
G1 X47.332 Y65.1 E100.20778
G1 X72.67 Y65.1 E100.85301
G1 X72.693 Y65.45 E100.86194
G1 X47.304 Y65.45 E101.50847
G1 X47.289 Y65.699 E101.51482
G1 X47.289 Y65.8 E101.51739
G1 X72.71 Y65.8 E102.16473
G1 X72.71 Y66.15 E102.17365
G1 X47.29 Y66.15 E102.82096
G1 X47.291 Y66.5 E102.82987
G1 X72.71 Y66.5 E103.47716
G1 X72.71 Y66.85 E103.48608
G1 X47.291 Y66.85 E104.13336
G1 X47.292 Y67.2 E104.14228
G1 X72.71 Y67.2 E104.78954
G1 X72.71 Y67.55 E104.79845
G1 X47.293 Y67.55 E105.44569
G1 X47.294 Y67.9 E105.45461
G1 X72.71 Y67.9 E106.10182
G1 X72.71 Y68.25 E106.11073
G1 X47.295 Y68.25 E106.75792
G1 X47.296 Y68.449 E106.76299
G1 X47.311 Y68.6 E106.76685
G1 X72.693 Y68.6 E107.4132
G1 X72.681 Y68.815 E107.41868
G1 X72.659 Y68.95 E107.42216
G1 X47.346 Y68.95 E108.06675
G1 X47.374 Y69.23 E108.07392
G1 X47.391 Y69.3 E108.07575
G1 X72.605 Y69.3 E108.71782
G1 X72.585 Y69.428 E108.72112
G1 X72.526 Y69.65 E108.72697
G1 X47.477 Y69.65 E109.36484
G1 X47.518 Y69.814 E109.36914
G1 X47.588 Y70 E109.37421
G1 X72.411 Y70 E110.00632
G1 X72.312 Y70.287 E110.01405
G1 X72.28 Y70.35 E110.01585
G1 X47.72 Y70.35 E110.64126
G1 X47.734 Y70.385 E110.64222
G1 X47.903 Y70.7 E110.65133
G1 X72.108 Y70.7 E111.2677
G1 X72.094 Y70.729 E111.26852
G1 X71.893 Y71.05 E111.27817
G1 X48.098 Y71.05 E111.8841
G1 X48.352 Y71.4 E111.89511
G1 X71.641 Y71.4 E112.48816
G1 X71.351 Y71.75 E112.49974
G1 X48.648 Y71.75 E113.07786
G1 X48.781 Y71.898 E113.08293
G1 X48.984 Y72.1 E113.09022
G1 X71.011 Y72.1 E113.65114
G1 X70.664 Y72.45 E113.66369
G1 X49.336 Y72.45 E114.2068
G1 X49.688 Y72.8 E114.21944
G1 X70.302 Y72.8 E114.74437
G1 X69.891 Y73.15 E114.75812
G1 X50.107 Y73.15 E115.26191
G1 X50.267 Y73.282 E115.2672
G1 X50.615 Y73.5 E115.27765
G1 X69.382 Y73.5 E115.75555
G1 X69.238 Y73.591 E115.75989
G1 X68.76 Y73.827 E115.77346
G1 X68.695 Y73.85 E115.77522
G1 X51.31 Y73.85 E116.21792
G1 X51.788 Y74.016 E116.23081
G1 X52.076 Y74.091 E116.23839
G1 X52.686 Y74.187 E116.25411
G1 X52.91 Y74.2 E116.25983
G1 X67.042 Y74.2 E116.6197
G1 X66.942 Y74.21 E116.62225
G1 X53.205 Y74.217 E116.97206
G0 F600 X53.205 Y74.217 Z1.226
G0 F7200 X67.035 Y61.056
;TIME_ELAPSED:144.703026
;LAYER:0
M106 S255
;TYPE:WALL-INNER
;MESH:core.stl
G1 F1800 X66.549 Y61.542 E116.99837
G1 X53.451 Y61.542 E117.49963
G1 X52.965 Y61.056 E117.52593
G1 X52.965 Y58.944 E117.60676
G1 X53.451 Y58.458 E117.63306
G1 X66.549 Y58.458 E118.13432
G1 X67.035 Y58.944 E118.16062
G1 X67.035 Y60.362 E118.21489
G0 F1620 X67.035 Y61.056
G0 F4320 X67.385 Y61.2
G1 F1800 X66.693 Y61.892 E118.25234
G1 X53.307 Y61.892 E118.76462
G1 X52.615 Y61.2 E118.80208
G1 X52.615 Y58.8 E118.89392
G1 X53.307 Y58.108 E118.93138
G1 X66.693 Y58.108 E119.44366
G1 X67.385 Y58.8 E119.48111
G1 X67.385 Y60.506 E119.5464
G0 F1620 X67.385 Y61.2
G0 F4320 X67.71 Y61.335
;TYPE:WALL-OUTER
G1 F1800 X66.828 Y62.217 E119.59413
G1 X53.172 Y62.217 E120.11675
G1 X52.29 Y61.335 E120.16448
G1 X52.29 Y58.665 E120.26666
G1 X53.172 Y57.783 E120.3144
G1 X66.828 Y57.783 E120.83701
G1 X67.71 Y58.665 E120.88475
G1 X67.71 Y60.641 E120.96037
G0 F1620 X67.71 Y61.335
G0 F4320 X67.569 Y61.476
G0 X67.375 Y61.282
G0 X66.695 Y60.914
;TYPE:SKIN
G1 F1800 X66.407 Y61.202 E120.97596
G1 X53.593 Y61.202 E121.46635
G1 X53.305 Y60.914 E121.48194
G1 X53.305 Y59.086 E121.55189
G1 X53.593 Y58.798 E121.56748
G1 X66.407 Y58.798 E122.05787
G1 X66.695 Y59.086 E122.07346
G1 X66.695 Y60.22 E122.11686
G0 F1620 X66.695 Y60.914
G0 F4320 X66.95 Y60.914
G0 X66.886 Y59.006
G0 X65.884 Y58.543
G0 X65.884 Y58.955
G1 F1800 X66.537 Y59.607 E122.15217
G0 F4320 X66.537 Y60.102
G1 F1800 X65.389 Y58.955 E122.21428
G0 F4320 X64.894 Y58.955
G1 F1800 X66.537 Y60.597 E122.30317
G0 F4320 X66.415 Y60.97
G1 F1800 X64.399 Y58.955 E122.41225
G0 F4320 X63.904 Y58.955
G1 F1800 X65.994 Y61.044 E122.52534
G0 F4320 X65.499 Y61.044
G1 F1800 X63.409 Y58.955 E122.63843
G0 F4320 X62.914 Y58.955
G1 F1800 X65.004 Y61.044 E122.75152
G0 F4320 X64.509 Y61.044
G1 F1800 X62.419 Y58.955 E122.86461
G0 F4320 X61.924 Y58.955
G1 F1800 X64.014 Y61.044 E122.97769
G0 F4320 X63.519 Y61.044
G1 F1800 X61.429 Y58.955 E123.09078
G0 F4320 X60.934 Y58.955
G1 F1800 X63.024 Y61.044 E123.20387
G0 F4320 X62.529 Y61.044
G1 F1800 X60.439 Y58.955 E123.31696
G0 F4320 X59.944 Y58.955
