;FLAVOR:Marlin
;TIME:1229
;Filament used: 0.665619m
;Layer height: 0.175
;MINX:49.128
;MINY:49.51
;MINZ:0.306
;MAXX:70.492
;MAXY:70.489
;MAXZ:12.12
;Generated with Cura_SteamEngine 4.6.1
M140 S70
M105
M190 S70
M104 S235
M105
M109 S235
M82 ;absolute extrusion mode
G21;(metric values)
G90;(absolute positioning)
M82;(set extruder to absolute mode)
M107;(start with the fan off)
G28;(Home the printer)
G92 E0;(Reset the extruder to 0)
G0 Z5 E5 F500;(Move up and prime the nozzle)
G0 X-1 Z0;(Move outside the printable area)
G1 Y60 E8 F500;(Draw a priming/wiping line to the rear)
G1 X-1;(Move a little closer to the print area)
G1 Y10 E16 F500;(draw more priming/wiping)
G1 E15 F250;(Small retract)
G92 E0;(Zero the extruder)
G92 E0
G92 E0
G1 F2400 E-4.5
;LAYER_COUNT:64
;LAYER:-5
M107
G0 F7200 X50.752 Y52.101 Z0.306
;TYPE:SUPPORT-INTERFACE
G1 F2400 E0
G1 F1125 X50.832 Y52.026 E0.01116
G1 X51.119 Y51.771 E0.05023
G1 X51.349 Y51.591 E0.07996
G1 X51.597 Y51.421 E0.11056
G1 X51.834 Y51.28 E0.13863
G1 X52.1 Y51.143 E0.16908
G1 X52.364 Y51.028 E0.19839
G1 X52.632 Y50.931 E0.22739
G1 X52.933 Y50.844 E0.25928
G1 X53.163 Y50.793 E0.28326
G1 X53.507 Y50.741 E0.31867
G1 X53.975 Y50.704 E0.36645
G1 X54.183 Y50.695 E0.38764
G1 X55.554 Y50.694 E0.52717
G1 X56.223 Y50.652 E0.5954
G1 X56.899 Y50.521 E0.66548
G1 X57.311 Y50.372 E0.71007
G1 X57.325 Y50.403 E0.71353
G1 X58.1 Y50.069 E0.79942
G1 X58.392 Y49.964 E0.831
G1 X58.668 Y49.885 E0.86022
G1 X58.94 Y49.826 E0.88854
G1 X59.251 Y49.78 E0.92054
G1 X59.725 Y49.743 E0.96893
G1 X59.905 Y49.736 E0.98726
G1 X64.113 Y49.739 E1.41554
G1 X64.657 Y49.774 E1.47102
G1 X64.792 Y49.79 E1.48485
G1 X64.974 Y49.817 E1.50358
G1 X65.348 Y49.886 E1.54228
G1 X65.588 Y49.942 E1.56737
G1 X65.908 Y50.038 E1.60137
G1 X66.112 Y50.115 E1.62356
G1 X66.728 Y50.383 E1.69193
G1 X66.893 Y50.463 E1.71059
G1 X66.951 Y50.498 E1.71749
G1 X67.26 Y50.695 E1.75479
G1 X67.504 Y50.873 E1.78552
G1 X67.727 Y51.057 E1.81495
G1 X67.926 Y51.245 E1.84281
G1 X68.145 Y51.48 E1.8755
G1 X68.32 Y51.694 E1.90364
G1 X68.5 Y51.943 E1.93491
G1 X68.784 Y52.383 E1.98821
G1 X68.932 Y52.628 E2.01734
G1 X69.105 Y52.973 E2.05662
G1 X69.275 Y53.328 E2.09668
G1 X69.394 Y53.602 E2.12708
G1 X69.49 Y53.865 E2.15558
G1 X69.615 Y54.282 E2.19989
G1 X69.684 Y54.492 E2.22238
G1 X69.754 Y54.758 E2.25038
G1 X69.816 Y55.075 E2.28325
G1 X69.853 Y55.328 E2.30927
G1 X69.909 Y55.936 E2.37142
G1 X70.011 Y56.917 E2.4718
G1 X70.023 Y57.262 E2.50693
G1 X70.024 Y57.521 E2.53329
G1 X70.059 Y58.336 E2.61631
G1 X70.071 Y58.336 E2.61754
G1 X70.105 Y58.604 E2.64503
G1 X70.209 Y59.248 E2.71142
G1 X70.233 Y59.439 E2.73102
G1 X70.267 Y59.787 E2.7666
G1 X70.277 Y60.081 E2.79654
G1 X70.267 Y60.429 E2.83197
G1 X70.25 Y60.628 E2.8523
G1 X70.2 Y60.97 E2.88748
G1 X70.107 Y61.483 E2.94054
G1 X70.028 Y62.197 E3.01365
G1 X70.012 Y62.559 E3.05053
G1 X69.995 Y62.732 E3.06822
G1 X69.972 Y63.035 E3.09915
G1 X69.96 Y63.265 E3.12259
G1 X69.94 Y63.462 E3.14274
G1 X69.888 Y64.255 E3.22363
G1 X69.85 Y64.559 E3.25481
G1 X69.793 Y64.854 E3.28538
G1 X69.716 Y65.152 E3.31671
G1 X69.62 Y65.604 E3.36374
G1 X69.545 Y65.912 E3.396
G1 X69.477 Y66.129 E3.41915
G1 X69.3 Y66.659 E3.47602
G1 X69.193 Y66.923 E3.50501
G1 X69.066 Y67.189 E3.53501
G1 X68.925 Y67.442 E3.56449
G1 X68.489 Y68.109 E3.64559
G1 X68.314 Y68.343 E3.67533
G1 X68.13 Y68.56 E3.70428
G1 X67.913 Y68.785 E3.7361
G1 X67.723 Y68.96 E3.76239
G1 X67.473 Y69.161 E3.79503
G1 X67.254 Y69.316 E3.82234
G1 X66.995 Y69.475 E3.85327
G1 X66.47 Y69.744 E3.91331
G1 X66.24 Y69.839 E3.93864
G1 X65.848 Y69.982 E3.9811
G1 X65.611 Y70.053 E4.00629
G1 X65.075 Y70.169 E4.0621
G1 X64.851 Y70.198 E4.08509
G1 X64.232 Y70.253 E4.14834
G1 X64.031 Y70.261 E4.16881
G1 X59.911 Y70.264 E4.58813
G1 X59.726 Y70.258 E4.60696
G1 X59.364 Y70.235 E4.64388
G1 X59.091 Y70.201 E4.67188
G1 X58.802 Y70.145 E4.70184
G1 X58.509 Y70.071 E4.7326
G1 X58.232 Y69.979 E4.7623
G1 X57.965 Y69.874 E4.7915
G1 X57.839 Y69.814 E4.80571
G1 X57.216 Y69.568 E4.87388
G1 X56.548 Y69.397 E4.94406
G1 X55.575 Y69.306 E5.04352
G1 X54.012 Y69.301 E5.20259
G1 X53.635 Y69.277 E5.24104
G1 X53.337 Y69.24 E5.2716
G1 X53.053 Y69.185 E5.30104
G1 X52.762 Y69.109 E5.33166
G1 X52.502 Y69.024 E5.3595
G1 X52.225 Y68.914 E5.38983
G1 X51.975 Y68.795 E5.41801
G1 X51.703 Y68.644 E5.44967
G1 X51.484 Y68.504 E5.47612
G1 X51.221 Y68.308 E5.50951
G1 X50.748 Y67.893 E5.57355
G1 X50.642 Y67.78 E5.58932
G1 X50.403 Y67.507 E5.62625
G1 X50.227 Y67.277 E5.65572
G1 X50.057 Y67.025 E5.68666
G1 X49.917 Y66.786 E5.71485
G1 X49.779 Y66.509 E5.74635
G1 X49.675 Y66.263 E5.77353
G1 X49.571 Y65.965 E5.80565
G1 X49.499 Y65.71 E5.83262
G1 X49.439 Y65.431 E5.86167
G1 X49.394 Y65.117 E5.89395
G1 X49.359 Y64.65 E5.94161
G1 X49.354 Y64.512 E5.95567
G1 X49.358 Y62.241 E6.1868
G1 X49.364 Y62.141 E6.197
G1 X49.363 Y61.94 E6.21745
G1 X49.379 Y61.94 E6.21908
G1 X49.354 Y61.262 E6.28813
G1 X49.367 Y58.039 E6.61616
G1 X49.354 Y57.662 E6.65455
G1 X49.358 Y55.356 E6.88925
G1 X49.382 Y54.978 E6.9278
G1 X49.419 Y54.68 E6.95836
G1 X49.474 Y54.396 E6.9878
G1 X49.551 Y54.102 E7.01873
G1 X49.634 Y53.847 E7.04602
G1 X49.745 Y53.568 E7.07659
G1 X49.867 Y53.31 E7.10563
G1 X50.013 Y53.047 E7.13625
G1 X50.151 Y52.831 E7.16233
G1 X50.347 Y52.566 E7.19588
G1 X50.578 Y52.296 E7.23204
G0 F1012.5 X50.656 Y52.205
G0 X50.752 Y52.101
G0 F7200 X51.2 Y51.707
G1 F1125 X51.2 Y68.289 E8.91969
G0 F7200 X52.8 Y69.118
G1 F1125 X52.8 Y50.882 E10.77568
G0 F7200 X54.4 Y50.694
G1 F1125 X54.4 Y69.302 E12.66953
G0 F7200 X56 Y69.345
G1 F1125 X56 Y50.666 E14.5706
G0 F7200 X57.6 Y50.284
G1 F1125 X57.6 Y69.719 E16.54862
G0 F7200 X59.2 Y70.214
G1 F1125 X59.2 Y49.787 E18.6276
G0 F7200 X60.8 Y49.737
G1 F1125 X60.8 Y70.264 E20.71675
G0 F7200 X62.4 Y70.263
G1 F1125 X62.4 Y49.738 E22.80571
G0 F7200 X64 Y49.739
G1 F1125 X64 Y70.262 E24.89446
G0 F7200 X65.6 Y70.056
G1 F1125 X65.6 Y49.946 E26.94117
G0 F7200 X67.2 Y50.657
G1 F1125 X67.2 Y69.35 E28.84367
G0 F7200 X68.8 Y67.634
M104 S230
G1 F1125 X68.8 Y52.41 E30.39311
G0 F7200 X49.6 Y53.951
G1 F1125 X49.6 Y66.048 E31.62429
G0 F600 X49.6 Y66.048 Z0.525
G0 F7200 X49.571 Y66.117
;TIME_ELAPSED:44.739272
;LAYER:-4
M140 S70
;TYPE:SUPPORT
G1 F1125 X52.541 Y69.087 E31.89199
G1 X52.464 Y69.063 E31.89713
G1 X52.219 Y68.964 E31.91398
G1 X51.946 Y68.836 E31.93319
G1 X51.679 Y68.688 E31.95265
G1 X51.454 Y68.544 E31.96967
G1 X51.19 Y68.346 E31.99071
G1 X50.711 Y67.928 E32.03123
G1 X50.604 Y67.812 E32.04128
G1 X50.359 Y67.532 E32.065
G1 X50.181 Y67.299 E32.08368
G1 X50.022 Y67.062 E32.10187
G1 X49.87 Y66.804 E32.12096
G1 X49.733 Y66.53 E32.14048
G1 X49.626 Y66.274 E32.15817
G0 F7200 X52.541 Y69.087
G1 F1125 X52.75 Y69.156 E32.1722
G1 X53.047 Y69.234 E32.19177
G1 X53.337 Y69.29 E32.21059
G1 X53.626 Y69.326 E32.22915
G1 X54.01 Y69.35 E32.25367
G1 X54.076 Y69.35 E32.25788
G1 X49.306 Y64.58 E32.68782
G1 X49.304 Y64.511 E32.69222
G1 X49.305 Y63.306 E32.76902
G1 X55.353 Y69.354 E33.31416
G1 X55.572 Y69.355 E33.32811
G1 X56.538 Y69.444 E33.38994
G1 X56.777 Y69.505 E33.40566
G1 X49.312 Y62.04 E34.07852
G1 X49.312 Y61.888 E34.08821
G1 X49.328 Y61.889 E34.08923
G1 X49.303 Y61.276 E34.12833
G1 X49.305 Y60.76 E34.16122
G1 X58.72 Y70.176 E35.00988
G1 X58.774 Y70.19 E35.01343
G1 X59.09 Y70.251 E35.03395
G1 X59.356 Y70.284 E35.05103
G1 X59.723 Y70.307 E35.07447
G1 X59.908 Y70.313 E35.08626
G1 X60.13 Y70.312 E35.10041
G1 X49.31 Y59.492 E36.07567
G1 X49.315 Y58.224 E36.15648
G1 X61.402 Y70.311 E37.24594
G1 X62.674 Y70.311 E37.32701
G1 X49.305 Y56.941 E38.53206
G1 X49.307 Y55.671 E38.61301
G1 X63.946 Y70.31 E39.93249
G1 X64.032 Y70.31 E39.93797
G1 X64.228 Y70.301 E39.95047
G1 X64.871 Y70.245 E39.99161
G1 X65.071 Y70.219 E40.00446
G1 X65.117 Y70.208 E40.00748
G1 X49.403 Y54.494 E41.42385
G1 X49.423 Y54.389 E41.43066
G1 X49.501 Y54.092 E41.45024
G1 X49.594 Y53.807 E41.46934
G1 X49.692 Y53.56 E41.48628
G1 X49.708 Y53.526 E41.48867
G1 X66.117 Y69.935 E42.96769
G1 X66.256 Y69.885 E42.97711
G1 X66.489 Y69.787 E42.99322
G1 X66.988 Y69.534 E43.02887
G1 X50.17 Y52.716 E44.54476
G1 X50.295 Y52.548 E44.5581
G1 X50.618 Y52.172 E44.5897
G1 X50.722 Y52.057 E44.59958
G1 X50.755 Y52.028 E44.60238
G1 X67.738 Y69.011 E46.13313
G0 F7200 X67.742 Y69.009
G1 F1125 X67.955 Y68.811 E46.15167
G1 X68.16 Y68.599 E46.17046
G1 X68.356 Y68.37 E46.18967
G1 X68.362 Y68.362 E46.19031
G1 X51.456 Y51.456 E47.71413
G1 X51.57 Y51.377 E47.72297
G1 X51.823 Y51.227 E47.74171
G1 X52.072 Y51.099 E47.75956
G1 X52.281 Y51.008 E47.77408
G1 X68.879 Y67.606 E49.27014
G1 X68.969 Y67.465 E49.2808
G1 X69.11 Y67.212 E49.29926
G1 X69.236 Y66.948 E49.3179
G1 X69.31 Y66.765 E49.33048
G1 X53.27 Y50.725 E50.77624
G1 X53.496 Y50.691 E50.79081
G1 X53.967 Y50.653 E50.82092
G1 X54.18 Y50.645 E50.83451
G1 X54.463 Y50.645 E50.85255
G1 X69.622 Y65.804 E52.2189
G1 X69.663 Y65.634 E52.23004
G1 X69.763 Y65.164 E52.26067
G1 X69.842 Y64.86 E52.28069
G1 X69.86 Y64.768 E52.28666
G1 X55.724 Y50.633 E53.56076
G1 X56.214 Y50.601 E53.59205
G1 X56.844 Y50.48 E53.63294
G1 X69.978 Y63.614 E54.81677
G1 X69.988 Y63.467 E54.82616
G1 X70.009 Y63.271 E54.83872
G1 X70.021 Y63.037 E54.85365
G1 X70.043 Y62.737 E54.87283
G1 X70.061 Y62.564 E54.88391
G1 X70.067 Y62.431 E54.8924
G1 X57.786 Y50.15 E55.99934
G1 X58.102 Y50.014 E56.02127
G1 X58.376 Y49.915 E56.03983
G1 X58.643 Y49.839 E56.05753
G1 X58.73 Y49.82 E56.0632
G1 X70.193 Y61.283 E57.09641
G1 X70.247 Y60.985 E57.11572
G1 X70.296 Y60.647 E57.13748
G1 X70.317 Y60.41 E57.15265
G1 X70.325 Y60.142 E57.16974
G1 X59.87 Y49.687 E58.11209
G1 X59.902 Y49.686 E58.11413
G1 X61.142 Y49.686 E58.19317
G1 X70.173 Y58.718 E59.00722
G1 X70.153 Y58.596 E59.01509
G1 X70.115 Y58.285 E59.03506
G1 X70.106 Y58.286 E59.03564
G1 X70.073 Y57.519 E59.08457
G1 X70.072 Y57.344 E59.09572
G1 X62.415 Y49.687 E59.78588
G1 X63.689 Y49.688 E59.86708
G1 X69.96 Y55.959 E60.43232
G1 X69.956 Y55.932 E60.43406
G1 X69.899 Y55.3 E60.4745
G1 X69.867 Y55.084 E60.48842
G1 X69.802 Y54.749 E60.51017
G1 X69.728 Y54.466 E60.52881
G1 X69.722 Y54.449 E60.52996
G1 X65.055 Y49.781 E60.95066
G1 X65.357 Y49.836 E60.97023
G1 X65.587 Y49.889 E60.98527
G1 X65.915 Y49.988 E61.00711
G1 X66.127 Y50.067 E61.02152
G1 X66.749 Y50.337 E61.06474
G1 X66.967 Y50.449 E61.08036
G1 X67.046 Y50.5 E61.08636
G1 X68.684 Y52.138 E61.234
G0 F7200 X68.551 Y51.931
G1 F1125 X68.356 Y51.661 E61.25522
G1 X68.172 Y51.437 E61.2737
G1 X67.969 Y51.219 E61.29268
G1 X67.757 Y51.019 E61.31126
G1 X67.529 Y50.83 E61.33013
G1 X67.291 Y50.655 E61.34896
G1 X67.046 Y50.5 E61.36744
G0 F600 X67.046 Y50.5 Z0.7
G0 F7200 X65.004 Y49.593
;TIME_ELAPSED:70.156569
;LAYER:-3
;TYPE:SUPPORT-INTERFACE
G1 F1500 X64.594 Y49.541 E61.37796
G1 X63.998 Y49.51 E61.39316
G1 X59.897 Y49.51 E61.49759
G1 X59.229 Y49.555 E61.51464
G1 X58.608 Y49.668 E61.53072
G1 X58.51 Y49.7 E61.53334
G1 X65.535 Y49.7 E61.71223
G1 X65.634 Y49.72 E61.7148
G1 X66.199 Y49.907 E61.72996
G1 X66.529 Y50.05 E61.73912
G1 X57.576 Y50.05 E61.9671
G1 X57.44 Y50.108 E61.97087
G1 X57.432 Y50.09 E61.97137
G1 X56.84 Y50.303 E61.98739
G1 X56.339 Y50.4 E62.00038
G1 X67.209 Y50.4 E62.27719
G1 X67.635 Y50.689 E62.2903
G1 X67.705 Y50.75 E62.29266
G1 X52.482 Y50.75 E62.68031
G1 X52.009 Y50.937 E62.69326
G1 X51.713 Y51.1 E62.70187
G1 X68.1 Y51.1 E63.11916
G1 X68.407 Y51.45 E63.13101
G1 X51.178 Y51.45 E63.56975
G1 X50.973 Y51.6 E63.57622
G1 X50.751 Y51.8 E63.58383
G1 X68.663 Y51.8 E64.03995
G1 X68.9 Y52.15 E64.05071
G1 X50.412 Y52.15 E64.52151
G1 X50.167 Y52.43 E64.53098
G1 X50.116 Y52.5 E64.53319
G1 X69.107 Y52.5 E65.01679
G1 X69.275 Y52.801 E65.02557
G1 X69.298 Y52.85 E65.02695
G1 X49.88 Y52.85 E65.52142
G1 X49.671 Y53.2 E65.5318
G1 X69.459 Y53.2 E66.0357
G1 X69.604 Y53.518 E66.0446
G1 X69.615 Y53.55 E66.04546
G1 X49.518 Y53.55 E66.55723
G1 X49.424 Y53.764 E66.56318
G1 X49.385 Y53.9 E66.56678
G1 X69.73 Y53.9 E67.08486
G1 X69.774 Y54.037 E67.08853
G1 X69.838 Y54.25 E67.09419
G1 X49.282 Y54.25 E67.61764
G1 X49.255 Y54.342 E67.62009
G1 X49.215 Y54.6 E67.62673
G1 X69.942 Y54.6 E68.15454
G1 X69.975 Y54.714 E68.15756
G1 X70.017 Y54.95 E68.16367
G1 X49.16 Y54.95 E68.69479
G1 X49.158 Y54.96 E68.69505
G1 X49.139 Y55.3 E68.70372
G1 X70.077 Y55.3 E69.2369
G1 X70.111 Y55.65 E69.24586
G1 X49.129 Y55.65 E69.78016
G1 X49.131 Y56 E69.78907
G1 X70.144 Y56 E70.32416
G1 X70.178 Y56.35 E70.33312
G1 X49.133 Y56.35 E70.86902
G1 X49.135 Y56.7 E70.87794
G1 X70.214 Y56.7 E71.41471
G1 X70.236 Y56.898 E71.41978
G1 X70.24 Y57.05 E71.42365
G1 X49.137 Y57.05 E71.96104
G1 X49.138 Y57.4 E71.96995
G1 X70.247 Y57.4 E72.50749
G1 X70.249 Y57.515 E72.51042
G1 X70.259 Y57.75 E72.5164
G1 X49.14 Y57.75 E73.0542
G1 X49.142 Y58.042 E73.06163
G1 X49.141 Y58.1 E73.06311
G1 X70.274 Y58.1 E73.60126
G1 X70.274 Y58.11 E73.60151
G1 X70.323 Y58.45 E73.61026
G1 X49.135 Y58.45 E74.14981
G1 X49.129 Y58.714 E74.15653
G1 X49.129 Y58.8 E74.15872
G1 X70.373 Y58.8 E74.69969
G1 X70.423 Y59.15 E74.7087
G1 X49.13 Y59.15 E75.25092
G1 X49.129 Y59.5 E75.25983
G1 X70.463 Y59.5 E75.8031
G1 X70.492 Y59.779 E75.81024
G1 X70.492 Y59.85 E75.81205
G1 X49.13 Y59.85 E76.35603
G1 X49.131 Y60.2 E76.36494
G1 X70.492 Y60.2 E76.90889
G1 X70.492 Y60.436 E76.9149
G1 X70.477 Y60.55 E76.91783
G1 X49.132 Y60.55 E77.46138
G1 X49.133 Y60.9 E77.47029
G1 X70.434 Y60.9 E78.01272
G1 X70.421 Y61.013 E78.01561
G1 X70.378 Y61.25 E78.02175
G1 X49.133 Y61.25 E78.56275
G1 X49.134 Y61.6 E78.57166
G1 X70.32 Y61.6 E79.11116
G1 X70.281 Y61.95 E79.12012
G1 X49.133 Y61.95 E79.65865
G1 X49.129 Y62.3 E79.66757
G1 X70.246 Y62.3 E80.20531
G1 X70.224 Y62.65 E80.21424
G1 X49.128 Y62.65 E80.75144
G1 X49.128 Y63 E80.76035
G1 X70.202 Y63 E81.297
G1 X70.186 Y63.273 E81.30396
G1 X70.179 Y63.35 E81.30593
G1 X49.128 Y63.35 E81.84199
G1 X49.128 Y63.7 E81.8509
G1 X70.149 Y63.7 E82.3862
G1 X70.118 Y64.05 E82.39515
G1 X49.128 Y64.05 E82.92965
G1 X49.128 Y64.4 E82.93857
G1 X70.088 Y64.4 E83.47231
G1 X70.071 Y64.601 E83.47744
G1 X70.037 Y64.75 E83.48134
G1 X49.143 Y64.75 E84.0134
G1 X49.166 Y65.1 E84.02233
G1 X69.958 Y65.1 E84.55179
G1 X69.879 Y65.45 E84.56093
G1 X49.223 Y65.45 E85.08693
G1 X49.28 Y65.765 E85.09508
G1 X49.291 Y65.8 E85.09602
G1 X69.8 Y65.8 E85.61827
G1 X69.762 Y65.97 E85.62271
G1 X69.703 Y66.15 E85.62753
G1 X49.401 Y66.15 E86.14452
G1 X49.458 Y66.329 E86.1493
G1 X49.536 Y66.5 E86.15409
G1 X69.589 Y66.5 E86.66474
G1 X69.515 Y66.729 E86.67086
G1 X69.461 Y66.85 E86.67424
G1 X49.698 Y66.85 E87.1775
G1 X49.718 Y66.892 E87.17868
G1 X49.911 Y67.2 E87.18794
G1 X69.306 Y67.2 E87.68183
G1 X69.265 Y67.295 E87.68446
G1 X69.11 Y67.55 E87.69206
G1 X50.159 Y67.55 E88.17465
G1 X50.448 Y67.9 E88.1862
G1 X68.896 Y67.9 E88.65598
G1 X68.652 Y68.25 E88.66684
G1 X50.808 Y68.25 E89.12124
G1 X51.078 Y68.483 E89.13032
G1 X51.234 Y68.6 E89.13528
G1 X68.385 Y68.6 E89.57203
G1 X68.072 Y68.944 E89.58387
G1 X68.064 Y68.95 E89.58413
G1 X51.793 Y68.95 E89.99847
G1 X51.863 Y68.991 E90.00053
G1 X52.42 Y69.235 E90.01602
G1 X52.642 Y69.3 E90.02191
G1 X67.631 Y69.3 E90.4036
G1 X67.376 Y69.506 E90.41195
G1 X67.141 Y69.65 E90.41897
G1 X56.629 Y69.65 E90.68665
G1 X57.145 Y69.782 E90.70021
G1 X57.682 Y70 E90.71497
G1 X66.429 Y70 E90.93771
G1 X65.929 Y70.192 E90.95135
G1 X65.347 Y70.344 E90.96667
G1 X65.311 Y70.35 E90.9676
G1 X58.698 Y70.35 E91.136
G0 F7200 X58.75 Y70.365
G1 F1500 X59.34 Y70.458 E91.15121
G1 X59.903 Y70.489 E91.16557
G1 X64.241 Y70.477 E91.27603
G1 X64.879 Y70.422 E91.29234
G1 X65.311 Y70.35 E91.30349
G0 F600 X65.311 Y70.35 Z0.898
G0 F7200 X54.135 Y55.47
;TIME_ELAPSED:118.326764
;LAYER:-2
M106 S255
;TYPE:SUPPORT
G1 F1239.8 X58.687 Y55.469 E91.43464
G1 X59.073 Y55.309 E91.44668
G1 X59.871 Y54.511 E91.4792
G1 X64.054 Y54.511 E91.59971
G1 X64.326 Y54.543 E91.60761
G1 X64.548 Y54.62 E91.61438
G1 X64.704 Y54.92 E91.62412
G1 X64.783 Y54.987 E91.6271
G1 X64.888 Y55.284 E91.63618
G1 X64.965 Y55.382 E91.63977
G1 X65.017 Y55.73 E91.64991
G1 X65.107 Y55.852 E91.65428
G1 X65.126 Y56.197 E91.66423
G1 X65.145 Y56.226 E91.66523
G1 X65.142 Y56.552 E91.67462
G1 X65.164 Y56.604 E91.67625
G1 X65.144 Y56.959 E91.68649
G1 X65.249 Y57.243 E91.69522
G1 X65.189 Y57.584 E91.70519
G1 X65.263 Y57.824 E91.71243
G1 X65.196 Y58.155 E91.72216
G1 X65.229 Y58.363 E91.72823
G1 X65.189 Y58.286 E91.73073
