;FLAVOR:Marlin
;TIME:1232
;Filament used: 0.660875m
;Layer height: 0.175
;MINX:46.415
;MINY:49.459
;MINZ:0.306
;MAXX:73.582
;MAXY:70.549
;MAXZ:17.02
;Generated with Cura_SteamEngine 4.5.0
M140 S70
M105
M190 S70
M104 S235
M105
M109 S235
M82 ;absolute extrusion mode
G21;(metric values)
G90;(absolute positioning)
M82;(set extruder to absolute mode)
M107;(start with the fan off)
G28;(Home the printer)
G92 E0;(Reset the extruder to 0)
G0 Z5 E5 F500;(Move up and prime the nozzle)
G0 X-1 Z0;(Move outside the printable area)
G1 Y60 E8 F500;(Draw a priming/wiping line to the rear)
G1 X-1;(Move a little closer to the print area)
G1 Y10 E16 F500;(draw more priming/wiping)
G1 E15 F250;(Small retract)
G92 E0;(Zero the extruder)
G92 E0
G92 E0
G1 F2400 E-4.5
;LAYER_COUNT:92
;LAYER:-5
M107
G0 F7200 X50.72 Y53.429 Z0.306
;TYPE:SUPPORT-INTERFACE
G1 F2400 E0
G1 F1125 X51.131 Y53.048 E0.05704
G1 X51.42 Y52.8 E0.0958
G1 X51.876 Y52.433 E0.15537
G1 X52.096 Y52.267 E0.18342
G1 X52.617 Y51.905 E0.24799
G1 X52.885 Y51.732 E0.28045
G1 X53.395 Y51.426 E0.34099
G1 X53.662 Y51.278 E0.37206
G1 X54.247 Y50.982 E0.43878
G1 X54.505 Y50.861 E0.46778
G1 X55.062 Y50.624 E0.52939
G1 X55.418 Y50.491 E0.56807
G1 X55.944 Y50.31 E0.62469
G1 X56.312 Y50.2 E0.66378
G1 X56.886 Y50.049 E0.72418
G1 X57.177 Y49.982 E0.75458
G1 X57.753 Y49.87 E0.8143
G1 X58.085 Y49.818 E0.8485
G1 X58.689 Y49.744 E0.91043
G1 X59.018 Y49.716 E0.94404
G1 X59.627 Y49.685 E1.0061
G1 X59.922 Y49.679 E1.03613
G1 X60.535 Y49.689 E1.09852
G1 X60.912 Y49.71 E1.13695
G1 X61.468 Y49.759 E1.19376
G1 X61.824 Y49.804 E1.23028
G1 X62.41 Y49.898 E1.29068
G1 X62.704 Y49.955 E1.32116
G1 X63.296 Y50.09 E1.38296
G1 X63.661 Y50.191 E1.42151
G1 X64.222 Y50.363 E1.48123
G1 X64.527 Y50.469 E1.51409
G1 X65.092 Y50.686 E1.57569
G1 X65.383 Y50.812 E1.60796
G1 X65.939 Y51.072 E1.67043
G1 X66.206 Y51.208 E1.70093
G1 X66.727 Y51.495 E1.76146
G1 X67.051 Y51.692 E1.80006
G1 X67.519 Y51.995 E1.8568
G1 X67.829 Y52.213 E1.89537
G1 X68.269 Y52.546 E1.95153
G1 X68.543 Y52.77 E1.98755
G1 X68.987 Y53.154 E2.0473
G1 X69.225 Y53.376 E2.08042
G1 X69.652 Y53.802 E2.14181
G1 X69.868 Y54.033 E2.17399
G1 X70.243 Y54.461 E2.23191
G1 X70.473 Y54.745 E2.2691
G1 X70.858 Y55.254 E2.33406
G1 X71.044 Y55.523 E2.36734
G1 X71.328 Y55.956 E2.42005
G1 X71.521 Y56.274 E2.4579
G1 X71.795 Y56.763 E2.51495
G1 X71.976 Y57.12 E2.55569
G1 X72.222 Y57.643 E2.61451
G1 X72.349 Y57.941 E2.64748
G1 X72.563 Y58.49 E2.70745
G1 X72.665 Y58.784 E2.73912
G1 X72.851 Y59.383 E2.80296
G1 X72.933 Y59.683 E2.83461
G1 X73.079 Y60.311 E2.90023
G1 X73.139 Y60.617 E2.93197
G1 X73.238 Y61.233 E2.99547
G1 X73.275 Y61.539 E3.02684
G1 X73.327 Y62.083 E3.08246
G1 X73.347 Y62.471 E3.122
G1 X73.36 Y63.071 E3.18308
G1 X73.356 Y63.384 E3.21494
G1 X73.328 Y64.003 E3.278
G1 X73.3 Y64.321 E3.31049
G1 X73.228 Y64.925 E3.3724
G1 X73.177 Y65.251 E3.40598
G1 X73.077 Y65.786 E3.46137
G1 X73.023 Y66.037 E3.4875
G1 X72.968 Y66.264 E3.51127
G1 X72.925 Y66.419 E3.52765
G1 X72.821 Y66.751 E3.56305
G1 X72.707 Y67.05 E3.59562
G1 X72.6 Y67.285 E3.6219
G1 X72.447 Y67.572 E3.655
G1 X72.306 Y67.799 E3.6822
G1 X72.124 Y68.055 E3.71417
G1 X71.957 Y68.26 E3.74108
G1 X71.76 Y68.475 E3.77076
G1 X71.539 Y68.686 E3.80186
G1 X71.32 Y68.87 E3.83097
G1 X71.09 Y69.041 E3.86014
G1 X70.845 Y69.199 E3.88981
G1 X70.596 Y69.338 E3.91883
G1 X70.337 Y69.462 E3.94806
G1 X70.059 Y69.575 E3.9786
G1 X69.779 Y69.668 E4.00863
G1 X69.496 Y69.742 E4.0384
G1 X69.228 Y69.797 E4.06624
G1 X68.877 Y69.847 E4.10233
G1 X68.026 Y69.934 E4.18939
G1 X67.044 Y70.025 E4.28976
G1 X65.604 Y70.133 E4.43673
G1 X65.604 Y70.13 E4.43704
G1 X65.12 Y70.166 E4.48643
G1 X64.233 Y70.217 E4.57686
G1 X63.288 Y70.259 E4.67313
G1 X62.334 Y70.292 E4.77028
G1 X61.394 Y70.313 E4.86597
G1 X60.504 Y70.324 E4.95656
G1 X59.496 Y70.324 E5.05915
G1 X58.555 Y70.312 E5.15493
G1 X57.606 Y70.29 E5.25154
G1 X56.662 Y70.257 E5.34768
G1 X55.711 Y70.213 E5.44457
G1 X54.788 Y70.161 E5.53866
G1 X53.825 Y70.094 E5.63691
G1 X52.622 Y69.994 E5.75976
G1 X51.939 Y69.931 E5.82957
G1 X51.002 Y69.83 E5.92549
G1 X50.62 Y69.766 E5.96491
G1 X50.335 Y69.7 E5.99468
G1 X50.051 Y69.613 E6.02491
G1 X49.789 Y69.516 E6.05335
G1 X49.517 Y69.395 E6.08365
G1 X49.267 Y69.264 E6.11237
G1 X49.019 Y69.114 E6.14187
G1 X48.789 Y68.953 E6.17044
G1 X48.544 Y68.758 E6.20231
G1 X48.339 Y68.572 E6.23048
G1 X48.132 Y68.359 E6.26071
G1 X47.938 Y68.132 E6.2911
G1 X47.774 Y67.915 E6.31879
G1 X47.609 Y67.665 E6.34927
G1 X47.463 Y67.41 E6.37918
G1 X47.339 Y67.156 E6.40795
G1 X47.225 Y66.881 E6.43824
G1 X47.132 Y66.611 E6.46731
G1 X47.021 Y66.209 E6.50975
G1 X46.904 Y65.679 E6.56499
G1 X46.839 Y65.327 E6.60142
G1 X46.75 Y64.748 E6.66105
G1 X46.708 Y64.385 E6.69824
G1 X46.661 Y63.79 E6.75898
G1 X46.649 Y63.48 E6.79056
G1 X46.64 Y62.898 E6.8498
G1 X46.648 Y62.563 E6.8839
G1 X46.683 Y61.952 E6.94619
G1 X46.712 Y61.642 E6.97788
G1 X46.78 Y61.093 E7.03418
G1 X46.847 Y60.69 E7.07576
G1 X46.963 Y60.111 E7.13586
G1 X47.025 Y59.848 E7.16336
G1 X47.197 Y59.218 E7.22982
G1 X47.302 Y58.883 E7.26555
G1 X47.497 Y58.33 E7.32523
G1 X47.619 Y58.017 E7.35942
G1 X47.84 Y57.501 E7.41655
G1 X48.004 Y57.159 E7.45516
G1 X48.285 Y56.617 E7.51729
G1 X48.399 Y56.411 E7.54125
G1 X48.749 Y55.833 E7.61002
G1 X48.92 Y55.572 E7.64178
G1 X49.262 Y55.088 E7.7021
G1 X49.486 Y54.797 E7.73947
G1 X49.834 Y54.371 E7.79546
G1 X50.074 Y54.099 E7.83238
G1 X50.461 Y53.686 E7.88998
G1 X50.535 Y53.613 E7.90056
G0 F1012.5 X50.72 Y53.429
G0 F7200 X51.2 Y52.988
G1 F1125 X51.2 Y69.851 E9.61681
G0 F7200 X52.8 Y70.008
G1 F1125 X52.8 Y51.786 E11.47137
G0 F7200 X54.4 Y50.91
G1 F1125 X54.4 Y70.134 E13.42791
G0 F7200 X56 Y70.226
G1 F1125 X56 Y50.293 E15.45661
G0 F7200 X57.6 Y49.899
G1 F1125 X57.6 Y70.289 E17.53183
G0 F7200 X59.2 Y70.32
G1 F1125 X59.2 Y49.706 E19.62984
G0 F7200 X60.8 Y49.704
G1 F1125 X60.8 Y70.321 E21.72815
G0 F7200 X62.4 Y70.29
G1 F1125 X62.4 Y49.897 E23.80367
G0 F7200 X64 Y50.295
G1 F1125 X64 Y70.228 E25.83237
G0 F7200 X65.6 Y70.131
G1 F1125 X65.6 Y50.914 E27.7882
G0 F7200 X67.2 Y51.789
G1 F1125 X67.2 Y70.011 E29.64276
G0 F7200 X68.8 Y69.855
G1 F1125 X68.8 Y52.993 E31.35891
G0 F7200 X70.4 Y54.655
G1 F1125 X70.4 Y69.432 E32.86286
G0 F7200 X72 Y68.208
G1 F1125 X72 Y57.172 E33.98606
G0 F7200 X49.6 Y54.657
M104 S230
G1 F1125 X49.6 Y69.431 E35.48969
G0 F7200 X48 Y68.204
G1 F1125 X48 Y57.167 E36.613
G0 F600 X48 Y57.167 Z0.525
G0 F7200 X46.927 Y66.019
;TIME_ELAPSED:47.822970
;LAYER:-4
M140 S70
;TYPE:SUPPORT
G1 F1125 X50.745 Y69.837 E36.95713
G1 X50.613 Y69.815 E36.96566
G1 X50.329 Y69.749 E36.98424
G1 X50.034 Y69.659 E37.0039
G1 X49.775 Y69.564 E37.02148
G1 X49.494 Y69.439 E37.04108
G1 X49.234 Y69.302 E37.05981
G1 X48.991 Y69.155 E37.07792
G1 X48.755 Y68.991 E37.09623
G1 X48.511 Y68.795 E37.11618
G1 X48.304 Y68.608 E37.13396
G1 X48.09 Y68.387 E37.15357
G1 X47.902 Y68.166 E37.17206
G1 X47.733 Y67.944 E37.18984
G1 X47.569 Y67.693 E37.20895
G1 X47.415 Y67.424 E37.22871
G1 X47.296 Y67.18 E37.24601
G1 X47.18 Y66.9 E37.26532
G1 X47.081 Y66.617 E37.28443
G1 X46.972 Y66.221 E37.31061
G0 F7200 X50.745 Y69.837
G1 F1125 X50.99 Y69.879 E37.32645
G1 X51.929 Y69.978 E37.38663
G1 X52.183 Y70.002 E37.40289
G1 X46.669 Y64.488 E37.89989
G1 X46.658 Y64.388 E37.90631
G1 X46.611 Y63.792 E37.94441
G1 X46.599 Y63.481 E37.96425
G1 X46.594 Y63.14 E37.98598
G1 X53.576 Y70.123 E38.61535
G1 X53.82 Y70.143 E38.63095
G1 X54.783 Y70.21 E38.69247
G1 X54.945 Y70.218 E38.70281
G1 X46.637 Y61.91 E39.45165
G1 X46.661 Y61.635 E39.46924
G1 X46.731 Y61.084 E39.50464
G1 X46.78 Y60.78 E39.52427
G1 X56.287 Y70.288 E40.38122
G1 X56.659 Y70.306 E40.40496
G1 X57.604 Y70.339 E40.46523
G1 X57.611 Y70.339 E40.46567
G1 X47.004 Y59.732 E41.42173
G1 X47.149 Y59.202 E41.45675
G1 X47.255 Y58.865 E41.47927
G1 X47.295 Y58.75 E41.48703
G1 X58.91 Y70.365 E42.53394
G1 X59.495 Y70.373 E42.57123
G1 X60.191 Y70.373 E42.61559
G1 X47.645 Y57.827 E43.74641
G1 X47.792 Y57.484 E43.7702
G1 X47.961 Y57.129 E43.79526
G1 X48.05 Y56.959 E43.80749
G1 X61.451 Y70.36 E45.01538
G1 X62.335 Y70.341 E45.07173
G1 X62.692 Y70.328 E45.0945
G1 X48.503 Y56.14 E46.37338
G1 X48.702 Y55.81 E46.39794
G1 X48.873 Y55.551 E46.41772
G1 X49.002 Y55.366 E46.43209
G1 X63.916 Y70.28 E47.77636
G1 X64.234 Y70.266 E47.79665
G1 X65.123 Y70.214 E47.8534
G1 X49.549 Y54.64 E49.25716
G1 X49.793 Y54.341 E49.28175
G1 X50.037 Y54.063 E49.30533
G1 X50.138 Y53.956 E49.31471
G1 X66.31 Y70.128 E50.77236
G1 X67.044 Y70.073 E50.81928
G1 X67.487 Y70.033 E50.84762
G1 X50.769 Y53.315 E52.35449
G1 X51.099 Y53.009 E52.38318
G1 X51.381 Y52.765 E52.40694
G1 X51.443 Y52.716 E52.41198
G1 X68.647 Y69.92 E53.96266
G1 X68.882 Y69.896 E53.97771
G1 X69.229 Y69.847 E54.00005
G1 X69.496 Y69.792 E54.01742
G1 X69.73 Y69.73 E54.03285
G1 X52.161 Y52.161 E55.61642
G1 X52.584 Y51.866 E55.64929
G1 X52.865 Y51.684 E55.67063
G1 X52.923 Y51.65 E55.67491
G1 X70.64 Y69.367 E57.27183
G1 X70.882 Y69.233 E57.28946
G1 X71.11 Y69.085 E57.30678
G1 X71.366 Y68.896 E57.32706
G1 X71.407 Y68.861 E57.3305
G1 X53.732 Y51.186 E58.92363
G1 X54.225 Y50.937 E58.95883
G1 X54.493 Y50.811 E58.9777
G1 X54.589 Y50.77 E58.98436
G1 X72.046 Y68.228 E60.55788
G1 X72.175 Y68.068 E60.57098
G1 X72.344 Y67.829 E60.58963
G1 X72.491 Y67.593 E60.60736
G1 X72.559 Y67.467 E60.61648
G1 X55.501 Y50.41 E62.15395
G1 X55.928 Y50.263 E62.18273
G1 X56.293 Y50.152 E62.20705
G1 X56.47 Y50.107 E62.21869
G1 X72.93 Y66.567 E63.7023
G1 X72.972 Y66.434 E63.71119
G1 X73.019 Y66.263 E63.72249
G1 X73.071 Y66.048 E63.73659
G1 X73.123 Y65.803 E63.75256
G1 X73.173 Y65.536 E63.76987
G1 X57.504 Y49.867 E65.18219
G1 X57.737 Y49.822 E65.19731
G1 X58.07 Y49.769 E65.2188
G1 X58.612 Y49.703 E65.2536
G1 X73.336 Y64.427 E66.58074
G1 X73.348 Y64.326 E66.58722
G1 X73.376 Y64.007 E66.60763
G1 X73.405 Y63.387 E66.64719
G1 X73.407 Y63.225 E66.65752
G1 X59.814 Y49.631 E67.88276
G1 X59.921 Y49.628 E67.88958
G1 X60.536 Y49.638 E67.92879
G1 X60.915 Y49.66 E67.95298
G1 X61.135 Y49.679 E67.96706
G1 X73.36 Y61.905 E69.069
G1 X73.324 Y61.533 E69.09282
G1 X73.287 Y61.231 E69.11221
G1 X73.189 Y60.618 E69.15177
G1 X73.151 Y60.423 E69.16444
G1 X62.615 Y49.887 E70.11409
G1 X62.714 Y49.906 E70.12052
G1 X63.313 Y50.044 E70.15969
G1 X63.674 Y50.143 E70.18355
G1 X64.23 Y50.312 E70.22059
G1 X64.358 Y50.358 E70.22926
G1 X72.682 Y58.681 E70.97949
G1 X72.609 Y58.474 E70.99348
G1 X72.395 Y57.923 E71.03116
G1 X72.266 Y57.623 E71.05197
G1 X72.021 Y57.098 E71.08889
G1 X71.838 Y56.74 E71.11452
G1 X71.615 Y56.341 E71.14365
G1 X66.695 Y51.422 E71.58707
G1 X66.752 Y51.453 E71.5912
G1 X67.073 Y51.647 E71.61511
G1 X67.547 Y51.953 E71.65107
G1 X67.863 Y52.178 E71.67579
G1 X68.299 Y52.505 E71.71053
G1 X68.574 Y52.731 E71.73321
G1 X69.019 Y53.117 E71.77076
G1 X69.26 Y53.34 E71.79169
G1 X69.688 Y53.766 E71.83017
G1 X69.905 Y53.999 E71.85047
G1 X70.272 Y54.418 E71.88597
G1 X70.509 Y54.71 E71.90994
G1 X70.9 Y55.229 E71.95135
G1 X71.084 Y55.495 E71.97196
G1 X71.376 Y55.939 E72.00583
G1 X71.566 Y56.254 E72.02928
G0 F600 X71.566 Y56.254 Z0.7
G0 F7200 X62.363 Y49.661
;TIME_ELAPSED:78.097278
;LAYER:-3
;TYPE:SUPPORT-INTERFACE
G1 F1500 X61.434 Y49.528 E72.05318
G1 X60.441 Y49.459 E72.07853
G1 X59.529 Y49.462 E72.10175
G1 X58.595 Y49.529 E72.12559
G1 X57.672 Y49.656 E72.14932
G1 X57.464 Y49.7 E72.15473
G1 X62.548 Y49.7 E72.2842
G1 X63.28 Y49.855 E72.30325
G1 X63.966 Y50.05 E72.32141
G1 X56.043 Y50.05 E72.52317
G1 X55.842 Y50.107 E72.52849
G1 X55.028 Y50.4 E72.55052
G1 X64.976 Y50.4 E72.80384
G1 X65.053 Y50.428 E72.80593
G1 X65.783 Y50.75 E72.82625
G1 X54.227 Y50.75 E73.12052
G1 X54.032 Y50.837 E73.12596
G1 X53.534 Y51.1 E73.1403
G1 X66.468 Y51.1 E73.46966
G1 X66.767 Y51.258 E73.47827
G1 X67.076 Y51.45 E73.48753
G1 X52.928 Y51.45 E73.84781
G1 X52.447 Y51.748 E73.86222
G1 X52.376 Y51.8 E73.86446
G1 X67.628 Y51.8 E74.25285
G1 X68.111 Y52.15 E74.26804
G1 X51.893 Y52.15 E74.68103
G1 X51.635 Y52.337 E74.68914
G1 X51.44 Y52.5 E74.69561
G1 X68.563 Y52.5 E75.13165
G1 X68.981 Y52.85 E75.14553
G1 X51.019 Y52.85 E75.60293
G1 X50.961 Y52.898 E75.60484
G1 X50.648 Y53.2 E75.61592
G1 X69.356 Y53.2 E76.09232
G1 X69.721 Y53.55 E76.10519
G1 X50.284 Y53.55 E76.60015
G1 X50.245 Y53.587 E76.60152
G1 X49.961 Y53.9 E76.61228
G1 X70.04 Y53.9 E77.12359
G1 X70.357 Y54.25 E77.13562
G1 X49.643 Y54.25 E77.66309
G1 X49.637 Y54.256 E77.66331
G1 X49.366 Y54.6 E77.67446
G1 X70.639 Y54.6 E78.21617
G1 X70.912 Y54.95 E78.22748
G1 X49.089 Y54.95 E78.7832
G1 X49.044 Y55.006 E78.78502
G1 X48.844 Y55.3 E78.79408
G1 X71.157 Y55.3 E79.36228
G1 X71.394 Y55.65 E79.37304
G1 X48.606 Y55.65 E79.95333
G1 X48.497 Y55.81 E79.95826
G1 X48.388 Y56 E79.96384
G1 X71.615 Y56 E80.55531
G1 X71.817 Y56.35 E80.5656
G1 X48.186 Y56.35 E81.16736
G1 X48.018 Y56.64 E81.17589
G1 X47.989 Y56.7 E81.17759
G1 X72.015 Y56.7 E81.78941
G1 X72.186 Y57.05 E81.79933
G1 X47.815 Y57.05 E82.41993
G1 X47.641 Y57.4 E82.42988
G1 X72.358 Y57.4 E83.0593
G1 X72.387 Y57.461 E83.06102
G1 X72.506 Y57.75 E83.06897
G1 X47.494 Y57.75 E83.7059
G1 X47.352 Y58.1 E83.71552
G1 X72.649 Y58.1 E84.3597
G1 X72.756 Y58.364 E84.36695
G1 X72.785 Y58.45 E84.36927
G1 X47.217 Y58.45 E85.02035
G1 X47.103 Y58.8 E85.02972
G1 X72.9 Y58.8 E85.68664
G1 X73.015 Y59.15 E85.69602
G1 X46.988 Y59.15 E86.35879
G1 X46.946 Y59.277 E86.3622
G1 X46.889 Y59.5 E86.36806
G1 X73.11 Y59.5 E87.03577
G1 X73.199 Y59.85 E87.04497
G1 X46.8 Y59.85 E87.71721
G1 X46.722 Y60.158 E87.7253
G1 X46.715 Y60.2 E87.72639
G1 X73.284 Y60.2 E88.40296
G1 X73.348 Y60.55 E88.41202
G1 X46.651 Y60.55 E89.09186
G1 X46.586 Y60.9 E89.10092
G1 X73.411 Y60.9 E89.78401
G1 X73.446 Y61.095 E89.78906
G1 X73.463 Y61.25 E89.79303
G1 X46.537 Y61.25 E90.47869
G1 X46.499 Y61.6 E90.48766
G1 X73.501 Y61.6 E91.17526
G1 X73.539 Y61.95 E91.18422
G1 X46.462 Y61.95 E91.87373
G1 X46.449 Y62.066 E91.87671
G1 X46.441 Y62.3 E91.88267
G1 X73.56 Y62.3 E92.57325
G1 X73.573 Y62.65 E92.58217
G1 X46.428 Y62.65 E93.27341
G1 X46.415 Y63 E93.28233
G1 X73.582 Y63 E93.97413
G1 X73.573 Y63.35 E93.98305
G1 X46.424 Y63.35 E94.67439
G1 X46.435 Y63.7 E94.68331
G1 X73.564 Y63.7 E95.37414
G1 X73.56 Y63.87 E95.37847
G1 X73.542 Y64.05 E95.38308
G1 X46.456 Y64.05 E96.07282
G1 X46.491 Y64.4 E96.08177
G1 X73.508 Y64.4 E96.76976
G1 X73.474 Y64.75 E96.77871
G1 X46.526 Y64.75 E97.46494
G1 X46.539 Y64.87 E97.46801
G1 X46.577 Y65.1 E97.47395
G1 X73.421 Y65.1 E98.15752
G1 X73.362 Y65.45 E98.16656
G1 X46.636 Y65.45 E98.84713
G1 X46.684 Y65.736 E98.85452
G1 X46.698 Y65.8 E98.85619
G1 X73.302 Y65.8 E99.53365
G1 X73.224 Y66.15 E99.54278
G1 X46.778 Y66.15 E100.21623
G1 X46.826 Y66.359 E100.22169
G1 X46.87 Y66.5 E100.22545
G1 X73.131 Y66.5 E100.89418
G1 X73.034 Y66.825 E100.90281
G1 X73.023 Y66.85 E100.90351
G1 X46.979 Y66.85 E101.56672
G1 X47.012 Y66.955 E101.56952
G1 X47.121 Y67.2 E101.57635
G1 X72.879 Y67.2 E102.23227
G1 X72.803 Y67.384 E102.23734
G1 X72.708 Y67.55 E102.24221
G1 X47.284 Y67.55 E102.88963
G1 X47.499 Y67.9 E102.90009
G1 X72.507 Y67.9 E103.53691
G1 X72.497 Y67.919 E103.53746
G1 X72.246 Y68.25 E103.54803
G1 X47.755 Y68.25 E104.17169
G1 X47.971 Y68.518 E104.18046
G1 X48.056 Y68.6 E104.18346
G1 X71.939 Y68.6 E104.79164
G1 X71.689 Y68.855 E104.80073
G1 X71.568 Y68.95 E104.80465
G1 X48.423 Y68.95 E105.39403
G1 X48.887 Y69.297 E105.40879
G1 X48.892 Y69.3 E105.40894
G1 X71.095 Y69.3 E105.97433
G1 X70.697 Y69.539 E105.98615
G1 X70.446 Y69.65 E105.99314
G1 X49.546 Y69.65 E106.52536
G1 X49.988 Y69.83 E106.53751
G1 X50.569 Y69.986 E106.55283
G1 X50.656 Y70 E106.55507
G1 X69.334 Y70 E107.0307
G1 X69.035 Y70.054 E107.03844
G1 X68.098 Y70.153 E107.06243
G1 X67.141 Y70.242 E107.08691
G1 X66.198 Y70.319 E107.111
G1 X65.736 Y70.35 E107.12279
G1 X54.268 Y70.35 E107.41482
G0 F7200 X54.835 Y70.389
G1 F1500 X55.809 Y70.443 E107.43966
G1 X56.704 Y70.484 E107.46248
G1 X57.659 Y70.517 E107.48681
G1 X58.599 Y70.538 E107.51076
G1 X59.492 Y70.549 E107.5335
G1 X60.506 Y70.549 E107.55932
G1 X61.448 Y70.537 E107.58331
G1 X62.401 Y70.515 E107.60758
G1 X63.349 Y70.482 E107.63174
G1 X64.296 Y70.438 E107.65588
G1 X65.378 Y70.374 E107.68348
G1 X65.736 Y70.35 E107.69262
G0 F600 X65.736 Y70.35 Z1.226
G0 F7200 X60.942 Y55.208
;TIME_ELAPSED:135.468227
;LAYER:0
M106 S255
;TYPE:WALL-INNER
