;FLAVOR:Marlin
;TIME:1512
;Filament used: 0.810625m
;Layer height: 0.175
;MINX:46.419
;MINY:49.465
;MINZ:0.306
;MAXX:73.578
;MAXY:70.546
;MAXZ:20.87
;Generated with Cura_SteamEngine 4.5.0
M140 S70
M105
M190 S70
M104 S235
M105
M109 S235
M82 ;absolute extrusion mode
G21;(metric values)
G90;(absolute positioning)
M82;(set extruder to absolute mode)
M107;(start with the fan off)
G28;(Home the printer)
G92 E0;(Reset the extruder to 0)
G0 Z5 E5 F500;(Move up and prime the nozzle)
G0 X-1 Z0;(Move outside the printable area)
G1 Y60 E8 F500;(Draw a priming/wiping line to the rear)
G1 X-1;(Move a little closer to the print area)
G1 Y10 E16 F500;(draw more priming/wiping)
G1 E15 F250;(Small retract)
G92 E0;(Zero the extruder)
G92 E0
G92 E0
G1 F2400 E-4.5
;LAYER_COUNT:114
;LAYER:-5
M107
G0 F7200 X50.864 Y53.294 Z0.306
;TYPE:SUPPORT-INTERFACE
G1 F2400 E0
G1 F1125 X51.146 Y53.039 E0.03869
G1 X51.586 Y52.665 E0.09747
G1 X51.903 Y52.418 E0.13837
G1 X52.409 Y52.049 E0.20211
G1 X52.639 Y51.892 E0.23045
G1 X53.139 Y51.577 E0.29059
G1 X53.443 Y51.401 E0.32634
G1 X54.044 Y51.083 E0.39555
G1 X54.346 Y50.939 E0.4296
G1 X54.885 Y50.7 E0.48961
G1 X55.218 Y50.567 E0.5261
G1 X55.804 Y50.358 E0.58942
G1 X56.169 Y50.245 E0.62831
G1 X56.779 Y50.077 E0.6927
G1 X57.079 Y50.006 E0.72408
G1 X57.701 Y49.882 E0.78863
G1 X58.04 Y49.828 E0.82357
G1 X58.666 Y49.75 E0.88777
G1 X58.966 Y49.723 E0.91843
G1 X59.639 Y49.688 E0.98702
G1 X59.97 Y49.683 E1.02071
G1 X60.577 Y49.694 E1.0825
G1 X60.937 Y49.715 E1.1192
G1 X61.55 Y49.771 E1.18185
G1 X61.87 Y49.812 E1.21468
G1 X62.484 Y49.913 E1.27801
G1 X62.848 Y49.989 E1.31586
G1 X63.441 Y50.132 E1.37794
G1 X63.8 Y50.233 E1.4159
G1 X64.371 Y50.415 E1.47689
G1 X64.698 Y50.535 E1.51234
G1 X65.261 Y50.76 E1.57405
G1 X65.587 Y50.906 E1.6104
G1 X66.145 Y51.178 E1.67358
G1 X66.433 Y51.331 E1.70677
G1 X66.982 Y51.65 E1.77139
G1 X67.277 Y51.838 E1.807
G1 X67.795 Y52.192 E1.87085
G1 X68.08 Y52.404 E1.907
G1 X68.558 Y52.783 E1.96909
G1 X68.803 Y52.993 E2.00193
G1 X69.248 Y53.401 E2.06338
G1 X69.533 Y53.683 E2.10418
G1 X69.93 Y54.106 E2.16322
G1 X70.146 Y54.352 E2.19654
G1 X70.56 Y54.86 E2.26324
G1 X70.764 Y55.13 E2.29768
G1 X71.131 Y55.656 E2.36296
G1 X71.304 Y55.923 E2.39534
G1 X71.647 Y56.501 E2.46374
G1 X71.804 Y56.788 E2.49704
G1 X72.064 Y57.305 E2.55593
G1 X72.231 Y57.675 E2.59725
G1 X72.438 Y58.17 E2.65186
G1 X72.587 Y58.573 E2.69558
G1 X72.769 Y59.12 E2.75426
G1 X72.874 Y59.487 E2.79311
G1 X73.03 Y60.107 E2.85818
G1 X73.095 Y60.417 E2.89041
G1 X73.195 Y60.974 E2.94801
G1 X73.246 Y61.331 E2.98471
G1 X73.31 Y61.932 E3.04622
G1 X73.338 Y62.349 E3.08876
G1 X73.356 Y62.902 E3.14507
G1 X73.352 Y63.311 E3.1867
G1 X73.329 Y63.913 E3.24801
G1 X73.297 Y64.292 E3.28672
G1 X73.236 Y64.827 E3.34153
G1 X73.176 Y65.222 E3.38219
G1 X73.075 Y65.772 E3.4391
G1 X72.956 Y66.287 E3.4929
G1 X72.804 Y66.783 E3.5457
G1 X72.703 Y67.046 E3.57437
G1 X72.583 Y67.308 E3.6037
G1 X72.444 Y67.566 E3.63353
G1 X72.29 Y67.811 E3.66298
G1 X72.119 Y68.051 E3.69297
G1 X71.946 Y68.262 E3.72074
G1 X71.718 Y68.507 E3.7548
G1 X71.537 Y68.68 E3.78028
G1 X71.304 Y68.875 E3.81121
G1 X71.063 Y69.052 E3.84164
G1 X70.837 Y69.197 E3.86897
G1 X70.559 Y69.351 E3.90131
G1 X70.315 Y69.466 E3.92877
G1 X70.031 Y69.58 E3.95991
G1 X69.773 Y69.664 E3.98753
G1 X69.472 Y69.743 E4.0192
G1 X69.206 Y69.797 E4.04682
G1 X68.881 Y69.842 E4.08022
G1 X66.956 Y70.029 E4.27706
G1 X65.96 Y70.106 E4.37873
G1 X64.958 Y70.173 E4.48094
G1 X63.932 Y70.226 E4.5855
G1 X62.949 Y70.268 E4.68564
G1 X61.962 Y70.298 E4.78613
G1 X60.946 Y70.316 E4.88956
G1 X59.975 Y70.321 E4.98838
G1 X58.973 Y70.315 E5.09036
G1 X57.925 Y70.296 E5.19704
G1 X56.934 Y70.262 E5.29796
G1 X55.951 Y70.222 E5.39809
G1 X54.98 Y70.169 E5.49706
G1 X53.985 Y70.102 E5.59856
G1 X52.988 Y70.023 E5.70035
G1 X52.102 Y69.944 E5.79088
G1 X51.604 Y69.889 E5.84187
G1 X51.005 Y69.826 E5.90317
G1 X50.61 Y69.76 E5.94393
G1 X50.353 Y69.699 E5.97081
G1 X50.061 Y69.611 E6.00185
G1 X49.788 Y69.51 E6.03148
G1 X49.523 Y69.391 E6.06104
G1 X49.274 Y69.26 E6.08968
G1 X49.02 Y69.107 E6.11986
G1 X48.785 Y68.944 E6.14896
G1 X48.557 Y68.762 E6.17865
G1 X48.343 Y68.568 E6.20805
G1 X48.137 Y68.356 E6.23814
G1 X47.943 Y68.13 E6.26845
G1 X47.779 Y67.91 E6.29638
G1 X47.611 Y67.656 E6.32737
G1 X47.471 Y67.411 E6.35609
G1 X47.335 Y67.135 E6.38741
G1 X47.226 Y66.872 E6.41638
G1 X47.138 Y66.617 E6.44384
G1 X47.026 Y66.205 E6.48729
G1 X46.891 Y65.59 E6.55137
G1 X46.838 Y65.301 E6.58128
G1 X46.744 Y64.67 E6.64621
G1 X46.705 Y64.309 E6.68316
G1 X46.662 Y63.739 E6.74134
G1 X46.649 Y63.372 E6.77871
G1 X46.646 Y62.764 E6.84059
G1 X46.662 Y62.363 E6.88144
G1 X46.706 Y61.749 E6.94409
G1 X46.742 Y61.416 E6.97818
G1 X46.832 Y60.798 E7.04174
G1 X46.895 Y60.459 E7.07683
G1 X47.021 Y59.882 E7.13694
G1 X47.107 Y59.547 E7.17214
G1 X47.283 Y58.948 E7.23568
G1 X47.41 Y58.58 E7.2753
G1 X47.611 Y58.045 E7.33347
G1 X47.746 Y57.726 E7.36872
G1 X48.011 Y57.151 E7.43316
G1 X48.185 Y56.81 E7.47212
G1 X48.469 Y56.297 E7.5318
G1 X48.66 Y55.981 E7.56938
G1 X48.98 Y55.489 E7.62911
G1 X49.197 Y55.181 E7.66746
G1 X49.555 Y54.712 E7.72751
G1 X49.747 Y54.477 E7.7584
G1 X50.212 Y53.95 E7.82993
G1 X50.408 Y53.743 E7.85894
G1 X50.678 Y53.477 E7.89751
G0 F1012.5 X50.864 Y53.294
G0 F7200 X51.2 Y52.993
G1 F1125 X51.2 Y69.846 E9.61275
G0 F7200 X52.8 Y70.006
G1 F1125 X52.8 Y51.79 E11.4667
G0 F7200 X54.4 Y50.915
G1 F1125 X54.4 Y70.129 E13.42222
G0 F7200 X56 Y70.223
G1 F1125 X56 Y50.297 E15.45021
G0 F7200 X57.6 Y49.902
G1 F1125 X57.6 Y70.284 E17.52461
G0 F7200 X59.2 Y70.316
G1 F1125 X59.2 Y49.71 E19.62181
G0 F7200 X60.8 Y49.708
G1 F1125 X60.8 Y70.317 E21.71931
G0 F7200 X62.4 Y70.285
G1 F1125 X62.4 Y49.9 E23.79401
G0 F7200 X64 Y50.297
G1 F1125 X64 Y70.223 E25.822
G0 F7200 X65.6 Y70.131
G1 F1125 X65.6 Y50.913 E27.77793
G0 F7200 X67.2 Y51.789
G1 F1125 X67.2 Y70.006 E29.63199
G0 F7200 X68.8 Y69.85
G1 F1125 X68.8 Y52.991 E31.34783
G0 F7200 X70.4 Y54.664
G1 F1125 X70.4 Y69.426 E32.85024
G0 F7200 X72 Y68.197
G1 F1125 X72 Y57.178 E33.97171
G0 F7200 X49.6 Y54.656
M104 S230
G1 F1125 X49.6 Y69.425 E35.47484
G0 F7200 X48 Y68.196
G1 F1125 X48 Y57.174 E36.59662
G0 F600 X48 Y57.174 Z0.525
G0 F7200 X47.21 Y59.012
;TIME_ELAPSED:47.693467
;LAYER:-4
M140 S70
;TYPE:SUPPORT
G1 F1125 X47.058 Y59.532 E36.63115
G1 X47.006 Y59.734 E36.64444
G1 X57.606 Y70.334 E37.59987
G1 X56.931 Y70.311 E37.64291
G1 X56.283 Y70.284 E37.68425
G1 X46.782 Y60.783 E38.54062
G1 X46.782 Y60.788 E38.54094
G1 X46.693 Y61.409 E38.58092
G1 X46.656 Y61.743 E38.60234
G1 X46.643 Y61.917 E38.61346
G1 X54.942 Y70.215 E39.36144
G1 X53.981 Y70.151 E39.42283
G1 X53.572 Y70.118 E39.44898
G1 X46.596 Y63.143 E40.07771
G1 X46.598 Y63.372 E40.09231
G1 X46.611 Y63.74 E40.11578
G1 X46.656 Y64.308 E40.15209
G1 X46.675 Y64.494 E40.16401
G1 X52.179 Y69.998 E40.66011
G1 X52.091 Y69.99 E40.66574
G1 X50.985 Y69.872 E40.73663
G1 X50.739 Y69.831 E40.75252
G1 X46.936 Y66.028 E41.09531
G0 F7200 X46.975 Y66.207
G1 F1125 X47.09 Y66.629 E41.12318
G1 X47.18 Y66.89 E41.14078
G1 X47.294 Y67.165 E41.15975
G1 X47.422 Y67.426 E41.17828
G1 X47.569 Y67.684 E41.19721
G1 X47.738 Y67.939 E41.2167
G1 X47.9 Y68.156 E41.23396
G1 X48.105 Y68.395 E41.25403
G1 X48.308 Y68.604 E41.2726
G1 X48.515 Y68.792 E41.29042
G1 X48.752 Y68.981 E41.30974
G1 X48.986 Y69.143 E41.32788
G1 X49.258 Y69.309 E41.34819
G1 X49.507 Y69.439 E41.36609
G1 X49.76 Y69.552 E41.38375
G1 X50.049 Y69.659 E41.4034
G1 X50.327 Y69.743 E41.4219
G1 X50.621 Y69.811 E41.44114
G1 X50.739 Y69.831 E41.44877
G0 F7200 X47.21 Y59.012
G1 F1125 X47.295 Y58.75 E41.46632
G1 X58.907 Y70.362 E42.51296
G1 X58.972 Y70.364 E42.51711
G1 X59.974 Y70.37 E42.58097
G1 X60.186 Y70.369 E42.59448
G1 X47.647 Y57.83 E43.72468
G1 X47.701 Y57.704 E43.73342
G1 X47.963 Y57.134 E43.7734
G1 X48.05 Y56.96 E43.7858
G1 X61.446 Y70.356 E44.99324
G1 X61.963 Y70.347 E45.0262
G1 X62.688 Y70.325 E45.07243
G1 X48.503 Y56.14 E46.35098
G1 X48.617 Y55.953 E46.36494
G1 X48.938 Y55.46 E46.40244
G1 X49.003 Y55.367 E46.40967
G1 X63.911 Y70.275 E47.75339
G1 X63.933 Y70.275 E47.7548
G1 X64.961 Y70.222 E47.8204
G1 X65.12 Y70.211 E47.83056
G1 X49.548 Y54.639 E49.23414
G1 X49.708 Y54.443 E49.25026
G1 X50.138 Y53.956 E49.29167
G1 X66.309 Y70.128 E50.74928
G1 X66.955 Y70.077 E50.79058
G1 X67.48 Y70.026 E50.8242
G1 X50.77 Y53.316 E52.33034
G1 X50.836 Y53.251 E52.33625
G1 X51.112 Y53 E52.36003
G1 X51.446 Y52.719 E52.38784
G1 X68.64 Y69.913 E53.93762
G1 X68.879 Y69.891 E53.95291
G1 X69.206 Y69.847 E53.97394
G1 X69.477 Y69.791 E53.99158
G1 X69.726 Y69.726 E54.00798
G1 X52.165 Y52.165 E55.59084
G1 X52.38 Y52.008 E55.6078
G1 X52.61 Y51.85 E55.62559
G1 X52.925 Y51.652 E55.6493
G1 X70.637 Y69.365 E57.24581
G1 X70.859 Y69.242 E57.26198
G1 X71.093 Y69.089 E57.2798
G1 X71.337 Y68.911 E57.29905
G1 X71.402 Y68.856 E57.30448
G1 X53.735 Y51.19 E58.89684
G1 X54.028 Y51.034 E58.918
G1 X54.318 Y50.896 E58.93847
G1 X54.593 Y50.775 E58.95761
G1 X72.042 Y68.223 E60.53033
G1 X72.155 Y68.083 E60.54179
G1 X72.324 Y67.848 E60.56024
G1 X72.493 Y67.578 E60.58054
G1 X72.555 Y67.464 E60.58881
G1 X55.503 Y50.412 E62.12579
G1 X55.788 Y50.311 E62.14506
G1 X56.154 Y50.197 E62.16949
G1 X56.473 Y50.109 E62.19058
G1 X72.926 Y66.562 E63.67357
G1 X72.973 Y66.411 E63.68365
G1 X73.123 Y65.783 E63.7248
G1 X73.169 Y65.532 E63.74106
G1 X57.506 Y49.87 E65.15279
G1 X57.691 Y49.832 E65.16483
G1 X58.037 Y49.778 E65.18715
G1 X58.615 Y49.706 E65.22427
G1 X73.332 Y64.423 E66.55078
G1 X73.346 Y64.297 E66.55886
G1 X73.376 Y63.925 E66.58265
G1 X73.401 Y63.312 E66.62175
G1 X73.403 Y63.221 E66.62755
G1 X59.817 Y49.635 E67.85212
G1 X59.97 Y49.632 E67.86187
G1 X60.571 Y49.643 E67.90018
G1 X60.934 Y49.665 E67.92336
G1 X61.139 Y49.684 E67.93648
G1 X73.355 Y61.9 E69.03757
G1 X73.295 Y61.325 E69.07441
G1 X73.245 Y60.975 E69.09695
G1 X73.145 Y60.417 E69.13308
G1 X62.617 Y49.889 E70.08201
G1 X62.858 Y49.94 E70.09771
G1 X63.45 Y50.082 E70.13652
G1 X63.808 Y50.184 E70.16024
G1 X64.36 Y50.36 E70.19717
G1 X72.671 Y58.67 E70.94623
G1 X72.633 Y58.556 E70.95389
G1 X72.488 Y58.162 E70.98065
G1 X72.278 Y57.662 E71.01521
G1 X72.107 Y57.282 E71.04177
G1 X71.847 Y56.765 E71.07865
G1 X71.686 Y56.47 E71.10007
G1 X71.602 Y56.328 E71.11059
G1 X66.707 Y51.433 E71.5518
G1 X67.007 Y51.608 E71.57393
G1 X67.303 Y51.796 E71.59628
G1 X67.826 Y52.154 E71.63667
G1 X68.11 Y52.364 E71.65919
G1 X68.589 Y52.745 E71.6982
G1 X68.836 Y52.955 E71.71886
G1 X69.282 Y53.365 E71.75747
G1 X69.567 Y53.648 E71.78307
G1 X69.967 Y54.073 E71.82027
G1 X70.174 Y54.31 E71.84032
G1 X70.594 Y54.822 E71.88253
G1 X70.804 Y55.1 E71.90473
G1 X71.172 Y55.628 E71.94575
G1 X71.346 Y55.897 E71.96617
G0 F600 X71.346 Y55.897 Z0.7
G0 F7200 X73.412 Y60.9
;TIME_ELAPSED:77.951216
;LAYER:-3
;TYPE:SUPPORT-INTERFACE
G1 F1500 X46.586 Y60.9 E72.64929
G1 X46.588 Y60.883 E72.64973
G1 X46.655 Y60.55 E72.65838
G1 X73.342 Y60.55 E73.33795
G1 X73.272 Y60.2 E73.34704
G1 X46.725 Y60.2 E74.02306
G1 X46.786 Y59.892 E74.03105
G1 X46.798 Y59.85 E74.03216
G1 X73.199 Y59.85 E74.70446
G1 X73.104 Y59.5 E74.7137
G1 X46.895 Y59.5 E75.3811
G1 X46.992 Y59.15 E75.39035
G1 X73.009 Y59.15 E76.05287
G1 X72.967 Y58.998 E76.05688
G1 X72.898 Y58.8 E76.06222
G1 X47.102 Y58.8 E76.71911
G1 X47.227 Y58.45 E76.72858
G1 X72.775 Y58.45 E77.37915
G1 X72.652 Y58.1 E77.3886
G1 X47.351 Y58.1 E78.03288
G1 X47.382 Y58.013 E78.03524
G1 X47.498 Y57.75 E78.04256
G1 X72.502 Y57.75 E78.67928
G1 X72.35 Y57.4 E78.68899
G1 X47.652 Y57.4 E79.31792
G1 X47.75 Y57.175 E79.32417
G1 X47.813 Y57.05 E79.32774
G1 X72.185 Y57.05 E79.94837
G1 X72.001 Y56.7 E79.95843
G1 X47.989 Y56.7 E80.5699
G1 X48.183 Y56.35 E80.58009
G1 X71.816 Y56.35 E81.18189
G1 X71.763 Y56.25 E81.18478
G1 X71.607 Y56 E81.19228
G1 X48.391 Y56 E81.78347
G1 X48.611 Y55.65 E81.794
G1 X71.388 Y55.65 E82.37401
G1 X71.244 Y55.421 E82.3809
G1 X71.156 Y55.3 E82.38471
G1 X48.843 Y55.3 E82.9529
G1 X49.099 Y54.95 E82.96395
G1 X70.901 Y54.95 E83.51913
G1 X70.68 Y54.648 E83.52866
G1 X70.64 Y54.6 E83.53025
G1 X49.358 Y54.6 E84.07219
G1 X49.656 Y54.25 E84.0839
G1 X70.345 Y54.25 E84.61074
G1 X70.065 Y53.919 E84.62178
G1 X70.047 Y53.9 E84.62245
G1 X49.953 Y53.9 E85.13414
G1 X49.964 Y53.887 E85.13457
G1 X50.296 Y53.55 E85.14662
G1 X69.706 Y53.55 E85.64089
G1 X69.377 Y53.212 E85.6529
G1 X69.364 Y53.2 E85.65335
G1 X50.64 Y53.2 E86.13015
G1 X50.671 Y53.168 E86.13129
G1 X51.033 Y52.85 E86.14356
G1 X68.967 Y52.85 E86.60024
G1 X68.601 Y52.527 E86.61267
G1 X68.566 Y52.5 E86.6138
G1 X51.435 Y52.5 E87.05004
G1 X51.897 Y52.15 E87.06479
G1 X68.108 Y52.15 E87.4776
G1 X67.851 Y51.954 E87.48583
G1 X67.617 Y51.8 E87.49297
G1 X52.391 Y51.8 E87.8807
G1 X52.924 Y51.45 E87.89693
G1 X67.084 Y51.45 E88.25751
G1 X67.041 Y51.422 E88.25882
G1 X66.46 Y51.1 E88.27574
G1 X53.54 Y51.1 E88.60474
G1 X53.839 Y50.935 E88.61344
G1 X54.239 Y50.75 E88.62466
G1 X65.768 Y50.75 E88.91824
G1 X65.288 Y50.527 E88.93172
G1 X64.955 Y50.4 E88.9408
G1 X55.05 Y50.4 E89.19303
G1 X55.69 Y50.159 E89.21044
G1 X56.061 Y50.05 E89.22029
G1 X63.946 Y50.05 E89.42108
G1 X63.396 Y49.886 E89.43569
G1 X62.554 Y49.7 E89.45765
G1 X57.471 Y49.7 E89.58709
G1 X57.561 Y49.68 E89.58944
G1 X58.536 Y49.538 E89.61453
G1 X59.491 Y49.467 E89.63891
G1 X60.492 Y49.465 E89.6644
G1 X61.453 Y49.534 E89.68894
G1 X62.481 Y49.684 E89.71539
G0 F7200 X73.412 Y60.904
G1 F1500 X73.455 Y61.25 E89.72427
G1 X46.538 Y61.25 E90.40971
G1 X46.519 Y61.382 E90.4131
G1 X46.497 Y61.6 E90.41868
G1 X73.497 Y61.6 E91.10623
G1 X73.53 Y61.873 E91.11323
G1 X73.534 Y61.95 E91.1152
G1 X46.465 Y61.95 E91.8045
G1 X46.447 Y62.3 E91.81343
G1 X73.552 Y62.3 E92.50365
G1 X73.57 Y62.65 E92.51258
G1 X46.429 Y62.65 E93.20372
G1 X46.419 Y62.825 E93.20818
G1 X46.422 Y63 E93.21264
G1 X73.578 Y63 E93.90416
G1 X73.569 Y63.35 E93.91307
G1 X46.429 Y63.35 E94.60419
G1 X46.437 Y63.7 E94.6131
G1 X73.561 Y63.7 E95.30381
G1 X73.559 Y63.796 E95.30625
G1 X73.539 Y64.05 E95.31274
G1 X46.462 Y64.05 E96.00225
G1 X46.495 Y64.4 E96.01121
G1 X73.51 Y64.4 E96.69914
G1 X73.471 Y64.75 E96.7081
G1 X46.527 Y64.75 E97.39423
G1 X46.53 Y64.772 E97.39479
G1 X46.585 Y65.1 E97.40326
G1 X73.417 Y65.1 E98.08653
G1 X73.358 Y65.45 E98.09557
G1 X46.643 Y65.45 E98.77586
G1 X46.699 Y65.779 E98.78436
G1 X46.703 Y65.8 E98.78491
G1 X73.298 Y65.8 E99.46214
G1 X73.298 Y65.805 E99.46227
G1 X73.218 Y66.15 E99.47129
G1 X46.783 Y66.15 E100.14445
G1 X46.835 Y66.376 E100.15036
G1 X46.873 Y66.5 E100.15366
G1 X73.125 Y66.5 E100.82216
G1 X73.018 Y66.85 E100.83148
G1 X46.982 Y66.85 E101.49448
G1 X47.012 Y66.943 E101.49697
G1 X47.127 Y67.2 E101.50414
G1 X72.871 Y67.2 E102.1597
G1 X72.781 Y67.415 E102.16564
G1 X72.702 Y67.55 E102.16962
G1 X47.291 Y67.55 E102.81671
G1 X47.507 Y67.9 E102.82718
G1 X72.499 Y67.9 E103.4636
G1 X72.48 Y67.933 E103.46457
G1 X72.237 Y68.25 E103.47474
G1 X47.763 Y68.25 E104.09796
G1 X47.976 Y68.515 E104.10662
G1 X48.064 Y68.6 E104.10974
G1 X71.929 Y68.6 E104.71746
G1 X71.673 Y68.86 E104.72675
G1 X71.557 Y68.95 E104.73049
G1 X48.432 Y68.95 E105.31936
G1 X48.896 Y69.295 E105.33408
G1 X48.904 Y69.3 E105.33432
G1 X71.084 Y69.3 E105.89913
G1 X70.66 Y69.553 E105.91171
G1 X70.436 Y69.65 E105.91792
G1 X49.562 Y69.65 E106.44947
G1 X49.987 Y69.824 E106.46117
G1 X50.572 Y69.982 E106.4766
G1 X50.687 Y70 E106.47956
G1 X69.306 Y70 E106.95369
G1 X68.978 Y70.057 E106.96217
G1 X67.061 Y70.245 E107.01122
G1 X66.034 Y70.327 E107.03745
G1 X65.685 Y70.35 E107.04636
G1 X54.322 Y70.35 E107.33572
G0 F7200 X55.027 Y70.397
G1 F1500 X56.059 Y70.451 E107.36203
G1 X57.04 Y70.493 E107.38704
G1 X58.032 Y70.523 E107.41231
G1 X59.052 Y70.541 E107.43829
G1 X60.026 Y70.546 E107.46309
G1 X61.029 Y70.54 E107.48863
G1 X62.081 Y70.521 E107.51543
G1 X63.076 Y70.487 E107.54078
G1 X64.053 Y70.447 E107.56568
G1 X65.034 Y70.393 E107.5907
G1 X65.685 Y70.35 E107.60731
G0 F600 X65.685 Y70.35 Z1.226
G0 F7200 X62.792 Y64.795
;TIME_ELAPSED:135.438500
;LAYER:0
M106 S255
;TYPE:WALL-INNER
;MESH:Puck_Insert_Male.stl
G1 F1800 X61.859 Y64.824 E107.64303
G1 X60.927 Y64.841 E107.67871
G1 X60 Y64.846 E107.71418
G1 X59.073 Y64.841 E107.74966
G1 X58.141 Y64.824 E107.78533
G1 X57.208 Y64.795 E107.82106
G1 X56.273 Y64.755 E107.85687
G1 X55.341 Y64.705 E107.89259
G1 X54.411 Y64.643 E107.92826
