;FLAVOR:Marlin
;TIME:1150
;Filament used: 0.656665m
;Layer height: 0.175
;MINX:46.424
;MINY:49.457
;MINZ:0.306
;MAXX:73.575
;MAXY:70.545
;MAXZ:12.82
;Generated with Cura_SteamEngine 4.5.0
M140 S70
M105
M190 S70
M104 S235
M105
M109 S235
M82 ;absolute extrusion mode
G21;(metric values)
G90;(absolute positioning)
M82;(set extruder to absolute mode)
M107;(start with the fan off)
G28;(Home the printer)
G92 E0;(Reset the extruder to 0)
G0 Z5 E5 F500;(Move up and prime the nozzle)
G0 X-1 Z0;(Move outside the printable area)
G1 Y60 E8 F500;(Draw a priming/wiping line to the rear)
G1 X-1;(Move a little closer to the print area)
G1 Y10 E16 F500;(draw more priming/wiping)
G1 E15 F250;(Small retract)
G92 E0;(Zero the extruder)
G92 E0
G92 E0
G1 F2400 E-4.5
;LAYER_COUNT:68
;LAYER:-5
M107
G0 F7200 X50.862 Y53.295 Z0.306
;TYPE:SUPPORT-INTERFACE
G1 F2400 E0
G1 F1125 X51.295 Y52.907 E0.05917
G1 X51.583 Y52.669 E0.0972
G1 X52.018 Y52.329 E0.15339
G1 X52.268 Y52.148 E0.1848
G1 X52.736 Y51.829 E0.24245
G1 X52.975 Y51.678 E0.27122
G1 X53.494 Y51.373 E0.33249
G1 X53.814 Y51.202 E0.36941
G1 X54.292 Y50.963 E0.4238
G1 X54.579 Y50.832 E0.45591
G1 X55.089 Y50.617 E0.51224
G1 X55.379 Y50.506 E0.54385
G1 X55.969 Y50.305 E0.60728
G1 X56.226 Y50.227 E0.63462
G1 X56.761 Y50.081 E0.69106
G1 X57.093 Y50.002 E0.72579
G1 X57.635 Y49.893 E0.78206
G1 X57.969 Y49.837 E0.81653
G1 X58.541 Y49.762 E0.87524
G1 X58.867 Y49.73 E0.90858
G1 X59.428 Y49.694 E0.96579
G1 X59.721 Y49.685 E0.99563
G1 X60.304 Y49.685 E1.05496
G1 X60.586 Y49.693 E1.08367
G1 X61.215 Y49.736 E1.14784
G1 X61.52 Y49.767 E1.17904
G1 X62.07 Y49.841 E1.23552
G1 X62.358 Y49.89 E1.26526
G1 X63.253 Y50.083 E1.35844
G1 X63.794 Y50.23 E1.4155
G1 X64.096 Y50.324 E1.44769
G1 X64.623 Y50.505 E1.5044
G1 X64.936 Y50.626 E1.53855
G1 X65.435 Y50.835 E1.59361
G1 X65.768 Y50.989 E1.63095
G1 X66.28 Y51.249 E1.6894
G1 X66.536 Y51.388 E1.71904
G1 X67.034 Y51.682 E1.7779
G1 X67.301 Y51.853 E1.81017
G1 X67.801 Y52.196 E1.87188
G1 X68.052 Y52.384 E1.9038
G1 X68.504 Y52.739 E1.9623
G1 X68.75 Y52.948 E1.99515
G1 X69.141 Y53.299 E2.04862
G1 X69.382 Y53.532 E2.08274
G1 X69.765 Y53.925 E2.13859
G1 X69.989 Y54.173 E2.1726
G1 X70.371 Y54.621 E2.23253
G1 X70.581 Y54.888 E2.2671
G1 X70.887 Y55.3 E2.31933
G1 X71.06 Y55.549 E2.35019
G1 X71.369 Y56.026 E2.40803
G1 X71.558 Y56.345 E2.44577
G1 X71.799 Y56.778 E2.4962
G1 X71.973 Y57.12 E2.53526
G1 X72.208 Y57.62 E2.59149
G1 X72.342 Y57.935 E2.62632
G1 X72.535 Y58.428 E2.68021
G1 X72.638 Y58.717 E2.71143
G1 X72.87 Y59.467 E2.79133
G1 X72.912 Y59.626 E2.80807
G1 X73.102 Y60.445 E2.89364
G1 X73.206 Y61.044 E2.95552
G1 X73.24 Y61.282 E2.97998
G1 X73.309 Y61.922 E3.0455
G1 X73.331 Y62.239 E3.07784
G1 X73.352 Y62.739 E3.12877
G1 X73.355 Y63.081 E3.16358
G1 X73.341 Y63.662 E3.22273
G1 X73.322 Y63.992 E3.25637
G1 X73.269 Y64.572 E3.31565
G1 X73.234 Y64.854 E3.34457
G1 X73.137 Y65.455 E3.40653
G1 X73.09 Y65.697 E3.43162
G1 X72.948 Y66.307 E3.49536
G1 X72.835 Y66.691 E3.5361
G1 X72.74 Y66.954 E3.56456
G1 X72.62 Y67.229 E3.5951
G1 X72.495 Y67.471 E3.62282
G1 X72.343 Y67.726 E3.65303
G1 X72.179 Y67.965 E3.68253
G1 X71.993 Y68.202 E3.71319
G1 X71.805 Y68.413 E3.74196
G1 X71.6 Y68.616 E3.77132
G1 X71.376 Y68.811 E3.80155
G1 X71.152 Y68.982 E3.83023
G1 X70.896 Y69.154 E3.86162
G1 X70.657 Y69.293 E3.88976
G1 X70.402 Y69.42 E3.91875
G1 X70.127 Y69.535 E3.94909
G1 X69.855 Y69.631 E3.97844
G1 X69.546 Y69.718 E4.01111
G1 X69.32 Y69.768 E4.03467
G1 X68.935 Y69.829 E4.07434
G1 X67.998 Y69.933 E4.17029
G1 X66.286 Y70.08 E4.34518
G1 X65.346 Y70.147 E4.44109
G1 X64.482 Y70.199 E4.52918
G1 X63.589 Y70.241 E4.62017
G1 X62.626 Y70.278 E4.71825
G1 X61.793 Y70.301 E4.80306
G1 X60.847 Y70.317 E4.89936
G1 X59.093 Y70.317 E5.07787
G1 X58.175 Y70.301 E5.17132
G1 X57.351 Y70.279 E5.25521
G1 X56.365 Y70.241 E5.35564
G1 X55.5 Y70.2 E5.44377
G1 X54.587 Y70.144 E5.53687
G1 X53.704 Y70.081 E5.62696
G1 X52.811 Y70.008 E5.71815
G1 X51.912 Y69.926 E5.81003
G1 X51.002 Y69.827 E5.90319
G1 X50.652 Y69.767 E5.93933
G1 X50.351 Y69.697 E5.97078
G1 X50.089 Y69.618 E5.99864
G1 X49.795 Y69.508 E6.03058
G1 X49.542 Y69.394 E6.05883
G1 X49.28 Y69.257 E6.08892
G1 X49.046 Y69.115 E6.11677
G1 X48.794 Y68.938 E6.14812
G1 X48.572 Y68.762 E6.17695
G1 X48.358 Y68.568 E6.20635
G1 X48.152 Y68.356 E6.23643
G1 X47.964 Y68.137 E6.26581
G1 X47.786 Y67.9 E6.29597
G1 X47.622 Y67.65 E6.3264
G1 X47.486 Y67.411 E6.35439
G1 X47.362 Y67.156 E6.38325
G1 X47.23 Y66.837 E6.41839
G1 X47.162 Y66.643 E6.43931
G1 X47.071 Y66.326 E6.47287
G1 X46.939 Y65.812 E6.52689
G1 X46.849 Y65.363 E6.57349
G1 X46.759 Y64.782 E6.63333
G1 X46.724 Y64.497 E6.66255
G1 X46.673 Y63.901 E6.72343
G1 X46.658 Y63.61 E6.75309
G1 X46.644 Y63.049 E6.8102
G1 X46.646 Y62.793 E6.83626
G1 X46.671 Y62.173 E6.89941
G1 X46.692 Y61.879 E6.92941
G1 X46.781 Y61.119 E7.00729
G1 X46.805 Y60.965 E7.02315
G1 X46.909 Y60.385 E7.08312
G1 X46.971 Y60.098 E7.11301
G1 X47.1 Y59.574 E7.16793
G1 X47.184 Y59.273 E7.19973
G1 X47.351 Y58.744 E7.25619
G1 X47.46 Y58.439 E7.28916
G1 X47.684 Y57.869 E7.35149
G1 X47.833 Y57.53 E7.38918
G1 X48.061 Y57.049 E7.44335
G1 X48.204 Y56.773 E7.47499
G1 X48.451 Y56.326 E7.52696
G1 X48.659 Y55.982 E7.56788
G1 X48.932 Y55.56 E7.61903
G1 X49.134 Y55.272 E7.65483
G1 X49.47 Y54.821 E7.71207
G1 X49.681 Y54.558 E7.74639
G1 X50.044 Y54.134 E7.8032
G1 X50.226 Y53.934 E7.83072
G1 X50.647 Y53.502 E7.89211
G1 X50.674 Y53.476 E7.89593
G0 F1012.5 X50.862 Y53.295
G0 F7200 X51.2 Y52.992
G1 F1125 X51.2 Y69.848 E9.61146
G0 F7200 X52.8 Y70.006
G1 F1125 X52.8 Y51.788 E11.46562
G0 F7200 X54.4 Y50.913
G1 F1125 X54.4 Y70.13 E13.42145
G0 F7200 X56 Y70.223
G1 F1125 X56 Y50.295 E15.44964
G0 F7200 X57.6 Y49.9
G1 F1125 X57.6 Y70.285 E17.52434
G0 F7200 X59.2 Y70.317
G1 F1125 X59.2 Y49.708 E19.62185
G0 F7200 X60.8 Y49.708
G1 F1125 X60.8 Y70.317 E21.71935
G0 F7200 X62.4 Y70.285
G1 F1125 X62.4 Y49.9 E23.79405
G0 F7200 X64 Y50.295
G1 F1125 X64 Y70.222 E25.82214
G0 F7200 X65.6 Y70.129
G1 F1125 X65.6 Y50.912 E27.77797
G0 F7200 X67.2 Y51.789
G1 F1125 X67.2 Y70.002 E29.63162
G0 F7200 X68.8 Y69.844
G1 F1125 X68.8 Y52.993 E31.34665
G0 F7200 X70.4 Y54.658
G1 F1125 X70.4 Y69.421 E32.84917
G0 F7200 X72 Y68.194
G1 F1125 X72 Y57.178 E33.97033
G0 F7200 X49.6 Y54.658
M104 S230
G1 F1125 X49.6 Y69.42 E35.47275
G0 F7200 X48 Y68.178
G1 F1125 X48 Y57.177 E36.59239
G0 F600 X48 Y57.177 Z0.525
G0 F7200 X46.945 Y66.037
;TIME_ELAPSED:47.802585
;LAYER:-4
M140 S70
;TYPE:SUPPORT
G1 F1125 X50.739 Y69.831 E36.93436
G1 X50.633 Y69.813 E36.94121
G1 X50.342 Y69.745 E36.96026
G1 X50.073 Y69.664 E36.97816
G1 X49.768 Y69.55 E36.99891
G1 X49.534 Y69.444 E37.01529
G1 X49.259 Y69.301 E37.03504
G1 X49.008 Y69.149 E37.05374
G1 X48.769 Y68.981 E37.07236
G1 X48.53 Y68.792 E37.09178
G1 X48.324 Y68.604 E37.10956
G1 X48.12 Y68.394 E37.12822
G1 X47.922 Y68.163 E37.14761
G1 X47.75 Y67.933 E37.16591
G1 X47.586 Y67.685 E37.18486
G1 X47.436 Y67.421 E37.20421
G1 X47.311 Y67.165 E37.22237
G1 X47.187 Y66.866 E37.243
G1 X47.113 Y66.656 E37.25719
G1 X47.023 Y66.344 E37.27789
G0 F7200 X50.739 Y69.831
G1 F1125 X50.988 Y69.874 E37.29399
G1 X51.907 Y69.975 E37.35292
G1 X52.18 Y70 E37.37039
G1 X46.673 Y64.492 E37.86681
G1 X46.623 Y63.903 E37.90448
G1 X46.608 Y63.611 E37.92312
G1 X46.596 Y63.142 E37.95302
G1 X53.573 Y70.119 E38.58189
G1 X53.699 Y70.13 E38.58995
G1 X54.584 Y70.193 E38.6465
G1 X54.941 Y70.214 E38.66929
G1 X46.638 Y61.912 E39.41763
G1 X46.642 Y61.873 E39.42013
G1 X46.756 Y60.954 E39.47915
G1 X46.785 Y60.786 E39.49002
G1 X56.284 Y70.285 E40.3462
G1 X56.362 Y70.289 E40.35118
G1 X57.348 Y70.328 E40.41407
G1 X57.607 Y70.335 E40.43059
G1 X47.008 Y59.736 E41.38592
G1 X47.055 Y59.549 E41.39821
G1 X47.132 Y59.269 E41.41672
G1 X47.295 Y58.75 E41.45139
G1 X58.907 Y70.362 E42.49803
G1 X59.092 Y70.366 E42.50983
G1 X60.183 Y70.366 E42.57936
G1 X47.646 Y57.829 E43.70938
G1 X47.786 Y57.508 E43.7317
G1 X48.02 Y57.018 E43.76631
G1 X48.05 Y56.96 E43.77047
G1 X61.446 Y70.355 E44.97787
G1 X61.794 Y70.35 E45.00005
G1 X62.628 Y70.327 E45.05322
G1 X62.687 Y70.324 E45.05699
G1 X48.503 Y56.14 E46.33546
G1 X48.617 Y55.954 E46.34936
G1 X48.897 Y55.52 E46.38228
G1 X49.004 Y55.368 E46.39413
G1 X63.91 Y70.274 E47.73767
G1 X64.483 Y70.247 E47.77423
G1 X65.118 Y70.21 E47.81477
G1 X49.549 Y54.64 E49.21812
G1 X49.641 Y54.525 E49.22751
G1 X50.01 Y54.097 E49.26352
G1 X50.137 Y53.955 E49.27567
G1 X66.308 Y70.127 E50.73328
G1 X67.481 Y70.026 E50.80831
G1 X50.769 Y53.315 E52.3146
G1 X50.828 Y53.257 E52.31987
G1 X51.261 Y52.869 E52.35693
G1 X51.445 Y52.718 E52.3721
G1 X68.638 Y69.911 E53.92178
G1 X68.945 Y69.877 E53.94147
G1 X69.308 Y69.82 E53.96488
G1 X69.567 Y69.762 E53.9818
G1 X69.719 Y69.719 E53.99187
G1 X52.162 Y52.162 E55.57436
G1 X52.239 Y52.106 E55.58043
G1 X52.707 Y51.787 E55.61653
G1 X52.924 Y51.651 E55.63285
G1 X70.632 Y69.359 E57.22895
G1 X70.675 Y69.338 E57.232
G1 X70.921 Y69.197 E57.25007
G1 X71.185 Y69.019 E57.27037
G1 X71.399 Y68.853 E57.28763
G1 X53.733 Y51.188 E58.8799
G1 X53.791 Y51.157 E58.88409
G1 X54.269 Y50.918 E58.91815
G1 X54.558 Y50.785 E58.93843
G1 X54.591 Y50.773 E58.94067
G1 X72.041 Y68.223 E60.51351
G1 X72.21 Y68.007 E60.53099
G1 X72.385 Y67.752 E60.5507
G1 X72.537 Y67.495 E60.56974
G1 X72.554 Y67.462 E60.5721
G1 X55.503 Y50.412 E62.10894
G1 X56.218 Y50.177 E62.15691
G1 X56.472 Y50.108 E62.17368
G1 X72.925 Y66.561 E63.65667
G1 X72.994 Y66.32 E63.67264
G1 X73.135 Y65.72 E63.71193
G1 X73.172 Y65.535 E63.72395
G1 X57.504 Y49.867 E65.13618
G1 X57.62 Y49.843 E65.14373
G1 X57.962 Y49.788 E65.16581
G1 X58.54 Y49.711 E65.20297
G1 X58.614 Y49.704 E65.20771
G1 X73.332 Y64.423 E66.53435
G1 X73.371 Y63.989 E66.56212
G1 X73.39 Y63.665 E66.58281
G1 X73.401 Y63.218 E66.61131
G1 X59.817 Y49.635 E67.83565
G1 X60.305 Y49.635 E67.86675
G1 X60.597 Y49.643 E67.88537
G1 X61.135 Y49.679 E67.91974
G1 X73.353 Y61.898 E69.02105
G1 X73.289 Y61.277 E69.06083
G1 X73.255 Y61.042 E69.07597
G1 X73.15 Y60.436 E69.11517
G1 X73.146 Y60.418 E69.11634
G1 X62.624 Y49.896 E70.06474
G1 X63.264 Y50.034 E70.10647
G1 X63.808 Y50.182 E70.1424
G1 X64.104 Y50.274 E70.16215
G1 X64.365 Y50.364 E70.17975
G1 X72.676 Y58.675 E70.92886
G1 X72.581 Y58.411 E70.94674
G1 X72.388 Y57.916 E70.9806
G1 X72.252 Y57.6 E71.00253
G1 X72.017 Y57.098 E71.03785
G1 X71.845 Y56.76 E71.06203
G1 X71.61 Y56.337 E71.09287
G1 X66.702 Y51.429 E71.53525
G1 X67.059 Y51.638 E71.56161
G1 X67.327 Y51.811 E71.58194
G1 X67.962 Y52.253 E71.63125
G1 X68.082 Y52.343 E71.64081
G1 X68.531 Y52.696 E71.67722
G1 X68.777 Y52.905 E71.69779
G1 X69.174 Y53.262 E71.73182
G1 X69.417 Y53.497 E71.75336
G1 X69.8 Y53.892 E71.78843
G1 X70.026 Y54.14 E71.80981
G1 X70.409 Y54.59 E71.84748
G1 X70.62 Y54.858 E71.86922
G1 X70.927 Y55.271 E71.90201
G1 X71.101 Y55.522 E71.92148
G1 X71.41 Y56 E71.95776
G1 X71.601 Y56.321 E71.98156
G0 F600 X71.601 Y56.321 Z0.7
G0 F7200 X67.088 Y51.45
;TIME_ELAPSED:77.996948
;LAYER:-3
;TYPE:SUPPORT-INTERFACE
G1 F1500 X52.933 Y51.45 E72.34202
G1 X52.538 Y51.691 E72.3538
G1 X52.384 Y51.8 E72.3586
G1 X67.619 Y51.8 E72.74656
G1 X67.827 Y51.937 E72.7529
G1 X68.109 Y52.15 E72.7619
G1 X51.889 Y52.15 E73.17494
G1 X51.806 Y52.208 E73.17752
G1 X51.443 Y52.5 E73.18938
G1 X68.569 Y52.5 E73.62549
G1 X68.972 Y52.85 E73.63908
G1 X51.025 Y52.85 E74.0961
G1 X50.646 Y53.2 E74.10924
G1 X69.356 Y53.2 E74.58568
G1 X69.71 Y53.55 E74.59836
G1 X50.291 Y53.55 E75.09286
G1 X49.959 Y53.9 E75.10515
G1 X70.041 Y53.9 E75.61653
G1 X70.351 Y54.25 E75.62844
G1 X49.654 Y54.25 E76.15548
G1 X49.366 Y54.6 E76.16702
G1 X70.64 Y54.6 E76.70876
G1 X70.762 Y54.753 E76.71374
G1 X70.908 Y54.95 E76.71999
G1 X49.096 Y54.95 E77.27543
G1 X48.843 Y55.3 E77.28642
G1 X71.158 Y55.3 E77.85467
G1 X71.391 Y55.65 E77.86538
G1 X48.611 Y55.65 E78.44547
G1 X48.391 Y56 E78.45599
G1 X71.612 Y56 E79.04731
G1 X71.814 Y56.35 E79.0576
G1 X48.184 Y56.35 E79.65933
G1 X47.997 Y56.7 E79.66944
G1 X72.011 Y56.7 E80.28095
G1 X72.183 Y57.05 E80.29088
G1 X47.812 Y57.05 E80.91148
G1 X47.654 Y57.4 E80.92126
G1 X72.354 Y57.4 E81.55024
G1 X72.367 Y57.427 E81.55101
G1 X72.501 Y57.75 E81.55991
G1 X47.496 Y57.75 E82.19666
G1 X47.435 Y57.883 E82.20038
G1 X47.354 Y58.1 E82.20628
G1 X72.646 Y58.1 E82.85034
G1 X72.725 Y58.291 E82.8556
G1 X72.779 Y58.45 E82.85988
G1 X47.222 Y58.45 E83.51068
G1 X47.139 Y58.669 E83.51664
G1 X47.1 Y58.8 E83.52013
G1 X72.897 Y58.8 E84.17704
G1 X72.994 Y59.091 E84.18485
G1 X73.01 Y59.15 E84.18641
G1 X46.994 Y59.15 E84.8489
G1 X46.887 Y59.5 E84.85822
G1 X73.104 Y59.5 E85.52583
G1 X73.197 Y59.85 E85.53505
G1 X46.805 Y59.85 E86.20712
G1 X46.723 Y60.2 E86.21627
G1 X73.275 Y60.2 E86.89241
G1 X73.344 Y60.55 E86.9015
G1 X46.649 Y60.55 E87.58128
G1 X46.593 Y60.9 E87.59031
G1 X73.41 Y60.9 E88.2732
G1 X73.455 Y61.25 E88.28218
G1 X46.537 Y61.25 E88.96764
G1 X46.528 Y61.304 E88.96904
G1 X46.502 Y61.6 E88.9766
G1 X73.5 Y61.6 E89.6641
G1 X73.524 Y61.79 E89.66898
G1 X73.533 Y61.95 E89.67306
G1 X46.47 Y61.95 E90.36221
G1 X46.439 Y62.281 E90.37068
G1 X46.439 Y62.3 E90.37116
G1 X73.553 Y62.3 E91.06162
G1 X73.573 Y62.65 E91.07054
G1 X46.432 Y62.65 E91.76168
G1 X46.424 Y63 E91.7706
G1 X73.575 Y63 E92.46199
G1 X73.572 Y63.35 E92.47091
G1 X46.427 Y63.35 E93.16215
G1 X46.441 Y63.7 E93.17107
G1 X73.56 Y63.7 E93.86165
G1 X73.535 Y64.05 E93.87058
G1 X46.458 Y64.05 E94.56009
G1 X46.495 Y64.4 E94.56906
G1 X73.511 Y64.4 E95.25701
G1 X73.507 Y64.458 E95.25849
G1 X73.466 Y64.75 E95.266
G1 X46.533 Y64.75 E95.95184
G1 X46.555 Y64.951 E95.95699
G1 X46.581 Y65.1 E95.96084
G1 X73.417 Y65.1 E96.64422
G1 X73.377 Y65.391 E96.6517
G1 X73.364 Y65.45 E96.65324
G1 X46.644 Y65.45 E97.33366
G1 X46.707 Y65.8 E97.34271
G1 X73.29 Y65.8 E98.01964
G1 X73.216 Y66.15 E98.02875
G1 X46.792 Y66.15 E98.70163
G1 X46.853 Y66.386 E98.70784
G1 X46.888 Y66.5 E98.71088
G1 X73.123 Y66.5 E99.37895
G1 X73.053 Y66.749 E99.38553
G1 X73.012 Y66.85 E99.38831
G1 X46.998 Y66.85 E100.05075
G1 X47.021 Y66.923 E100.0527
G1 X47.144 Y67.2 E100.06042
G1 X72.873 Y67.2 E100.7156
G1 X72.822 Y67.329 E100.71913
G1 X72.699 Y67.55 E100.72557
G1 X47.307 Y67.55 E101.37217
G1 X47.521 Y67.9 E101.38262
G1 X72.494 Y67.9 E102.01855
G1 X72.236 Y68.25 E102.02963
G1 X47.777 Y68.25 E102.65247
G1 X47.991 Y68.515 E102.66114
G1 X48.079 Y68.6 E102.66426
G1 X71.926 Y68.6 E103.27152
G1 X71.762 Y68.773 E103.27759
G1 X71.546 Y68.95 E103.2847
G1 X48.447 Y68.95 E103.87291
G1 X48.917 Y69.3 E103.88783
G1 X71.067 Y69.3 E104.45188
G1 X70.766 Y69.489 E104.46093
G1 X70.416 Y69.65 E104.47074
G1 X49.573 Y69.65 E105.0015
G1 X50.004 Y69.827 E105.01337
G1 X50.589 Y69.984 E105.02879
G1 X50.688 Y70 E105.03134
G1 X69.263 Y70 E105.50435
G1 X69.071 Y70.037 E105.50933
G1 X68.177 Y70.142 E105.53225
G1 X67.288 Y70.225 E105.55499
G1 X66.398 Y70.298 E105.57773
G1 X65.661 Y70.35 E105.59654
G1 X54.319 Y70.35 E105.88537
G0 F7200 X54.673 Y70.375
G1 F1500 X55.542 Y70.427 E105.90753
G1 X56.443 Y70.47 E105.9305
G1 X57.342 Y70.504 E105.95341
G1 X58.243 Y70.528 E105.97637
G1 X59.172 Y70.543 E106.00003
G1 X60.035 Y70.545 E106.022
G1 X60.931 Y70.541 E106.04482
G1 X61.873 Y70.524 E106.06881
G1 X62.75 Y70.499 E106.09115
G1 X63.702 Y70.461 E106.11541
G1 X64.548 Y70.42 E106.13698
G1 X65.462 Y70.364 E106.1603
G1 X65.661 Y70.35 E106.16538
G0 F7200 X67.084 Y51.448
G1 F1500 X66.471 Y51.1 E106.18333
G1 X53.538 Y51.1 E106.51267
G1 X54.107 Y50.803 E106.52901
G1 X54.227 Y50.75 E106.53235
G1 X65.777 Y50.75 E106.82647
G1 X65.517 Y50.624 E106.83383
G1 X64.963 Y50.4 E106.84904
G1 X55.038 Y50.4 E107.10178
G1 X55.797 Y50.125 E107.12234
G1 X56.056 Y50.05 E107.12921
G1 X63.961 Y50.05 E107.33051
G1 X63.799 Y49.997 E107.33485
G1 X62.904 Y49.77 E107.35836
G1 X62.532 Y49.7 E107.368
G1 X57.456 Y49.7 E107.49726
G1 X57.561 Y49.677 E107.49999
G1 X58.433 Y49.547 E107.52244
G1 X59.339 Y49.473 E107.54559
G1 X60.202 Y49.457 E107.56757
G1 X61.103 Y49.5 E107.59054
G1 X62.043 Y49.608 E107.61464
G0 F600 X62.043 Y49.608 Z1.226
G0 F7200 X64.215 Y64.731
;TIME_ELAPSED:135.586511
;LAYER:0
M106 S255
;TYPE:WALL-INNER
;MESH:Puck_Insert_Female.stl
G1 F1800 X63.369 Y64.77 E107.64705
G1 X62.529 Y64.803 E107.67922
G1 X61.691 Y64.827 E107.7113
G1 X60.834 Y64.842 E107.74411
G1 X60.017 Y64.845 E107.77537
G1 X59.183 Y64.843 E107.80729
