;FLAVOR:Marlin
;TIME:1426
;Filament used: 0.810902m
;Layer height: 0.175
;MINX:46.415
;MINY:49.459
;MINZ:0.306
;MAXX:73.582
;MAXY:70.549
;MAXZ:17.02
;Generated with Cura_SteamEngine 4.5.0
M140 S70
M105
M190 S70
M104 S235
M105
M109 S235
M82 ;absolute extrusion mode
G21;(metric values)
G90;(absolute positioning)
M82;(set extruder to absolute mode)
M107;(start with the fan off)
G28;(Home the printer)
G92 E0;(Reset the extruder to 0)
G0 Z5 E5 F500;(Move up and prime the nozzle)
G0 X-1 Z0;(Move outside the printable area)
G1 Y60 E8 F500;(Draw a priming/wiping line to the rear)
G1 X-1;(Move a little closer to the print area)
G1 Y10 E16 F500;(draw more priming/wiping)
G1 E15 F250;(Small retract)
G92 E0;(Zero the extruder)
G92 E0
G92 E0
G1 F2400 E-4.5
;LAYER_COUNT:92
;LAYER:-5
M107
G0 F7200 X50.72 Y53.429 Z0.306
;TYPE:SUPPORT-INTERFACE
G1 F2400 E0
G1 F1125 X51.131 Y53.048 E0.05704
G1 X51.42 Y52.8 E0.0958
G1 X51.876 Y52.433 E0.15537
G1 X52.096 Y52.267 E0.18342
G1 X52.617 Y51.905 E0.24799
G1 X52.885 Y51.732 E0.28045
G1 X53.395 Y51.426 E0.34099
G1 X53.662 Y51.278 E0.37206
G1 X54.247 Y50.982 E0.43878
G1 X54.505 Y50.861 E0.46778
G1 X55.062 Y50.624 E0.52939
G1 X55.418 Y50.491 E0.56807
G1 X55.944 Y50.31 E0.62469
G1 X56.312 Y50.2 E0.66378
G1 X56.886 Y50.049 E0.72418
G1 X57.177 Y49.982 E0.75458
G1 X57.753 Y49.87 E0.8143
G1 X58.085 Y49.818 E0.8485
G1 X58.689 Y49.744 E0.91043
G1 X59.018 Y49.716 E0.94404
G1 X59.627 Y49.685 E1.0061
G1 X59.922 Y49.679 E1.03613
G1 X60.535 Y49.689 E1.09852
G1 X60.912 Y49.71 E1.13695
G1 X61.468 Y49.759 E1.19376
G1 X61.824 Y49.804 E1.23028
G1 X62.41 Y49.898 E1.29068
G1 X62.704 Y49.955 E1.32116
G1 X63.296 Y50.09 E1.38296
G1 X63.661 Y50.191 E1.42151
G1 X64.222 Y50.363 E1.48123
G1 X64.527 Y50.469 E1.51409
G1 X65.092 Y50.686 E1.57569
G1 X65.383 Y50.812 E1.60796
G1 X65.939 Y51.072 E1.67043
G1 X66.206 Y51.208 E1.70093
G1 X66.727 Y51.495 E1.76146
G1 X67.051 Y51.692 E1.80006
G1 X67.519 Y51.995 E1.8568
G1 X67.829 Y52.213 E1.89537
G1 X68.269 Y52.546 E1.95153
G1 X68.543 Y52.77 E1.98755
G1 X68.987 Y53.154 E2.0473
G1 X69.225 Y53.376 E2.08042
G1 X69.652 Y53.802 E2.14181
G1 X69.868 Y54.033 E2.17399
G1 X70.243 Y54.461 E2.23191
G1 X70.473 Y54.745 E2.2691
G1 X70.858 Y55.254 E2.33406
G1 X71.044 Y55.523 E2.36734
G1 X71.328 Y55.956 E2.42005
G1 X71.521 Y56.274 E2.4579
G1 X71.795 Y56.763 E2.51495
G1 X71.976 Y57.12 E2.55569
G1 X72.222 Y57.643 E2.61451
G1 X72.349 Y57.941 E2.64748
G1 X72.563 Y58.49 E2.70745
G1 X72.665 Y58.784 E2.73912
G1 X72.851 Y59.383 E2.80296
G1 X72.933 Y59.683 E2.83461
G1 X73.079 Y60.311 E2.90023
G1 X73.139 Y60.617 E2.93197
G1 X73.238 Y61.233 E2.99547
G1 X73.275 Y61.539 E3.02684
G1 X73.327 Y62.083 E3.08246
G1 X73.347 Y62.471 E3.122
G1 X73.36 Y63.071 E3.18308
G1 X73.356 Y63.384 E3.21494
G1 X73.328 Y64.003 E3.278
G1 X73.3 Y64.321 E3.31049
G1 X73.228 Y64.925 E3.3724
G1 X73.177 Y65.25 E3.40588
G1 X73.068 Y65.824 E3.46534
G1 X72.943 Y66.328 E3.51819
G1 X72.848 Y66.629 E3.55032
G1 X72.719 Y66.981 E3.58847
G1 X72.59 Y67.271 E3.62077
G1 X72.462 Y67.519 E3.64918
G1 X72.322 Y67.75 E3.67667
G1 X72.15 Y67.999 E3.70747
G1 X71.964 Y68.234 E3.73797
G1 X71.771 Y68.447 E3.76723
G1 X71.575 Y68.64 E3.79522
G1 X71.335 Y68.846 E3.82741
G1 X71.128 Y69.003 E3.85385
G1 X70.853 Y69.185 E3.88742
G1 X70.63 Y69.314 E3.91364
G1 X70.366 Y69.444 E3.94359
G1 X70.081 Y69.563 E3.97502
G1 X69.851 Y69.642 E3.99977
G1 X69.516 Y69.731 E4.03505
G1 X69.018 Y69.825 E4.08663
G1 X68.819 Y69.854 E4.1071
G1 X67.983 Y69.939 E4.19262
G1 X67.104 Y70.017 E4.28243
G1 X66.123 Y70.097 E4.3826
G1 X65.623 Y70.131 E4.43361
G1 X65.623 Y70.128 E4.43392
G1 X65.139 Y70.164 E4.48331
G1 X64.252 Y70.215 E4.57374
G1 X63.307 Y70.257 E4.67001
G1 X62.357 Y70.29 E4.76675
G1 X61.415 Y70.312 E4.86265
G1 X60.472 Y70.323 E4.95864
G1 X59.52 Y70.324 E5.05553
G1 X58.575 Y70.313 E5.15171
G1 X57.624 Y70.291 E5.24853
G1 X56.634 Y70.257 E5.34934
G1 X55.728 Y70.215 E5.44165
G1 X54.775 Y70.16 E5.53881
G1 X53.844 Y70.096 E5.63378
G1 X52.91 Y70.021 E5.72915
G1 X51.955 Y69.933 E5.82675
G1 X51.022 Y69.833 E5.92226
G1 X50.639 Y69.769 E5.96178
G1 X50.354 Y69.703 E5.99155
G1 X50.07 Y69.616 E6.02178
G1 X49.808 Y69.519 E6.05021
G1 X49.536 Y69.398 E6.08051
G1 X49.286 Y69.267 E6.10924
G1 X49.038 Y69.117 E6.13874
G1 X48.808 Y68.956 E6.16731
G1 X48.563 Y68.761 E6.19918
G1 X48.358 Y68.575 E6.22735
G1 X48.151 Y68.362 E6.25758
G1 X47.957 Y68.135 E6.28797
G1 X47.793 Y67.918 E6.31566
G1 X47.628 Y67.668 E6.34614
G1 X47.482 Y67.413 E6.37605
G1 X47.361 Y67.165 E6.40413
G1 X47.233 Y66.856 E6.43817
G1 X47.153 Y66.629 E6.46267
G1 X47.072 Y66.35 E6.49224
G1 X46.926 Y65.763 E6.5538
G1 X46.832 Y65.285 E6.60338
G1 X46.75 Y64.748 E6.65867
G1 X46.708 Y64.385 E6.69586
G1 X46.661 Y63.79 E6.7566
G1 X46.649 Y63.48 E6.78818
G1 X46.64 Y62.898 E6.84742
G1 X46.648 Y62.563 E6.88152
G1 X46.683 Y61.952 E6.94381
G1 X46.712 Y61.642 E6.9755
G1 X46.78 Y61.093 E7.0318
G1 X46.847 Y60.69 E7.07338
G1 X46.963 Y60.111 E7.13348
G1 X47.025 Y59.848 E7.16098
G1 X47.197 Y59.218 E7.22744
G1 X47.302 Y58.883 E7.26317
G1 X47.497 Y58.33 E7.32285
G1 X47.619 Y58.017 E7.35704
G1 X47.84 Y57.501 E7.41417
G1 X48.004 Y57.159 E7.45278
G1 X48.285 Y56.617 E7.51491
G1 X48.399 Y56.411 E7.53887
G1 X48.749 Y55.833 E7.60765
G1 X48.92 Y55.572 E7.6394
G1 X49.226 Y55.138 E7.69345
G1 X49.486 Y54.797 E7.73709
G1 X49.834 Y54.371 E7.79308
G1 X50.074 Y54.099 E7.82999
G1 X50.461 Y53.686 E7.8876
G1 X50.535 Y53.613 E7.89818
G0 F1012.5 X50.72 Y53.429
G0 F7200 X51.2 Y52.988
G1 F1125 X51.2 Y69.852 E9.61453
G0 F7200 X52.8 Y70.01
G1 F1125 X52.8 Y51.786 E11.46929
G0 F7200 X54.4 Y50.91
G1 F1125 X54.4 Y70.134 E13.42584
G0 F7200 X56 Y70.227
G1 F1125 X56 Y50.293 E15.45464
G0 F7200 X57.6 Y49.899
G1 F1125 X57.6 Y70.29 E17.52995
G0 F7200 X59.2 Y70.32
G1 F1125 X59.2 Y49.706 E19.62796
G0 F7200 X60.8 Y49.704
G1 F1125 X60.8 Y70.32 E21.72618
G0 F7200 X62.4 Y70.289
G1 F1125 X62.4 Y49.897 E23.8016
G0 F7200 X64 Y50.295
G1 F1125 X64 Y70.227 E25.83019
G0 F7200 X65.6 Y70.13
G1 F1125 X65.6 Y50.914 E27.78592
G0 F7200 X67.2 Y51.789
G1 F1125 X67.2 Y70.009 E29.64028
G0 F7200 X68.8 Y69.856
G1 F1125 X68.8 Y52.993 E31.35653
G0 F7200 X70.4 Y54.655
G1 F1125 X70.4 Y69.428 E32.86007
G0 F7200 X72 Y68.189
G1 F1125 X72 Y57.172 E33.98133
G0 F7200 X49.6 Y54.657
M104 S230
G1 F1125 X49.6 Y69.426 E35.48446
G0 F7200 X48 Y68.185
G1 F1125 X48 Y57.167 E36.60583
G0 F600 X48 Y57.167 Z0.525
G0 F7200 X46.941 Y66.033
;TIME_ELAPSED:47.819766
;LAYER:-4
M140 S70
;TYPE:SUPPORT
G1 F1125 X50.745 Y69.837 E36.9487
G1 X50.631 Y69.818 E36.95607
G1 X50.348 Y69.752 E36.97459
G1 X50.053 Y69.663 E36.99423
G1 X49.793 Y69.567 E37.01189
G1 X49.514 Y69.442 E37.03138
G1 X49.252 Y69.304 E37.05025
G1 X49.01 Y69.157 E37.0683
G1 X48.774 Y68.993 E37.08662
G1 X48.53 Y68.799 E37.10648
G1 X48.324 Y68.611 E37.12426
G1 X48.108 Y68.389 E37.144
G1 X47.92 Y68.169 E37.16244
G1 X47.752 Y67.947 E37.18019
G1 X47.587 Y67.696 E37.19933
G1 X47.434 Y67.428 E37.219
G1 X47.311 Y67.176 E37.23687
G1 X47.193 Y66.891 E37.25653
G1 X47.106 Y66.646 E37.2731
G1 X47.024 Y66.361 E37.292
G0 F7200 X50.745 Y69.837
G1 F1125 X51.005 Y69.881 E37.30881
G1 X51.949 Y69.981 E37.36931
G1 X52.183 Y70.002 E37.38429
G1 X46.669 Y64.488 E37.88129
G1 X46.658 Y64.388 E37.8877
G1 X46.611 Y63.792 E37.9258
G1 X46.599 Y63.481 E37.94564
G1 X46.594 Y63.14 E37.96738
G1 X53.577 Y70.123 E38.59679
G1 X53.839 Y70.144 E38.61354
G1 X54.771 Y70.209 E38.67308
G1 X54.945 Y70.219 E38.68419
G1 X46.637 Y61.91 E39.43307
G1 X46.661 Y61.635 E39.45067
G1 X46.731 Y61.084 E39.48607
G1 X46.78 Y60.78 E39.50569
G1 X56.289 Y70.289 E40.36278
G1 X56.632 Y70.306 E40.38467
G1 X57.611 Y70.339 E40.4471
G1 X47.004 Y59.732 E41.40316
G1 X47.149 Y59.202 E41.43818
G1 X47.255 Y58.865 E41.46069
G1 X47.295 Y58.75 E41.46846
G1 X58.91 Y70.365 E42.51537
G1 X59.52 Y70.372 E42.55425
G1 X60.19 Y70.372 E42.59695
G1 X47.645 Y57.827 E43.72769
G1 X47.792 Y57.484 E43.75147
G1 X47.961 Y57.129 E43.77653
G1 X48.05 Y56.959 E43.78876
G1 X61.45 Y70.359 E44.99656
G1 X62.359 Y70.339 E45.05451
G1 X62.69 Y70.327 E45.07562
G1 X48.503 Y56.14 E46.35436
G1 X48.702 Y55.81 E46.37892
G1 X48.873 Y55.551 E46.3987
G1 X49.002 Y55.366 E46.41308
G1 X63.915 Y70.279 E47.75725
G1 X64.254 Y70.264 E47.77888
G1 X65.122 Y70.213 E47.8343
G1 X49.549 Y54.64 E49.23796
G1 X49.793 Y54.341 E49.26256
G1 X50.037 Y54.063 E49.28613
G1 X50.138 Y53.956 E49.29551
G1 X66.313 Y70.131 E50.75344
G1 X67.107 Y70.066 E50.80421
G1 X67.486 Y70.032 E50.82847
G1 X50.769 Y53.315 E52.33524
G1 X51.099 Y53.009 E52.36393
G1 X51.381 Y52.765 E52.38769
G1 X51.443 Y52.716 E52.39273
G1 X68.648 Y69.92 E53.94345
G1 X68.83 Y69.902 E53.95511
G1 X69.009 Y69.876 E53.96663
G1 X69.539 Y69.776 E54.00101
G1 X69.726 Y69.726 E54.01335
G1 X52.161 Y52.161 E55.59656
G1 X52.584 Y51.866 E55.62943
G1 X52.865 Y51.684 E55.65077
G1 X52.923 Y51.65 E55.65505
G1 X70.637 Y69.365 E57.25174
G1 X70.648 Y69.36 E57.25251
G1 X70.887 Y69.221 E57.27013
G1 X71.147 Y69.048 E57.29004
G1 X71.368 Y68.883 E57.30761
G1 X71.4 Y68.855 E57.31032
G1 X53.732 Y51.186 E58.90287
G1 X54.225 Y50.937 E58.93807
G1 X54.493 Y50.811 E58.95694
G1 X54.589 Y50.77 E58.96359
G1 X72.038 Y68.22 E60.5364
G1 X72.193 Y68.024 E60.55232
G1 X72.362 Y67.779 E60.57129
G1 X72.5 Y67.552 E60.58822
G1 X72.549 Y67.457 E60.59504
G1 X55.501 Y50.41 E62.13161
G1 X55.928 Y50.263 E62.16039
G1 X56.293 Y50.152 E62.1847
G1 X56.47 Y50.107 E62.19634
G1 X72.923 Y66.559 E63.67928
G1 X72.99 Y66.342 E63.69376
G1 X73.115 Y65.835 E63.72704
G1 X73.172 Y65.536 E63.74644
G1 X57.504 Y49.867 E65.15871
G1 X57.737 Y49.822 E65.17383
G1 X58.07 Y49.769 E65.19532
G1 X58.612 Y49.703 E65.23012
G1 X73.336 Y64.427 E66.55726
G1 X73.348 Y64.326 E66.56375
G1 X73.376 Y64.007 E66.58416
G1 X73.405 Y63.387 E66.62372
G1 X73.407 Y63.225 E66.63404
G1 X59.814 Y49.631 E67.85929
G1 X59.921 Y49.628 E67.86611
G1 X60.536 Y49.638 E67.90531
G1 X60.915 Y49.66 E67.92951
G1 X61.135 Y49.679 E67.94358
G1 X73.36 Y61.905 E69.04552
G1 X73.324 Y61.533 E69.06934
G1 X73.287 Y61.231 E69.08873
G1 X73.189 Y60.618 E69.1283
G1 X73.151 Y60.423 E69.14096
G1 X62.615 Y49.887 E70.09062
G1 X62.714 Y49.906 E70.09704
G1 X63.313 Y50.044 E70.13622
G1 X63.674 Y50.143 E70.16008
G1 X64.23 Y50.312 E70.19711
G1 X64.358 Y50.358 E70.20578
G1 X72.682 Y58.681 E70.95602
G1 X72.609 Y58.474 E70.97001
G1 X72.395 Y57.923 E71.00768
G1 X72.266 Y57.623 E71.02849
G1 X72.021 Y57.098 E71.06542
G1 X71.838 Y56.74 E71.09104
G1 X71.615 Y56.341 E71.12018
G1 X66.695 Y51.422 E71.56359
G1 X66.752 Y51.453 E71.56773
G1 X67.073 Y51.647 E71.59163
G1 X67.547 Y51.953 E71.62759
G1 X67.863 Y52.178 E71.65231
G1 X68.299 Y52.505 E71.68705
G1 X68.574 Y52.731 E71.70974
G1 X69.019 Y53.117 E71.74728
G1 X69.26 Y53.34 E71.76821
G1 X69.688 Y53.766 E71.8067
G1 X69.905 Y53.999 E71.82699
G1 X70.272 Y54.418 E71.86249
G1 X70.509 Y54.71 E71.88646
G1 X70.9 Y55.229 E71.92787
G1 X71.084 Y55.495 E71.94849
G1 X71.376 Y55.939 E71.98236
G1 X71.566 Y56.254 E72.0058
G0 F600 X71.566 Y56.254 Z0.7
G0 F7200 X62.363 Y49.661
;TIME_ELAPSED:78.078193
;LAYER:-3
;TYPE:SUPPORT-INTERFACE
G1 F1500 X61.434 Y49.528 E72.0297
G1 X60.441 Y49.459 E72.05505
G1 X59.529 Y49.462 E72.07827
G1 X58.595 Y49.529 E72.10212
G1 X57.672 Y49.656 E72.12584
G1 X57.464 Y49.7 E72.13126
G1 X62.548 Y49.7 E72.26072
G1 X63.28 Y49.855 E72.27977
G1 X63.966 Y50.05 E72.29793
G1 X56.043 Y50.05 E72.49969
G1 X55.842 Y50.107 E72.50501
G1 X55.028 Y50.4 E72.52704
G1 X64.976 Y50.4 E72.78037
G1 X65.053 Y50.428 E72.78245
G1 X65.783 Y50.75 E72.80277
G1 X54.227 Y50.75 E73.09704
G1 X54.032 Y50.837 E73.10248
G1 X53.534 Y51.1 E73.11682
G1 X66.468 Y51.1 E73.44618
G1 X66.767 Y51.258 E73.45479
G1 X67.076 Y51.45 E73.46406
G1 X52.928 Y51.45 E73.82433
G1 X52.447 Y51.748 E73.83874
G1 X52.376 Y51.8 E73.84098
G1 X67.628 Y51.8 E74.22937
G1 X68.111 Y52.15 E74.24456
G1 X51.893 Y52.15 E74.65755
G1 X51.635 Y52.337 E74.66566
G1 X51.44 Y52.5 E74.67214
G1 X68.563 Y52.5 E75.10817
G1 X68.981 Y52.85 E75.12205
G1 X51.019 Y52.85 E75.57945
G1 X50.961 Y52.898 E75.58137
G1 X50.648 Y53.2 E75.59244
G1 X69.356 Y53.2 E76.06884
G1 X69.721 Y53.55 E76.08172
G1 X50.284 Y53.55 E76.57668
G1 X50.245 Y53.587 E76.57804
G1 X49.961 Y53.9 E76.58881
G1 X70.04 Y53.9 E77.10011
G1 X70.357 Y54.25 E77.11214
G1 X49.643 Y54.25 E77.63962
G1 X49.637 Y54.256 E77.63983
G1 X49.366 Y54.6 E77.65098
G1 X70.639 Y54.6 E78.1927
G1 X70.912 Y54.95 E78.204
G1 X49.089 Y54.95 E78.75972
G1 X49.044 Y55.006 E78.76155
G1 X48.844 Y55.3 E78.7706
G1 X71.157 Y55.3 E79.3388
G1 X71.394 Y55.65 E79.34956
G1 X48.606 Y55.65 E79.92985
G1 X48.497 Y55.81 E79.93478
G1 X48.388 Y56 E79.94036
G1 X71.615 Y56 E80.53183
G1 X71.817 Y56.35 E80.54212
G1 X48.186 Y56.35 E81.14388
G1 X48.018 Y56.64 E81.15242
G1 X47.989 Y56.7 E81.15411
G1 X72.015 Y56.7 E81.76593
G1 X72.186 Y57.05 E81.77585
G1 X47.815 Y57.05 E82.39645
G1 X47.641 Y57.4 E82.40641
G1 X72.358 Y57.4 E83.03582
G1 X72.387 Y57.461 E83.03754
G1 X72.506 Y57.75 E83.0455
G1 X47.494 Y57.75 E83.68242
G1 X47.352 Y58.1 E83.69204
G1 X72.649 Y58.1 E84.33622
G1 X72.756 Y58.364 E84.34348
G1 X72.785 Y58.45 E84.34579
G1 X47.217 Y58.45 E84.99687
G1 X47.103 Y58.8 E85.00625
G1 X72.9 Y58.8 E85.66316
G1 X73.015 Y59.15 E85.67254
G1 X46.988 Y59.15 E86.33531
G1 X46.946 Y59.277 E86.33872
G1 X46.889 Y59.5 E86.34458
G1 X73.11 Y59.5 E87.01229
G1 X73.199 Y59.85 E87.02149
G1 X46.8 Y59.85 E87.69374
G1 X46.722 Y60.158 E87.70183
G1 X46.715 Y60.2 E87.70291
G1 X73.284 Y60.2 E88.37949
G1 X73.348 Y60.55 E88.38855
G1 X46.651 Y60.55 E89.06838
G1 X46.586 Y60.9 E89.07744
G1 X73.411 Y60.9 E89.76054
G1 X73.446 Y61.095 E89.76558
G1 X73.463 Y61.25 E89.76955
G1 X46.537 Y61.25 E90.45522
G1 X46.499 Y61.6 E90.46418
G1 X73.501 Y61.6 E91.15178
G1 X73.539 Y61.95 E91.16075
G1 X46.462 Y61.95 E91.85026
G1 X46.449 Y62.066 E91.85323
G1 X46.441 Y62.3 E91.85919
G1 X73.56 Y62.3 E92.54977
G1 X73.573 Y62.65 E92.55869
G1 X46.428 Y62.65 E93.24993
G1 X46.415 Y63 E93.25885
G1 X73.582 Y63 E93.95065
G1 X73.573 Y63.35 E93.95957
G1 X46.424 Y63.35 E94.65091
G1 X46.435 Y63.7 E94.65983
G1 X73.564 Y63.7 E95.35066
G1 X73.56 Y63.87 E95.35499
G1 X73.542 Y64.05 E95.3596
G1 X46.456 Y64.05 E96.04934
G1 X46.491 Y64.4 E96.0583
G1 X73.508 Y64.4 E96.74628
G1 X73.474 Y64.75 E96.75523
G1 X46.526 Y64.75 E97.44146
G1 X46.539 Y64.87 E97.44453
G1 X46.579 Y65.1 E97.45048
G1 X73.421 Y65.1 E98.134
G1 X73.362 Y65.45 E98.14304
G1 X46.641 Y65.45 E98.82349
G1 X46.702 Y65.8 E98.83253
G1 X73.301 Y65.8 E99.50987
G1 X73.218 Y66.15 E99.51903
G1 X46.789 Y66.15 E100.19204
G1 X46.854 Y66.409 E100.19884
G1 X46.883 Y66.5 E100.20127
G1 X73.115 Y66.5 E100.86927
G1 X72.999 Y66.85 E100.87866
G1 X46.994 Y66.85 E101.54087
G1 X47.024 Y66.942 E101.54333
G1 X47.139 Y67.2 E101.55052
G1 X72.863 Y67.2 E102.20558
G1 X72.695 Y67.55 E102.21547
G1 X47.301 Y67.55 E102.86212
G1 X47.516 Y67.9 E102.87258
G1 X72.481 Y67.9 E103.50831
G1 X72.329 Y68.135 E103.51543
G1 X72.232 Y68.25 E103.51927
G1 X47.771 Y68.25 E104.14216
G1 X47.99 Y68.521 E104.15103
G1 X48.072 Y68.6 E104.15393
G1 X71.935 Y68.6 E104.7616
G1 X71.555 Y68.95 E104.77475
G1 X48.438 Y68.95 E105.36342
G1 X48.906 Y69.3 E105.37831
G1 X71.08 Y69.3 E105.94296
G1 X70.986 Y69.367 E105.9459
G1 X70.457 Y69.649 E105.96117
G0 F7200 X70.454 Y69.65
G1 F1500 X49.558 Y69.65 E106.49328
G1 X50.007 Y69.833 E106.50563
G1 X50.588 Y69.989 E106.52095
G1 X50.656 Y70 E106.5227
G1 X69.266 Y70 E106.9966
G1 X69.043 Y70.049 E107.00241
G1 X68.094 Y70.155 E107.02673
G1 X67.145 Y70.24 E107.05099
G1 X66.229 Y70.315 E107.0744
G1 X65.718 Y70.35 E107.08744
G1 X54.257 Y70.35 E107.37929
G0 F7200 X54.805 Y70.387
G1 F1500 X55.776 Y70.443 E107.40406
G1 X56.735 Y70.486 E107.4285
G1 X57.702 Y70.519 E107.45314
G1 X58.624 Y70.539 E107.47663
G1 X59.577 Y70.549 E107.5009
G1 X60.525 Y70.548 E107.52504
G1 X61.472 Y70.536 E107.54915
G1 X62.424 Y70.513 E107.5734
G1 X63.368 Y70.48 E107.59746
G1 X64.315 Y70.436 E107.6216
G1 X65.397 Y70.372 E107.6492
G1 X65.718 Y70.35 E107.65739
G0 F600 X65.718 Y70.35 Z1.226
G0 F7200 X63.999 Y64.746
;TIME_ELAPSED:135.341455
;LAYER:0
M106 S255
;TYPE:WALL-INNER
;MESH:Puck_Insert_Female.stl
G1 F1800 X63.108 Y64.785 E107.69152
G1 X62.224 Y64.816 E107.72537
G1 X61.339 Y64.837 E107.75925
G1 X60.456 Y64.848 E107.79305
G1 X59.582 Y64.849 E107.8265
G1 X58.697 Y64.839 E107.86037
