;FLAVOR:Marlin
;TIME:1424
;Filament used: 0.778826m
;Layer height: 0.175
;MINX:48.782
;MINY:51.083
;MINZ:0.306
;MAXX:71.217
;MAXY:69.564
;MAXZ:19.295
;Generated with Cura_SteamEngine 4.6.1
M140 S70
M105
M190 S70
M104 S235
M105
M109 S235
M82 ;absolute extrusion mode
G21;(metric values)
G90;(absolute positioning)
M82;(set extruder to absolute mode)
M107;(start with the fan off)
G28;(Home the printer)
G92 E0;(Reset the extruder to 0)
G0 Z5 E5 F500;(Move up and prime the nozzle)
G0 X-1 Z0;(Move outside the printable area)
G1 Y60 E8 F500;(Draw a priming/wiping line to the rear)
G1 X-1;(Move a little closer to the print area)
G1 Y10 E16 F500;(draw more priming/wiping)
G1 E15 F250;(Small retract)
G92 E0;(Zero the extruder)
G92 E0
G92 E0
G1 F2400 E-4.5
;LAYER_COUNT:105
;LAYER:-5
M107
G0 F7200 X50.418 Y53.001 Z0.306
;TYPE:SUPPORT-INTERFACE
G1 F2400 E0
G1 F1125 X50.503 Y52.922 E0.01181
G1 X50.798 Y52.663 E0.05176
G1 X51.013 Y52.496 E0.07947
G1 X51.244 Y52.34 E0.10784
G1 X51.512 Y52.182 E0.1395
G1 X51.769 Y52.052 E0.16882
G1 X52.039 Y51.936 E0.19872
G1 X52.295 Y51.844 E0.22641
G1 X52.587 Y51.76 E0.25733
G1 X52.848 Y51.704 E0.2845
G1 X53.168 Y51.656 E0.31744
G1 X53.636 Y51.62 E0.36521
G1 X53.828 Y51.613 E0.38476
G1 X57.306 Y51.613 E0.73874
G1 X57.971 Y51.571 E0.80655
G1 X58.445 Y51.489 E0.85551
G1 X58.864 Y51.397 E0.89917
G1 X59.181 Y51.35 E0.93179
G1 X59.776 Y51.309 E0.99249
G1 X59.827 Y51.311 E0.99768
G1 X60.203 Y51.335 E1.03603
G1 X60.501 Y51.372 E1.06659
G1 X60.785 Y51.427 E1.09603
G1 X61.076 Y51.503 E1.12664
G1 X61.334 Y51.587 E1.15426
G1 X61.613 Y51.698 E1.18482
G1 X61.873 Y51.821 E1.21409
G1 X61.996 Y51.889 E1.2284
G1 X62.602 Y52.176 E1.29664
G1 X63.251 Y52.388 E1.36613
G1 X63.92 Y52.517 E1.43547
G1 X64.588 Y52.559 E1.50359
G1 X66.339 Y52.563 E1.6818
G1 X66.716 Y52.587 E1.72025
G1 X67.014 Y52.624 E1.75081
G1 X67.298 Y52.679 E1.78025
G1 X67.589 Y52.755 E1.81086
G1 X67.847 Y52.839 E1.83848
G1 X68.124 Y52.949 E1.86881
G1 X68.384 Y53.072 E1.89808
G1 X68.643 Y53.216 E1.92824
G1 X68.862 Y53.355 E1.95464
G1 X69.128 Y53.553 E1.98839
G1 X69.482 Y53.857 E2.03588
G1 X69.604 Y53.969 E2.05274
G1 X69.683 Y54.054 E2.06455
G1 X69.942 Y54.349 E2.1045
G1 X70.109 Y54.564 E2.13221
G1 X70.265 Y54.795 E2.16058
G1 X70.423 Y55.063 E2.19224
G1 X70.554 Y55.321 E2.22169
G1 X70.658 Y55.561 E2.24831
G1 X70.765 Y55.859 E2.28054
G1 X70.845 Y56.138 E2.31008
G1 X70.9 Y56.392 E2.33653
G1 X70.949 Y56.719 E2.37018
G1 X70.985 Y57.18 E2.41724
G1 X70.992 Y57.365 E2.43608
G1 X70.988 Y60.861 E2.79189
G1 X70.98 Y60.989 E2.80494
G1 X70.981 Y61.215 E2.82795
G1 X70.965 Y61.215 E2.82957
G1 X70.992 Y61.892 E2.89853
G1 X70.988 Y64.682 E3.18249
G1 X70.964 Y65.059 E3.22093
G1 X70.927 Y65.357 E3.2515
G1 X70.872 Y65.641 E3.28094
G1 X70.796 Y65.932 E3.31155
G1 X70.712 Y66.19 E3.33916
G1 X70.601 Y66.469 E3.36972
G1 X70.479 Y66.727 E3.39877
G1 X70.34 Y66.977 E3.42788
G1 X70.184 Y67.221 E3.45736
G1 X70 Y67.469 E3.48878
G1 X69.714 Y67.804 E3.53362
G1 X69.6 Y67.929 E3.55083
G1 X69.527 Y67.998 E3.56106
G1 X69.226 Y68.266 E3.60207
G1 X69.014 Y68.432 E3.62948
G1 X68.759 Y68.608 E3.66101
G1 X68.507 Y68.757 E3.69081
G1 X68.246 Y68.89 E3.72062
G1 X68.014 Y68.992 E3.74641
G1 X67.706 Y69.104 E3.77977
G1 X67.442 Y69.18 E3.80773
G1 X67.175 Y69.24 E3.83558
G1 X66.855 Y69.289 E3.86853
G1 X66.381 Y69.327 E3.91693
G1 X66.182 Y69.335 E3.9372
G1 X64.912 Y69.338 E4.06645
G1 X64.236 Y69.334 E4.13525
G1 X62.849 Y69.339 E4.27642
G1 X59.869 Y69.334 E4.57971
G1 X59.693 Y69.328 E4.59763
G1 X59.356 Y69.306 E4.63201
G1 X59.041 Y69.266 E4.66432
G1 X58.768 Y69.213 E4.69263
G1 X58.471 Y69.135 E4.72388
G1 X58.198 Y69.046 E4.7531
G1 X57.942 Y68.943 E4.78119
G1 X57.679 Y68.818 E4.81082
G1 X57.418 Y68.673 E4.84121
G1 X57.176 Y68.517 E4.87052
G1 X56.939 Y68.341 E4.90056
G1 X56.586 Y68.038 E4.94791
G1 X56.488 Y67.947 E4.96152
G1 X56.402 Y67.857 E4.97419
G1 X56.164 Y67.589 E5.01067
G1 X55.688 Y67.117 E5.07889
G1 X55.147 Y66.701 E5.14835
G1 X54.557 Y66.357 E5.21786
G1 X53.926 Y66.089 E5.28763
G1 X53.167 Y65.884 E5.36765
G1 X52.732 Y65.801 E5.41272
G1 X52.421 Y65.719 E5.44545
G1 X52.162 Y65.635 E5.47316
G1 X51.899 Y65.529 E5.50202
G1 X51.636 Y65.404 E5.53166
G1 X51.38 Y65.263 E5.5614
G1 X51.142 Y65.111 E5.59015
G1 X50.888 Y64.922 E5.62237
G1 X50.535 Y64.619 E5.66972
G1 X50.412 Y64.506 E5.68671
G1 X50.309 Y64.395 E5.70213
G1 X50.058 Y64.109 E5.74085
G1 X49.891 Y63.894 E5.76856
G1 X49.734 Y63.661 E5.79716
G1 X49.577 Y63.395 E5.82859
G1 X49.447 Y63.138 E5.8579
G1 X49.331 Y62.868 E5.88781
G1 X49.239 Y62.612 E5.9155
G1 X49.155 Y62.32 E5.94642
G1 X49.099 Y62.059 E5.97359
G1 X49.051 Y61.739 E6.00652
G1 X49.014 Y61.261 E6.05532
G1 X49.008 Y61.093 E6.07243
G1 X49.012 Y56.266 E6.5637
G1 X49.036 Y55.889 E6.60215
G1 X49.074 Y55.585 E6.63333
G1 X49.128 Y55.307 E6.66215
G1 X49.204 Y55.016 E6.69276
G1 X49.288 Y54.758 E6.72038
G1 X49.399 Y54.479 E6.75094
G1 X49.521 Y54.221 E6.77998
G1 X49.667 Y53.957 E6.81069
G1 X49.804 Y53.744 E6.83646
G1 X50.002 Y53.477 E6.87029
G1 X50.244 Y53.195 E6.90811
G0 F1012.5 X50.306 Y53.123
G0 X50.418 Y53.001
G0 F7200 X51.2 Y52.369
G1 F1125 X51.2 Y65.148 E8.20871
G0 F7200 X52.8 Y65.813
G1 F1125 X52.8 Y51.714 E9.64365
G0 F7200 X54.4 Y51.613
G1 F1125 X54.4 Y66.29 E11.13741
G0 F7200 X56 Y67.426
G1 F1125 X56 Y51.613 E12.7468
G0 F7200 X57.6 Y51.594
G1 F1125 X57.6 Y68.774 E14.49531
G0 F7200 X59.2 Y69.286
G1 F1125 X59.2 Y51.348 E16.32097
G0 F7200 X60.8 Y51.431
G1 F1125 X60.8 Y69.335 E18.14317
G0 F7200 X62.4 Y69.338
G1 F1125 X62.4 Y52.081 E19.89952
G0 F7200 X64 Y52.523
G1 F1125 X64 Y69.335 E21.61057
G0 F7200 X65.6 Y69.337
G1 F1125 X65.6 Y52.562 E23.31787
G0 F7200 X67.2 Y52.661
G1 F1125 X67.2 Y69.235 E25.0047
G0 F7200 X68.8 Y68.58
G1 F1125 X68.8 Y53.316 E26.55821
G0 F7200 X70.4 Y55.024
M104 S230
G1 F1125 X70.4 Y66.87 E27.76385
G0 F7200 X49.6 Y63.433
G1 F1125 X49.6 Y54.078 E28.71596
G0 F600 X49.6 Y54.078 Z0.525
G0 F7200 X49.703 Y63.703
;TIME_ELAPSED:43.525509
;LAYER:-4
M140 S70
;TYPE:SUPPORT
G1 F1125 X51.214 Y65.215 E28.8522
G1 X51.113 Y65.15 E28.85986
G1 X50.86 Y64.962 E28.87995
G1 X50.502 Y64.656 E28.90996
G1 X50.36 Y64.525 E28.92228
G1 X50.278 Y64.436 E28.92999
G1 X50.024 Y64.147 E28.95451
G1 X49.854 Y63.927 E28.97223
G0 F7200 X51.214 Y65.215
G1 F1125 X51.363 Y65.31 E28.98349
G1 X51.6 Y65.441 E29.00075
G1 X51.875 Y65.572 E29.02017
G1 X52.149 Y65.681 E29.03896
G1 X52.427 Y65.772 E29.05761
G1 X52.708 Y65.846 E29.07613
G1 X53.156 Y65.932 E29.1052
G1 X53.221 Y65.949 E29.10948
G1 X48.998 Y61.726 E29.49012
G1 X48.963 Y61.264 E29.51965
G1 X48.957 Y61.091 E29.53068
G1 X48.957 Y60.413 E29.5739
G1 X56.965 Y68.421 E30.29569
G1 X57.166 Y68.57 E30.31164
G1 X57.376 Y68.705 E30.32755
G1 X57.655 Y68.86 E30.34789
G1 X57.923 Y68.988 E30.36682
G1 X58.194 Y69.096 E30.38541
G1 X58.445 Y69.179 E30.40226
G1 X58.76 Y69.261 E30.42301
G1 X59.04 Y69.316 E30.4412
G1 X59.147 Y69.329 E30.44807
G1 X48.959 Y59.141 E31.36636
G1 X48.96 Y57.87 E31.44736
G1 X60.474 Y69.384 E32.48517
G1 X61.749 Y69.386 E32.56643
G1 X48.961 Y56.598 E33.71907
G1 X48.962 Y56.263 E33.74043
G1 X48.986 Y55.88 E33.76488
G1 X49.021 Y55.592 E33.78337
G1 X49.054 Y55.418 E33.79466
G1 X63.023 Y69.387 E35.05375
G1 X64.235 Y69.383 E35.131
G1 X64.292 Y69.383 E35.13463
G1 X49.357 Y54.448 E36.48079
G1 X49.484 Y54.182 E36.49958
G1 X49.612 Y53.95 E36.51646
G1 X49.763 Y53.713 E36.53438
G1 X49.819 Y53.637 E36.54039
G1 X65.566 Y69.384 E37.95974
G1 X66.183 Y69.384 E37.99906
G1 X66.386 Y69.376 E38.01201
G1 X66.797 Y69.343 E38.03829
G1 X50.402 Y52.948 E39.51605
G1 X50.478 Y52.876 E39.52272
G1 X50.762 Y52.626 E39.54683
G1 X50.978 Y52.458 E39.56428
G1 X51.102 Y52.375 E39.57379
G1 X67.836 Y69.109 E41.0821
G1 X68.015 Y69.044 E41.09423
G1 X68.273 Y68.93 E41.11221
G1 X68.53 Y68.799 E41.1306
G1 X68.699 Y68.699 E41.14311
G1 X51.929 Y51.929 E42.65467
G1 X52.019 Y51.89 E42.66092
G1 X52.293 Y51.791 E42.67949
G1 X52.562 Y51.713 E42.69734
G1 X52.842 Y51.652 E42.7156
G1 X52.914 Y51.642 E42.72024
G1 X69.425 Y68.153 E44.20845
G1 X69.551 Y68.042 E44.21915
G1 X69.635 Y67.963 E44.2265
G1 X69.75 Y67.836 E44.23742
G1 X70.029 Y67.511 E44.26472
G1 X70.041 Y67.496 E44.26594
G1 X54.108 Y51.562 E45.7021
G1 X55.381 Y51.562 E45.78323
G1 X70.536 Y66.718 E47.14927
G1 X70.651 Y66.475 E47.1664
G1 X70.75 Y66.229 E47.1833
G1 X70.842 Y65.944 E47.20239
G1 X70.883 Y65.792 E47.21242
G1 X56.654 Y51.562 E48.49499
G1 X57.303 Y51.562 E48.53636
G1 X57.89 Y51.526 E48.57384
G1 X71.037 Y64.673 E49.75884
G1 X71.038 Y63.402 E49.83985
G1 X58.967 Y51.331 E50.92786
G1 X59.169 Y51.299 E50.94089
G1 X59.773 Y51.258 E50.97948
G1 X59.826 Y51.26 E50.98286
G1 X60.193 Y51.284 E51.0063
G1 X71.04 Y62.131 E51.98399
G1 X71.04 Y61.876 E52.00024
G1 X71.016 Y61.265 E52.03921
G1 X71.031 Y61.265 E52.04017
G1 X71.029 Y60.99 E52.0577
G1 X71.037 Y60.863 E52.06581
G1 X71.038 Y60.855 E52.06632
G1 X62.035 Y51.852 E52.8778
G1 X62.619 Y52.13 E52.91903
G1 X63.262 Y52.34 E52.96214
G1 X63.921 Y52.465 E53.00489
G1 X71.039 Y59.584 E53.64651
G1 X71.04 Y58.312 E53.72758
G1 X65.239 Y52.511 E54.25045
G1 X66.34 Y52.513 E54.32062
G1 X66.526 Y52.525 E54.3325
G1 X71.022 Y57.021 E54.73775
G1 X70.998 Y56.709 E54.75769
G1 X70.95 Y56.389 E54.77831
G1 X70.889 Y56.109 E54.79658
G1 X70.815 Y55.854 E54.8135
G1 X70.704 Y55.543 E54.83455
G1 X70.618 Y55.345 E54.84831
G1 X68.206 Y52.933 E55.06571
G1 X68.413 Y53.032 E55.08033
G1 X68.664 Y53.171 E55.09862
G1 X68.889 Y53.313 E55.11558
G1 X69.162 Y53.515 E55.13722
G1 X69.63 Y53.926 E55.17692
G1 X69.72 Y54.02 E55.18522
G1 X69.973 Y54.31 E55.20974
G1 X70.145 Y54.529 E55.22749
G1 X70.318 Y54.788 E55.24734
G1 X70.466 Y55.038 E55.26586
G1 X70.596 Y55.295 E55.28422
G0 F600 X70.596 Y55.295 Z0.7
G0 F7200 X59.775 Y51.083
;TIME_ELAPSED:66.328784
;LAYER:-3
;TYPE:SUPPORT-INTERFACE
G1 F1500 X59.527 Y51.1 E55.29055
G1 X59.97 Y51.1 E55.30183
G1 X60.541 Y51.15 E55.31642
G1 X61.137 Y51.285 E55.33198
G1 X61.592 Y51.45 E55.34431
G1 X53.02 Y51.45 E55.56259
G1 X52.811 Y51.481 E55.56797
G1 X52.244 Y51.624 E55.58286
G1 X51.796 Y51.8 E55.59512
G1 X62.342 Y51.8 E55.86367
G1 X62.685 Y51.966 E55.87338
G1 X63.249 Y52.15 E55.88848
G1 X51.125 Y52.15 E56.19722
G1 X50.649 Y52.494 E56.21217
G1 X50.643 Y52.5 E56.21239
G1 X67.493 Y52.5 E56.64147
G1 X67.93 Y52.628 E56.65307
G1 X68.437 Y52.85 E56.66716
G1 X50.253 Y52.85 E57.13021
G1 X49.946 Y53.2 E57.14207
G1 X69.033 Y53.2 E57.62811
G1 X69.269 Y53.376 E57.63561
G1 X69.468 Y53.55 E57.64234
G1 X49.667 Y53.55 E58.14657
G1 X49.625 Y53.605 E58.14833
G1 X49.45 Y53.9 E58.15707
G1 X69.845 Y53.9 E58.67642
G1 X70.111 Y54.199 E58.68661
G1 X70.148 Y54.25 E58.68822
G1 X49.264 Y54.25 E59.22002
G1 X49.111 Y54.6 E59.22975
G1 X70.402 Y54.6 E59.77192
G1 X70.459 Y54.68 E59.77442
G1 X70.608 Y54.95 E59.78228
G1 X48.998 Y54.95 E60.33257
G1 X48.909 Y55.253 E60.34061
G1 X48.902 Y55.3 E60.34182
G1 X70.787 Y55.3 E60.89912
G1 X70.925 Y55.65 E60.9087
G1 X48.847 Y55.65 E61.47091
G1 X48.812 Y55.871 E61.47661
G1 X48.805 Y56 E61.4799
G1 X71.034 Y56 E62.04596
G1 X71.122 Y56.35 E62.05515
G1 X48.785 Y56.35 E62.62395
G1 X48.783 Y56.385 E62.62485
G1 X48.783 Y56.7 E62.63287
G1 X71.175 Y56.7 E63.20308
G1 X71.197 Y57.05 E63.21201
G1 X48.783 Y57.05 E63.78277
G1 X48.783 Y57.4 E63.79169
G1 X71.217 Y57.4 E64.36296
G1 X71.217 Y57.75 E64.37188
G1 X48.783 Y57.75 E64.94315
G1 X48.783 Y58.1 E64.95207
G1 X71.217 Y58.1 E65.52334
G1 X71.217 Y58.45 E65.53226
G1 X48.783 Y58.45 E66.10353
G1 X48.783 Y58.8 E66.11245
G1 X71.217 Y58.8 E66.68372
G1 X71.217 Y59.15 E66.69264
G1 X48.783 Y59.15 E67.26391
G1 X48.782 Y59.5 E67.27282
G1 X71.217 Y59.5 E67.84413
G1 X71.217 Y59.85 E67.85304
G1 X48.782 Y59.85 E68.42434
G1 X48.782 Y60.2 E68.43326
G1 X71.217 Y60.2 E69.00456
G1 X71.217 Y60.55 E69.01347
G1 X48.782 Y60.55 E69.58477
G1 X48.782 Y60.9 E69.59369
G1 X71.214 Y60.9 E70.16491
G1 X71.21 Y61.25 E70.17383
G1 X48.792 Y61.25 E70.7447
G1 X48.814 Y61.6 E70.75363
G1 X71.209 Y61.6 E71.32391
G1 X71.21 Y61.95 E71.33282
G1 X48.853 Y61.95 E71.90214
G1 X48.874 Y62.091 E71.90577
G1 X48.926 Y62.3 E71.91125
G1 X71.211 Y62.3 E72.47874
G1 X71.212 Y62.65 E72.48765
G1 X49.014 Y62.65 E73.05292
G1 X49.018 Y62.663 E73.05326
G1 X49.15 Y63 E73.06248
G1 X71.213 Y63 E73.62431
G1 X71.214 Y63.35 E73.63322
G1 X49.305 Y63.35 E74.19113
G1 X49.497 Y63.7 E74.20129
G1 X71.215 Y63.7 E74.75434
G1 X71.216 Y64.05 E74.76325
G1 X49.737 Y64.05 E75.31021
G1 X49.888 Y64.258 E75.31676
G1 X50.014 Y64.4 E75.32159
G1 X71.217 Y64.4 E75.86152
G1 X71.217 Y64.562 E75.86564
G1 X71.206 Y64.75 E75.87044
G1 X50.35 Y64.75 E76.40153
G1 X50.749 Y65.1 E76.41505
G1 X71.184 Y65.1 E76.93542
G1 X71.129 Y65.45 E76.94444
G1 X51.271 Y65.45 E77.45012
G1 X51.53 Y65.603 E77.45778
G1 X51.979 Y65.8 E77.47027
G1 X71.06 Y65.8 E77.95616
G1 X70.957 Y66.15 E77.96545
G1 X53.288 Y66.15 E78.41539
G1 X53.851 Y66.302 E78.43024
G1 X54.318 Y66.5 E78.44316
G1 X70.822 Y66.5 E78.86343
G1 X70.676 Y66.836 E78.87276
G1 X70.667 Y66.85 E78.87318
G1 X54.954 Y66.85 E79.27331
G1 X55.02 Y66.888 E79.27525
G1 X55.425 Y67.2 E79.28827
G1 X70.459 Y67.2 E79.67111
G1 X70.378 Y67.336 E79.67514
G1 X70.219 Y67.55 E79.68193
G1 X55.803 Y67.55 E80.04903
G1 X55.999 Y67.744 E80.05605
G1 X56.14 Y67.9 E80.0614
G1 X69.923 Y67.9 E80.41239
G1 X69.763 Y68.085 E80.41861
G1 X69.579 Y68.25 E80.42491
G1 X56.492 Y68.25 E80.75817
G1 X56.793 Y68.513 E80.76834
G1 X56.91 Y68.6 E80.77206
G1 X69.15 Y68.6 E81.08375
G1 X68.884 Y68.796 E81.09216
G1 X68.603 Y68.95 E81.10032
G1 X57.462 Y68.95 E81.38402
G1 X57.578 Y69.019 E81.38746
G1 X58.119 Y69.257 E81.40251
G1 X58.265 Y69.3 E81.40639
G1 X67.823 Y69.3 E81.64978
G1 X67.788 Y69.314 E81.65074
G1 X67.217 Y69.461 E81.66575
G1 X66.865 Y69.515 E81.67482
G1 X66.19 Y69.56 E81.69205
G1 X64.948 Y69.563 E81.72368
G1 X64.287 Y69.559 E81.74051
G1 X62.874 Y69.564 E81.77649
G1 X59.86 Y69.559 E81.85324
G1 X59.327 Y69.529 E81.86684
G1 X58.72 Y69.433 E81.88248
G0 F600 X58.72 Y69.433 Z0.898
G0 F7200 X53.783 Y56.389
;TIME_ELAPSED:109.120427
;LAYER:-2
M106 S255
;TYPE:SUPPORT
G1 F865.5 X59.49 Y56.388 E82.04691
G1 X59.601 Y56.277 E82.05144
G1 X59.601 Y56.984 E82.0718
G1 X59.951 Y57.334 E82.08607
G1 X66.216 Y57.334 E82.26657
G1 X66.217 Y60.539 E82.35891
G1 X59.705 Y60.548 E82.54653
G1 X59.501 Y60.754 E82.55489
G1 X59.501 Y60.814 E82.55661
G1 X59.413 Y60.814 E82.55915
G1 X59.087 Y61.143 E82.57249
G1 X53.802 Y61.142 E82.72476
G1 X53.783 Y61.123 E82.72554
G1 X53.783 Y57.311 E82.83537
G0 F778.9 X53.783 Y56.389
G0 F7200 X53.958 Y58.325
G1 F865.5 X66.042 Y58.325 E83.18353
G0 F7200 X65.324 Y57.509
G1 F865.5 X65.324 Y60.366 E83.26584
G0 F7200 X62.991 Y60.369
G1 F865.5 X62.991 Y57.509 E83.34824
G0 F7200 X60.658 Y57.509
G1 F865.5 X60.658 Y60.372 E83.43073
G0 F7200 X59.32 Y60.658
G1 F865.5 X53.957 Y60.658 E83.58525
G0 F7200 X55.992 Y60.967
G1 F865.5 X55.992 Y56.563 E83.71213
G0 F7200 X58.325 Y56.563
G1 F865.5 X58.325 Y60.967 E83.83902
G0 F600 X58.325 Y60.967 Z1.096
G0 F7200 X53.783 Y56.389
;TIME_ELAPSED:114.841890
;LAYER:-1
;TYPE:SUPPORT
G1 F854.3 X59.49 Y56.388 E84.00345
G1 X59.601 Y56.277 E84.00797
G1 X59.601 Y56.984 E84.02834
G1 X59.951 Y57.334 E84.0426
G1 X66.216 Y57.334 E84.22311
G1 X66.217 Y60.539 E84.31545
G1 X59.705 Y60.548 E84.50307
G1 X59.501 Y60.754 E84.51142
G1 X59.501 Y60.814 E84.51315
G1 X59.413 Y60.814 E84.51568
G1 X59.087 Y61.143 E84.52903
G1 X53.802 Y61.142 E84.6813
G1 X53.783 Y61.123 E84.68207
G1 X53.783 Y57.311 E84.7919
G0 F768.9 X53.783 Y56.389
G0 F7200 X53.958 Y58.325
G1 F854.3 X66.042 Y58.325 E85.14006
G0 F7200 X65.324 Y57.509
G1 F854.3 X65.324 Y60.366 E85.22238
G0 F7200 X62.991 Y60.369
G1 F854.3 X62.991 Y57.509 E85.30478
G0 F7200 X60.658 Y57.509
G1 F854.3 X60.658 Y60.372 E85.38727
G0 F7200 X59.32 Y60.658
G1 F854.3 X53.957 Y60.658 E85.54178
G0 F7200 X55.992 Y60.967
G1 F854.3 X55.992 Y56.563 E85.66867
G0 F7200 X58.325 Y56.563
G1 F854.3 X58.325 Y60.967 E85.79555
G0 F600 X58.325 Y60.967 Z1.226
G0 F7200 X64.28 Y63.884
;TIME_ELAPSED:120.583542
;LAYER:0
;TYPE:WALL-INNER
;MESH:1_Puck_Insert_Female.3mf
G1 F750.9 X62.856 Y63.889 E85.85005
G1 X60.526 Y63.886 E85.93922
G1 X60.526 Y62.538 E85.99081
G1 X61.688 Y62.536 E86.03528
G1 X65.542 Y62.538 E86.18277
G1 X65.542 Y63.887 E86.2344
G1 X64.974 Y63.888 E86.25613
G0 F675.8 X64.94 Y63.888
G0 X64.28 Y63.884
