;FLAVOR:Marlin
;TIME:1881
;Filament used: 1.00728m
;Layer height: 0.175
;MINX:44.603
;MINY:50.07
;MINZ:0.306
;MAXX:75.397
;MAXY:69.559
;MAXZ:19.295
;Generated with Cura_SteamEngine 4.6.1
M140 S70
M105
M190 S70
M104 S235
M105
M109 S235
M82 ;absolute extrusion mode
G21;(metric values)
G90;(absolute positioning)
M82;(set extruder to absolute mode)
M107;(start with the fan off)
G28;(Home the printer)
G92 E0;(Reset the extruder to 0)
G0 Z5 E5 F500;(Move up and prime the nozzle)
G0 X-1 Z0;(Move outside the printable area)
G1 Y60 E8 F500;(Draw a priming/wiping line to the rear)
G1 X-1;(Move a little closer to the print area)
G1 Y10 E16 F500;(draw more priming/wiping)
G1 E15 F250;(Small retract)
G92 E0;(Zero the extruder)
G92 E0
G92 E0
G1 F2400 E-4.5
;LAYER_COUNT:105
;LAYER:-5
M107
G0 F7200 X46.564 Y53.535 Z0.306
;TYPE:SUPPORT-INTERFACE
G1 F2400 E0
G1 F1125 X46.807 Y53.348 E0.03121
G1 X47.047 Y53.186 E0.06068
G1 X47.309 Y53.033 E0.09156
G1 X47.531 Y52.919 E0.11696
G1 X47.896 Y52.76 E0.15748
G1 X48.081 Y52.688 E0.17768
G1 X48.393 Y52.533 E0.21314
G1 X48.407 Y52.558 E0.21605
G1 X49.199 Y52.126 E0.30787
G1 X49.403 Y52.027 E0.33095
G1 X49.624 Y51.935 E0.35531
G1 X50.23 Y51.707 E0.42121
G1 X50.604 Y51.591 E0.46106
G1 X50.866 Y51.526 E0.48854
G1 X51.171 Y51.472 E0.52006
G1 X51.45 Y51.441 E0.54863
G1 X51.713 Y51.427 E0.57544
G1 X52.052 Y51.435 E0.60995
G1 X53.092 Y51.534 E0.71627
G1 X53.092 Y51.519 E0.7178
G1 X53.194 Y51.526 E0.72821
G1 X53.876 Y51.487 E0.79773
G1 X54.548 Y51.363 E0.86728
G1 X55.195 Y51.156 E0.93641
G1 X55.665 Y50.945 E0.98885
G1 X55.949 Y50.802 E1.02121
G1 X56.219 Y50.686 E1.05112
G1 X56.475 Y50.594 E1.07881
G1 X56.767 Y50.51 E1.10973
G1 X57.028 Y50.454 E1.1369
G1 X57.348 Y50.406 E1.16983
G1 X57.816 Y50.37 E1.2176
G1 X58.008 Y50.363 E1.23716
G1 X62.834 Y50.363 E1.72833
G1 X62.953 Y50.354 E1.74047
G1 X62.955 Y50.37 E1.74211
G1 X63.716 Y50.302 E1.81987
G1 X63.989 Y50.292 E1.84768
G1 X64.088 Y50.296 E1.85776
G1 X64.466 Y50.32 E1.89631
G1 X64.762 Y50.357 E1.92667
G1 X65.587 Y50.515 E2.01216
G1 X65.588 Y50.512 E2.01248
G1 X65.638 Y50.522 E2.01767
G1 X66.316 Y50.565 E2.08682
G1 X70.36 Y50.564 E2.4984
G1 X70.55 Y50.57 E2.51774
G1 X70.895 Y50.592 E2.55293
G1 X71.19 Y50.629 E2.58319
G1 X71.486 Y50.686 E2.61387
G1 X71.76 Y50.757 E2.64267
G1 X72.032 Y50.846 E2.6718
G1 X72.296 Y50.951 E2.70072
G1 X72.564 Y51.078 E2.7309
G1 X72.825 Y51.223 E2.76129
G1 X73.044 Y51.363 E2.78774
G1 X73.308 Y51.558 E2.82115
G1 X73.684 Y51.879 E2.87146
G1 X73.775 Y51.964 E2.88414
G1 X73.863 Y52.059 E2.89732
G1 X74.122 Y52.354 E2.93727
G1 X74.289 Y52.569 E2.96498
G1 X74.445 Y52.8 E2.99335
G1 X74.603 Y53.068 E3.02501
G1 X74.735 Y53.327 E3.0546
G1 X74.838 Y53.566 E3.08108
G1 X74.945 Y53.864 E3.11331
G1 X75.023 Y54.136 E3.14211
G1 X75.081 Y54.404 E3.17001
G1 X75.129 Y54.724 E3.20295
G1 X75.165 Y55.185 E3.25001
G1 X75.172 Y55.37 E3.26885
G1 X75.168 Y60.855 E3.82709
G1 X75.16 Y60.988 E3.84065
G1 X75.161 Y61.215 E3.86376
G1 X75.147 Y61.215 E3.86518
G1 X75.172 Y61.894 E3.93433
G1 X75.168 Y64.677 E4.21758
G1 X75.144 Y65.053 E4.25592
G1 X75.107 Y65.351 E4.28649
G1 X75.052 Y65.636 E4.31603
G1 X74.979 Y65.918 E4.34567
G1 X74.893 Y66.181 E4.37384
G1 X74.783 Y66.459 E4.40426
G1 X74.659 Y66.721 E4.43376
G1 X74.52 Y66.971 E4.46288
G1 X74.364 Y67.215 E4.49235
G1 X74.174 Y67.471 E4.5248
G1 X73.9 Y67.792 E4.56775
G1 X73.788 Y67.915 E4.58468
G1 X73.686 Y68.011 E4.59894
G1 X73.414 Y68.253 E4.63599
G1 X73.194 Y68.426 E4.66448
G1 X72.939 Y68.602 E4.69601
G1 X72.68 Y68.755 E4.72663
G1 X72.439 Y68.878 E4.75416
G1 X72.187 Y68.989 E4.78219
G1 X71.886 Y69.098 E4.81477
G1 X71.622 Y69.174 E4.84273
G1 X71.362 Y69.233 E4.86987
G1 X71.028 Y69.283 E4.90424
G1 X70.56 Y69.321 E4.95203
G1 X70.358 Y69.329 E4.9726
G1 X66.701 Y69.334 E5.3448
G1 X63.883 Y69.322 E5.6316
G1 X63.512 Y69.297 E5.66945
G1 X63.23 Y69.26 E5.69839
G1 X62.936 Y69.203 E5.72887
G1 X62.659 Y69.131 E5.758
G1 X62.375 Y69.038 E5.78842
G1 X62.122 Y68.936 E5.81618
G1 X61.855 Y68.808 E5.84632
G1 X61.59 Y68.661 E5.87716
G1 X61.368 Y68.518 E5.90403
G1 X60.973 Y68.224 E5.95415
G1 X60.411 Y67.858 E6.02241
G1 X59.796 Y67.561 E6.09192
G1 X59.148 Y67.344 E6.16147
G1 X58.482 Y67.21 E6.23061
G1 X57.49 Y67.139 E6.33183
G1 X57.192 Y67.102 E6.36239
G1 X56.908 Y67.047 E6.39183
G1 X56.617 Y66.971 E6.42244
G1 X56.351 Y66.885 E6.45089
G1 X56.087 Y66.779 E6.47985
G1 X55.257 Y66.385 E6.57336
G1 X55.253 Y66.387 E6.57381
G1 X54.604 Y66.175 E6.6433
G1 X53.933 Y66.046 E6.71284
G1 X53.253 Y66.004 E6.78218
G1 X52.662 Y66.037 E6.84242
G1 X52.201 Y66.09 E6.88965
G1 X51.918 Y66.104 E6.91849
G1 X51.629 Y66.099 E6.94791
G1 X51.332 Y66.077 E6.97822
G1 X51.071 Y66.04 E7.00505
G1 X50.752 Y65.971 E7.03826
G1 X50.261 Y65.829 E7.09028
G1 X50.118 Y65.781 E7.10564
G1 X49.544 Y65.558 E7.16831
G1 X49.219 Y65.411 E7.20461
G1 X48.39 Y64.971 E7.30013
G1 X47.827 Y64.742 E7.36199
G1 X47.502 Y64.597 E7.39821
G1 X47.211 Y64.443 E7.43172
G1 X46.972 Y64.298 E7.46017
G1 X46.736 Y64.132 E7.48954
G1 X46.509 Y63.95 E7.51915
G1 X46.292 Y63.753 E7.54898
G1 X46.094 Y63.549 E7.57791
G1 X45.904 Y63.327 E7.60765
G1 X45.64 Y62.971 E7.65276
G1 X45.579 Y62.874 E7.66442
G1 X45.385 Y62.541 E7.70364
G1 X45.256 Y62.283 E7.733
G1 X45.14 Y62.009 E7.76328
G1 X45.052 Y61.758 E7.79035
G1 X44.971 Y61.468 E7.821
G1 X44.913 Y61.198 E7.84911
G1 X44.86 Y60.848 E7.88513
G1 X44.84 Y60.637 E7.9067
G1 X44.828 Y60.29 E7.94204
G1 X44.832 Y57.116 E8.26508
G1 X44.856 Y56.739 E8.30353
G1 X44.893 Y56.441 E8.33409
G1 X44.948 Y56.157 E8.36353
G1 X45.024 Y55.866 E8.39414
G1 X45.108 Y55.608 E8.42176
G1 X45.219 Y55.329 E8.45232
G1 X45.362 Y55.029 E8.48614
G1 X45.466 Y54.838 E8.50827
G1 X45.643 Y54.554 E8.54233
G1 X45.737 Y54.425 E8.55858
G1 X45.945 Y54.156 E8.59318
G1 X46.161 Y53.911 E8.62643
G1 X46.355 Y53.718 E8.65428
G1 X46.368 Y53.707 E8.65601
G0 F1012.5 X46.564 Y53.535
G0 F7200 X46.4 Y53.678
G1 F1125 X46.4 Y63.851 E9.69138
G0 F7200 X48 Y64.812
G1 F1125 X48 Y52.719 E10.92216
G0 F7200 X49.6 Y51.944
G1 F1125 X49.6 Y65.579 E12.30987
G0 F7200 X51.2 Y66.058
G1 F1125 X51.2 Y51.468 E13.79478
G0 F7200 X52.8 Y51.507
G1 F1125 X52.8 Y66.03 E15.27288
G0 F7200 X54.4 Y66.135
G1 F1125 X54.4 Y51.39 E16.77356
G0 F7200 X56 Y50.78
G1 F1125 X56 Y66.737 E18.3976
G0 F7200 X57.6 Y67.146
G1 F1125 X57.6 Y50.386 E20.10337
G0 F7200 X59.2 Y50.363
G1 F1125 X59.2 Y67.361 E21.83336
G0 F7200 X60.8 Y68.111
G1 F1125 X60.8 Y50.363 E23.63968
G0 F7200 X62.4 Y50.363
G1 F1125 X62.4 Y69.046 E25.54116
G0 F7200 X64 Y69.322
G1 F1125 X64 Y50.293 E27.47786
G0 F7200 X65.6 Y50.515
G1 F1125 X65.6 Y69.329 E29.39267
G0 F7200 X67.2 Y69.334
G1 F1125 X67.2 Y50.564 E31.30301
G0 F7200 X68.8 Y50.564
G1 F1125 X68.8 Y69.332 E33.21314
G0 F7200 X70.4 Y69.328
G1 F1125 X70.4 Y50.566 E35.12266
G0 F7200 X72 Y50.836
M104 S230
G1 F1125 X72 Y69.057 E36.97712
G0 F7200 X73.6 Y68.088
G1 F1125 X73.6 Y51.808 E38.63403
G0 F600 X73.6 Y51.808 Z0.525
G0 F7200 X72.775 Y51.137
;TIME_ELAPSED:48.613608
;LAYER:-4
M140 S70
;TYPE:SUPPORT
G1 F1125 X72.585 Y51.033 E38.64784
G1 X72.32 Y50.908 E38.66651
G1 X72.049 Y50.799 E38.68513
G1 X71.771 Y50.709 E38.70375
G1 X71.497 Y50.638 E38.72179
G1 X71.188 Y50.577 E38.74187
G1 X70.907 Y50.542 E38.75992
G1 X75.186 Y54.821 E39.1456
G1 X75.214 Y55.183 E39.16874
G1 X75.221 Y55.369 E39.18061
G1 X75.221 Y56.129 E39.22904
G1 X69.606 Y50.515 E39.7351
G1 X68.334 Y50.515 E39.81618
G1 X75.219 Y57.4 E40.43675
G1 X75.219 Y58.672 E40.51782
G1 X67.061 Y50.515 E41.25309
G1 X66.317 Y50.515 E41.30051
G1 X65.752 Y50.478 E41.3366
G1 X75.217 Y59.944 E42.18977
G1 X75.217 Y60.855 E42.24783
G1 X75.209 Y60.989 E42.25639
G1 X75.211 Y61.21 E42.27047
G1 X64.257 Y50.256 E43.25781
G1 X64.088 Y50.246 E43.2686
G1 X63.986 Y50.242 E43.2751
G1 X63.725 Y50.251 E43.29175
G1 X63.039 Y50.312 E43.33564
G1 X75.22 Y62.492 E44.43352
G1 X75.219 Y63.764 E44.5146
G1 X61.768 Y50.313 E45.72699
G1 X60.495 Y50.313 E45.80813
G1 X75.197 Y65.014 E47.13324
G1 X75.193 Y65.06 E47.13618
G1 X75.157 Y65.348 E47.15468
G1 X75.1 Y65.644 E47.1739
G1 X75.027 Y65.927 E47.19252
G1 X74.98 Y66.071 E47.20218
G1 X59.223 Y50.313 E48.62247
G1 X58.005 Y50.313 E48.7001
G1 X57.952 Y50.315 E48.70348
G1 X74.588 Y66.951 E50.20296
G1 X74.567 Y66.988 E50.20567
G1 X74.408 Y67.236 E50.22445
G1 X74.209 Y67.504 E50.24572
G1 X74.053 Y67.689 E50.26114
G1 X56.813 Y50.449 E51.81506
G1 X56.741 Y50.464 E51.81975
G1 X56.473 Y50.541 E51.83752
G1 X56.199 Y50.64 E51.85609
G1 X55.914 Y50.762 E51.87585
G1 X55.874 Y50.782 E51.8787
G1 X73.409 Y68.318 E53.45925
G1 X73.217 Y68.471 E53.4749
G1 X72.981 Y68.633 E53.49315
G1 X72.711 Y68.793 E53.51315
G1 X72.645 Y68.826 E53.51785
G1 X54.988 Y51.169 E55.10936
G1 X54.534 Y51.314 E55.13973
G1 X53.965 Y51.42 E55.17662
G1 X71.738 Y69.192 E56.77854
G1 X71.63 Y69.223 E56.7857
G1 X71.366 Y69.283 E56.80295
G1 X71.037 Y69.333 E56.82416
G1 X70.637 Y69.365 E56.84974
G1 X52.721 Y51.449 E58.46459
G1 X52.057 Y51.385 E58.5071
G1 X51.723 Y51.376 E58.5284
G1 X51.429 Y51.392 E58.54717
G1 X51.396 Y51.396 E58.54928
G1 X69.379 Y69.379 E60.17017
G1 X68.108 Y69.381 E60.25118
G1 X50.345 Y51.618 E61.85224
G1 X50.201 Y51.662 E61.86184
G1 X49.604 Y51.888 E61.90252
G1 X49.42 Y51.965 E61.91523
G1 X66.837 Y69.382 E63.48511
G1 X66.7 Y69.383 E63.49384
G1 X65.56 Y69.378 E63.5665
G1 X48.585 Y52.403 E65.09653
G1 X48.427 Y52.489 E65.108
G1 X48.415 Y52.467 E65.10959
G1 X48.061 Y52.641 E65.13473
G1 X47.883 Y52.71 E65.1469
G1 X47.699 Y52.79 E65.15969
G1 X64.281 Y69.372 E66.6543
G1 X63.881 Y69.371 E66.67979
G1 X63.503 Y69.345 E66.70394
G1 X63.228 Y69.31 E66.72161
G1 X62.928 Y69.251 E66.7411
G1 X62.873 Y69.237 E66.74471
G1 X46.876 Y53.24 E68.1866
G1 X46.786 Y53.3 E68.19349
G1 X46.538 Y53.491 E68.21344
G1 X46.321 Y53.68 E68.23178
G1 X46.182 Y53.819 E68.24431
G1 X60.15 Y67.786 E69.50326
G1 X59.777 Y67.606 E69.52966
G1 X59.135 Y67.391 E69.57281
G1 X58.475 Y67.259 E69.61571
G1 X58.339 Y67.248 E69.62441
G1 X45.607 Y54.517 E70.77195
G1 X45.422 Y54.811 E70.79409
G1 X45.317 Y55.005 E70.80815
G1 X45.167 Y55.322 E70.8305
G1 X45.159 Y55.341 E70.83182
G1 X56.915 Y67.098 E71.89148
G1 X56.902 Y67.095 E71.89233
G1 X56.6 Y67.017 E71.91221
G1 X56.338 Y66.931 E71.92979
G1 X56.058 Y66.82 E71.94899
G1 X55.286 Y66.453 E72.00347
G0 F7200 X55.285 Y66.456
G1 F1125 X55.234 Y66.432 E72.00706
G1 X54.852 Y66.307 E72.03268
G1 X44.865 Y56.32 E72.93285
G1 X44.841 Y56.442 E72.94077
G1 X44.805 Y56.73 E72.95927
G1 X44.781 Y57.113 E72.98373
G1 X44.781 Y57.508 E73.00891
G1 X53.329 Y66.057 E73.77942
G1 X53.252 Y66.052 E73.78434
G1 X52.666 Y66.086 E73.82175
G1 X52.209 Y66.137 E73.85106
G1 X52.139 Y66.14 E73.85552
G1 X44.779 Y58.78 E74.51891
G1 X44.778 Y60.051 E74.59992
G1 X50.746 Y66.02 E75.13789
G1 X50.739 Y66.019 E75.13834
G1 X50.261 Y65.88 E75.17007
G1 X50.086 Y65.822 E75.18182
G1 X49.665 Y65.661 E75.21054
G1 X49.525 Y65.603 E75.2202
G1 X49.191 Y65.451 E75.24359
G1 X48.582 Y65.128 E75.28753
G1 X44.918 Y61.464 E75.61778
G0 F7200 X44.918 Y61.466
G1 F1125 X45.004 Y61.771 E75.63798
G1 X45.097 Y62.033 E75.65569
G1 X45.21 Y62.304 E75.67441
G1 X45.344 Y62.571 E75.69345
G1 X45.529 Y62.889 E75.7169
G1 X45.6 Y63.002 E75.7254
G1 X45.867 Y63.361 E75.75392
G1 X46.043 Y63.568 E75.77123
G1 X46.265 Y63.795 E75.79147
G1 X46.471 Y63.983 E75.80925
G1 X46.71 Y64.174 E75.82875
G1 X46.944 Y64.339 E75.84699
G1 X47.183 Y64.485 E75.86484
G1 X47.469 Y64.635 E75.88543
G1 X47.806 Y64.787 E75.90899
G1 X48.368 Y65.015 E75.94764
G1 X48.582 Y65.128 E75.96307
G0 F7200 X72.775 Y51.137
G1 F1125 X72.847 Y51.177 E75.96832
G1 X73.087 Y51.332 E75.98653
G1 X73.333 Y51.513 E76.00599
G1 X73.715 Y51.84 E76.03804
G1 X73.809 Y51.927 E76.0462
G1 X73.899 Y52.026 E76.05473
G1 X74.154 Y52.314 E76.07925
G1 X74.325 Y52.535 E76.09706
G1 X74.499 Y52.792 E76.11684
G0 F7200 X74.598 Y52.96
G1 F1125 X72.775 Y51.137 E76.28115
G0 F600 X72.775 Y51.137 Z0.7
G0 F7200 X70.918 Y50.368
;TIME_ELAPSED:80.904592
;LAYER:-3
;TYPE:SUPPORT-INTERFACE
G1 F1500 X70.367 Y50.338 E76.2952
G1 X66.323 Y50.339 E76.39818
G1 X65.667 Y50.297 E76.41492
G1 X65.421 Y50.253 E76.42129
G1 X64.804 Y50.135 E76.43728
G1 X64.091 Y50.07 E76.45552
G1 X63.707 Y50.076 E76.4653
G1 X62.826 Y50.137 E76.48778
G1 X58 Y50.138 E76.61068
G1 X57.327 Y50.181 E76.62785
G1 X56.991 Y50.231 E76.6365
G1 X56.424 Y50.374 E76.65139
G1 X56.358 Y50.4 E76.6532
G1 X71.121 Y50.4 E77.02913
G1 X71.539 Y50.466 E77.03991
G1 X72.11 Y50.633 E77.05506
G1 X72.378 Y50.75 E77.06251
G1 X55.531 Y50.75 E77.49151
G1 X55.115 Y50.946 E77.50322
G1 X54.632 Y51.1 E77.51613
G1 X73.044 Y51.1 E77.98499
G1 X73.173 Y51.177 E77.98881
G1 X73.444 Y51.378 E77.99741
G1 X73.529 Y51.45 E78.00024
G1 X50.305 Y51.45 E78.59164
G1 X50.03 Y51.538 E78.59899
G1 X49.537 Y51.727 E78.61243
G1 X49.375 Y51.8 E78.61696
G1 X73.923 Y51.8 E79.24207
G1 X74.032 Y51.909 E79.24599
G1 X74.234 Y52.15 E79.254
G1 X48.685 Y52.15 E79.9046
G1 X48.497 Y52.252 E79.91005
G1 X48.488 Y52.236 E79.91052
G1 X47.991 Y52.482 E79.92464
G1 X47.946 Y52.5 E79.92587
G1 X74.511 Y52.5 E80.60234
G1 X74.732 Y52.85 E80.61288
G1 X47.178 Y52.85 E81.31454
G1 X46.679 Y53.163 E81.32954
G1 X46.634 Y53.2 E81.33103
G1 X74.915 Y53.2 E82.05119
G1 X75.05 Y53.489 E82.05932
G1 X75.07 Y53.55 E82.06095
G1 X46.207 Y53.55 E82.79594
G1 X46.199 Y53.556 E82.7962
G1 X45.877 Y53.9 E82.8082
G1 X75.184 Y53.9 E83.55449
G1 X75.241 Y54.077 E83.55923
G1 X75.273 Y54.25 E83.56371
G1 X45.592 Y54.25 E84.31953
G1 X45.461 Y54.421 E84.32501
G1 X45.356 Y54.6 E84.3303
G1 X75.336 Y54.6 E85.09373
G1 X75.354 Y54.702 E85.09637
G1 X75.37 Y54.95 E85.1027
G1 X45.152 Y54.95 E85.87219
G1 X44.998 Y55.3 E85.88193
G1 X75.393 Y55.3 E86.65593
G1 X75.397 Y55.369 E86.65769
G1 X75.397 Y55.65 E86.66485
G1 X44.862 Y55.65 E87.44242
G1 X44.76 Y56 E87.4517
G1 X75.397 Y56 E88.23186
G1 X75.397 Y56.35 E88.24078
G1 X44.691 Y56.35 E89.0227
G1 X44.636 Y56.7 E89.03172
G1 X75.397 Y56.7 E89.81504
G1 X75.397 Y57.05 E89.82396
G1 X44.614 Y57.05 E90.60784
G1 X44.603 Y57.235 E90.61256
G1 X44.603 Y57.4 E90.61676
G1 X75.397 Y57.4 E91.40092
G1 X75.397 Y57.75 E91.40984
G1 X44.604 Y57.75 E92.19397
G1 X44.606 Y58.1 E92.20289
G1 X75.397 Y58.1 E92.98697
G1 X75.397 Y58.45 E92.99588
G1 X44.607 Y58.45 E93.77995
G1 X44.608 Y58.8 E93.78886
G1 X75.397 Y58.8 E94.57289
G1 X75.397 Y59.15 E94.58181
G1 X44.609 Y59.15 E95.36582
G1 X44.609 Y59.5 E95.37473
G1 X75.397 Y59.5 E96.15874
G1 X75.397 Y59.85 E96.16765
G1 X44.611 Y59.85 E96.95161
G1 X44.612 Y60.2 E96.96052
G1 X75.397 Y60.2 E97.74446
G1 X75.397 Y60.55 E97.75337
G1 X44.613 Y60.55 E98.53728
G1 X44.614 Y60.648 E98.53977
G1 X44.645 Y60.9 E98.54624
G1 X75.395 Y60.9 E99.32928
G1 X75.39 Y61.25 E99.33819
G1 X44.693 Y61.25 E100.11989
G1 X44.78 Y61.6 E100.12907
G1 X75.389 Y61.6 E100.90852
G1 X75.39 Y61.95 E100.91744
G1 X44.885 Y61.95 E101.69424
G1 X45.021 Y62.3 E101.7038
G1 X75.391 Y62.3 E102.47717
G1 X75.392 Y62.65 E102.48608
G1 X45.199 Y62.65 E103.25494
G1 X45.38 Y62.982 E103.26457
G1 X45.392 Y63 E103.26512
G1 X75.393 Y63 E104.02909
G1 X75.394 Y63.35 E104.038
G1 X45.643 Y63.35 E104.7956
G1 X45.726 Y63.466 E104.79924
G1 X45.939 Y63.7 E104.80729
G1 X75.395 Y63.7 E105.55738
G1 X75.396 Y64.05 E105.5663
G1 X46.292 Y64.05 E106.30742
G1 X46.596 Y64.309 E106.31759
G1 X46.734 Y64.4 E106.3218
G1 X75.397 Y64.4 E107.0517
G1 X75.397 Y64.546 E107.05542
G1 X75.385 Y64.75 E107.06062
G1 X47.327 Y64.75 E107.77511
G1 X47.73 Y64.945 E107.78651
G1 X48.109 Y65.1 E107.79694
G1 X75.363 Y65.1 E108.49096
G1 X75.308 Y65.45 E108.49998
G1 X48.812 Y65.45 E109.1747
G1 X49.114 Y65.611 E109.18341
G1 X49.542 Y65.8 E109.19532
G1 X75.238 Y65.8 E109.84967
G1 X75.136 Y66.15 E109.85895
G1 X50.56 Y66.15 E110.48477
G1 X50.699 Y66.19 E110.48846
G1 X51.314 Y66.302 E110.50438
G1 X51.909 Y66.329 E110.51954
G1 X52.68 Y66.262 E110.53925
G1 X53.252 Y66.23 E110.55384
G1 X53.904 Y66.27 E110.57047
G1 X54.547 Y66.393 E110.58714
G1 X54.874 Y66.5 E110.59591
G1 X74.999 Y66.5 E111.10838
G1 X74.856 Y66.83 E111.11754
G1 X74.844 Y66.85 E111.11814
G1 X55.711 Y66.85 E111.60535
G1 X55.985 Y66.98 E111.61308
G1 X56.283 Y67.1 E111.62126
G1 X56.626 Y67.2 E111.63036
G1 X74.635 Y67.2 E112.08895
G1 X74.558 Y67.33 E112.0928
G1 X74.394 Y67.55 E112.09979
G1 X59.029 Y67.55 E112.49105
G1 X59.089 Y67.562 E112.49261
G1 X59.71 Y67.77 E112.50929
