;FLAVOR:Marlin
;TIME:833
;Filament used: 0.494982m
;Layer height: 0.175
;MINX:46.675
;MINY:44.594
;MINZ:0.306
;MAXX:73.325
;MAXY:67.405
;MAXZ:5.995
;Generated with Cura_SteamEngine 4.6.1
M140 S70
M105
M190 S70
M104 S235
M105
M109 S235
M82 ;absolute extrusion mode
G21;(metric values)
G90;(absolute positioning)
M82;(set extruder to absolute mode)
M107;(start with the fan off)
G28;(Home the printer)
G92 E0;(Reset the extruder to 0)
G0 Z5 E5 F500;(Move up and prime the nozzle)
G0 X-1 Z0;(Move outside the printable area)
G1 Y60 E8 F500;(Draw a priming/wiping line to the rear)
G1 X-1;(Move a little closer to the print area)
G1 Y10 E16 F500;(draw more priming/wiping)
G1 E15 F250;(Small retract)
G92 E0;(Zero the extruder)
G92 E0
G92 E0
G1 F2400 E-4.5
;LAYER_COUNT:29
;LAYER:-5
M107
G0 F7200 X48.328 Y47.149 Z0.306
;TYPE:SUPPORT-INTERFACE
G1 F2400 E0
G1 F1125 X49.312 Y46.17 E0.14127
G1 X49.617 Y45.902 E0.18259
G1 X49.837 Y45.731 E0.21095
G1 X50.076 Y45.569 E0.24034
G1 X50.342 Y45.414 E0.27167
G1 X50.794 Y45.191 E0.32297
G1 X50.862 Y45.165 E0.33038
G1 X51.241 Y45.033 E0.37122
G1 X51.495 Y44.963 E0.39804
G1 X51.773 Y44.903 E0.42698
G1 X52.084 Y44.859 E0.45895
G1 X52.523 Y44.827 E0.50375
G1 X52.71 Y44.82 E0.52279
G1 X67.45 Y44.824 E2.02297
G1 X67.827 Y44.848 E2.06142
G1 X68.122 Y44.885 E2.09168
G1 X68.409 Y44.941 E2.12144
G1 X68.684 Y45.012 E2.15035
G1 X69.235 Y45.203 E2.2097
G1 X69.295 Y45.231 E2.21644
G1 X69.648 Y45.407 E2.25658
G1 X69.901 Y45.554 E2.28636
G1 X70.12 Y45.7 E2.31315
G1 X70.375 Y45.896 E2.34588
G1 X70.653 Y46.139 E2.38346
G1 X70.778 Y46.256 E2.40089
G1 X71.66 Y47.137 E2.52777
G1 X71.768 Y47.252 E2.54382
G1 X72.017 Y47.534 E2.58211
G1 X72.182 Y47.747 E2.60953
G1 X72.353 Y47.998 E2.64044
G1 X72.502 Y48.254 E2.67059
G1 X72.723 Y48.697 E2.72097
G1 X72.755 Y48.781 E2.73012
G1 X72.887 Y49.16 E2.77097
G1 X72.956 Y49.408 E2.79717
G1 X73.017 Y49.692 E2.82673
G1 X73.061 Y50.003 E2.8587
G1 X73.093 Y50.442 E2.9035
G1 X73.1 Y50.629 E2.92254
G1 X73.096 Y53.531 E3.2179
G1 X73.072 Y53.908 E3.25634
G1 X73.035 Y54.206 E3.28691
G1 X72.981 Y54.486 E3.31593
G1 X72.941 Y54.64 E3.33212
G1 X72.813 Y55.298 E3.40035
G1 X72.767 Y55.979 E3.46981
G1 X72.808 Y56.662 E3.53945
G1 X72.83 Y56.772 E3.55087
G1 X72.821 Y56.772 E3.55178
G1 X73.016 Y57.689 E3.6472
G1 X73.061 Y58.003 E3.67948
G1 X73.093 Y58.442 E3.72428
G1 X73.1 Y58.629 E3.74333
G1 X73.096 Y61.531 E4.03868
G1 X73.072 Y61.908 E4.07713
G1 X73.035 Y62.206 E4.10769
G1 X72.981 Y62.485 E4.13661
G1 X72.908 Y62.765 E4.16606
G1 X72.717 Y63.316 E4.22542
G1 X72.694 Y63.366 E4.23102
G1 X72.513 Y63.729 E4.2723
G1 X72.371 Y63.974 E4.30112
G1 X72.212 Y64.21 E4.33008
G1 X72.036 Y64.442 E4.35972
G1 X71.672 Y64.851 E4.41544
G1 X70.688 Y65.83 E4.55672
G1 X70.383 Y66.098 E4.59804
G1 X70.163 Y66.269 E4.6264
G1 X69.924 Y66.431 E4.65578
G1 X69.658 Y66.586 E4.68712
G1 X69.206 Y66.809 E4.73841
G1 X69.138 Y66.835 E4.74582
G1 X68.76 Y66.967 E4.78657
G1 X68.505 Y67.037 E4.81349
G1 X68.227 Y67.097 E4.84243
G1 X67.916 Y67.141 E4.8744
G1 X67.477 Y67.173 E4.9192
G1 X67.29 Y67.18 E4.93824
G1 X52.55 Y67.176 E6.43842
G1 X52.173 Y67.152 E6.47687
G1 X51.878 Y67.115 E6.50713
G1 X51.591 Y67.059 E6.53689
G1 X51.316 Y66.988 E6.56579
G1 X50.765 Y66.797 E6.62515
G1 X50.705 Y66.769 E6.63188
G1 X50.352 Y66.593 E6.67203
G1 X50.099 Y66.446 E6.70181
G1 X49.88 Y66.3 E6.7286
G1 X49.625 Y66.104 E6.76133
G1 X49.337 Y65.852 E6.80028
G1 X49.222 Y65.744 E6.81634
G1 X48.34 Y64.863 E6.94321
G1 X48.232 Y64.748 E6.95927
G1 X47.982 Y64.464 E6.99778
G1 X47.811 Y64.243 E7.02622
G1 X47.647 Y64.002 E7.05588
G1 X47.498 Y63.746 E7.08603
G1 X47.269 Y63.283 E7.1386
G1 X47.237 Y63.199 E7.14775
G1 X47.113 Y62.841 E7.18631
G1 X47.043 Y62.586 E7.21322
G1 X46.983 Y62.308 E7.24217
G1 X46.939 Y61.997 E7.27414
G1 X46.906 Y61.544 E7.32036
G1 X46.9 Y61.371 E7.33798
G1 X46.904 Y58.469 E7.63333
G1 X46.928 Y58.092 E7.67178
G1 X46.965 Y57.797 E7.70204
G1 X47.022 Y57.501 E7.73272
G1 X47.059 Y57.36 E7.74756
G1 X47.187 Y56.702 E7.81578
G1 X47.233 Y56.021 E7.88525
G1 X47.192 Y55.338 E7.95489
G1 X47.17 Y55.228 E7.9663
G1 X47.179 Y55.228 E7.96722
G1 X46.984 Y54.311 E8.06263
G1 X46.939 Y53.997 E8.09492
G1 X46.906 Y53.544 E8.14115
G1 X46.9 Y53.371 E8.15876
G1 X46.904 Y50.469 E8.45412
G1 X46.928 Y50.092 E8.49256
G1 X46.965 Y49.797 E8.52282
G1 X47.021 Y49.51 E8.55258
G1 X47.093 Y49.231 E8.58191
G1 X47.281 Y48.688 E8.64039
G1 X47.306 Y48.634 E8.64645
G1 X47.49 Y48.265 E8.68841
G1 X47.629 Y48.026 E8.71655
G1 X47.791 Y47.785 E8.74611
G1 X47.972 Y47.547 E8.77654
G1 X48.154 Y47.343 E8.80436
G0 F1012.5 X48.328 Y47.149
G0 F7200 X48 Y47.515
G1 F1125 X48 Y64.484 E10.5314
G0 F7200 X49.6 Y66.082
G1 F1125 X49.6 Y45.916 E12.58382
G0 F7200 X51.2 Y45.047
G1 F1125 X51.2 Y66.947 E14.81271
G0 F7200 X52.8 Y67.176
G1 F1125 X52.8 Y44.821 E17.08791
G0 F7200 X54.4 Y44.821
G1 F1125 X54.4 Y67.176 E19.36312
G0 F7200 X56 Y67.176
G1 F1125 X56 Y44.821 E21.63832
G0 F7200 X57.6 Y44.822
G1 F1125 X57.6 Y67.177 E23.91352
G0 F7200 X59.2 Y67.177
G1 F1125 X59.2 Y44.822 E26.18873
G0 F7200 X60.8 Y44.823
G1 F1125 X60.8 Y67.178 E28.46393
G0 F7200 X62.4 Y67.178
G1 F1125 X62.4 Y44.823 E30.73913
G0 F7200 X64 Y44.824
G1 F1125 X64 Y67.179 E33.01433
G0 F7200 X65.6 Y67.179
G1 F1125 X65.6 Y44.824 E35.28954
G0 F7200 X67.2 Y44.824
G1 F1125 X67.2 Y67.179 E37.56474
G0 F7200 X68.8 Y66.954
G1 F1125 X68.8 Y45.053 E39.79374
G0 F7200 X70.4 Y45.918
M104 S230
G1 F1125 X70.4 Y66.084 E41.84615
G0 F7200 X72 Y64.483
G1 F1125 X72 Y47.515 E43.57309
G0 F600 X72 Y47.515 Z0.525
G0 F7200 X72.539 Y48.221
;TIME_ELAPSED:51.060627
;LAYER:-4
M140 S70
;TYPE:SUPPORT
G1 F1125 X72.389 Y47.961 E43.59222
G1 X72.235 Y47.736 E43.60959
G1 X72.05 Y47.497 E43.62886
G1 X71.803 Y47.217 E43.65265
G1 X71.687 Y47.094 E43.66343
G1 X70.82 Y46.229 E43.74149
G1 X70.686 Y46.103 E43.75321
G1 X70.41 Y45.862 E43.77656
G1 X70.149 Y45.66 E43.7976
G1 X69.917 Y45.506 E43.81535
G1 X69.66 Y45.357 E43.83428
G1 X69.42 Y45.237 E43.85138
G1 X72.675 Y48.492 E44.14477
G0 F7200 X69.42 Y45.237
G1 F1125 X69.315 Y45.184 E44.15227
G1 X69.26 Y45.159 E44.15612
G1 X68.708 Y44.967 E44.19336
G1 X68.418 Y44.891 E44.21247
G1 X68.121 Y44.833 E44.23176
G1 X67.834 Y44.798 E44.25019
G1 X67.7 Y44.79 E44.25874
G1 X73.126 Y50.215 E44.74777
G1 X73.142 Y50.44 E44.76214
G1 X73.149 Y50.613 E44.77318
G1 X73.148 Y51.511 E44.83041
G1 X66.411 Y44.774 E45.43765
G1 X65.138 Y44.774 E45.51878
G1 X73.146 Y52.781 E46.24053
G1 X73.145 Y53.532 E46.2884
G1 X73.121 Y53.916 E46.31292
G1 X73.109 Y54.017 E46.3194
G1 X63.865 Y44.773 E47.15261
G1 X62.592 Y44.773 E47.23374
G1 X72.904 Y55.085 E48.16321
G1 X72.86 Y55.304 E48.17745
G1 X72.816 Y55.978 E48.22049
G1 X72.835 Y56.289 E48.24035
G1 X61.318 Y44.772 E49.27843
G1 X60.045 Y44.771 E49.35957
G1 X73.083 Y57.809 E50.53474
G1 X73.111 Y58.01 E50.54768
G1 X73.142 Y58.44 E50.57515
G1 X73.149 Y58.614 E50.58625
G1 X73.148 Y59.148 E50.62029
G1 X58.772 Y44.771 E51.9161
G1 X57.499 Y44.771 E51.99724
G1 X73.147 Y60.419 E53.40766
G1 X73.145 Y61.533 E53.47866
G1 X73.136 Y61.68 E53.48805
G1 X56.226 Y44.771 E55.01218
G1 X54.952 Y44.77 E55.09338
G1 X72.956 Y62.774 E56.71616
G1 X72.95 Y62.793 E56.71743
G1 X72.738 Y63.389 E56.75775
G1 X72.592 Y63.682 E56.77861
G1 X53.68 Y44.77 E58.48324
G1 X52.707 Y44.769 E58.54525
G1 X52.52 Y44.777 E58.55718
G1 X52.422 Y44.785 E58.56345
G1 X72.09 Y64.453 E60.33621
G1 X72.069 Y64.48 E60.33839
G1 X71.698 Y64.894 E60.37382
G1 X71.477 Y65.113 E60.39365
G1 X51.323 Y44.959 E62.21022
G1 X51.222 Y44.986 E62.21689
G1 X50.855 Y45.114 E62.24166
G1 X50.759 Y45.15 E62.24819
G1 X50.413 Y45.322 E62.27282
G1 X70.838 Y65.747 E64.11382
G1 X70.712 Y65.874 E64.12522
G1 X70.411 Y66.139 E64.15078
G1 X70.193 Y66.308 E64.16836
G1 X70.152 Y66.334 E64.17146
G1 X49.639 Y45.821 E66.02038
G1 X49.587 Y45.86 E66.02453
G1 X49.286 Y46.125 E66.05009
G1 X48.978 Y46.432 E66.0778
G1 X69.343 Y66.797 E67.91339
G1 X69.241 Y66.848 E67.92066
G1 X69.147 Y66.884 E67.92708
G1 X68.774 Y67.013 E67.95223
G1 X68.512 Y67.086 E67.96957
G1 X68.386 Y67.113 E67.97778
G1 X48.339 Y47.067 E69.78466
G1 X48.3 Y47.105 E69.78813
G1 X47.929 Y47.52 E69.82361
G1 X47.752 Y47.752 E69.84221
G1 X67.229 Y67.229 E71.59776
G1 X65.956 Y67.229 E71.67889
G1 X47.285 Y48.558 E73.36179
G1 X47.26 Y48.61 E73.36547
G1 X47.235 Y48.665 E73.36932
G1 X47.045 Y49.216 E73.40647
G1 X46.973 Y49.491 E73.42459
G1 X46.968 Y49.513 E73.42602
G1 X64.684 Y67.229 E75.02285
G1 X63.411 Y67.229 E75.10398
G1 X46.853 Y50.671 E76.59643
G1 X46.851 Y51.942 E76.67744
G1 X62.138 Y67.229 E78.05532
G1 X60.865 Y67.229 E78.13646
G1 X46.85 Y53.214 E79.39969
G1 X46.85 Y53.385 E79.41059
G1 X46.857 Y53.559 E79.42169
G1 X46.887 Y53.988 E79.4491
G1 X46.935 Y54.326 E79.47086
G1 X47.002 Y54.638 E79.4912
G1 X59.592 Y67.228 E80.62599
G1 X58.319 Y67.228 E80.70712
G1 X47.178 Y56.087 E81.71131
G1 X47.138 Y56.694 E81.75008
G1 X47.035 Y57.217 E81.78406
G1 X57.046 Y67.228 E82.68639
G1 X55.773 Y67.228 E82.76753
G1 X46.863 Y58.318 E83.57063
G1 X46.854 Y58.466 E83.58008
G1 X46.852 Y59.58 E83.65108
G1 X54.5 Y67.228 E84.34043
G1 X53.228 Y67.228 E84.4215
G1 X46.85 Y60.851 E84.99633
G1 X46.85 Y61.385 E85.03036
G1 X46.857 Y61.559 E85.04146
G1 X46.887 Y61.988 E85.06887
G1 X46.915 Y62.189 E85.08181
G1 X51.893 Y67.166 E85.53045
G1 X51.877 Y67.165 E85.53147
G1 X51.58 Y67.107 E85.55076
G1 X51.289 Y67.031 E85.56993
G1 X50.739 Y66.839 E85.60706
G1 X50.683 Y66.814 E85.61097
G1 X50.338 Y66.641 E85.63556
G1 X50.081 Y66.493 E85.65447
G1 X49.85 Y66.338 E85.6722
G1 X49.595 Y66.141 E85.69273
G1 X47.924 Y64.471 E85.8433
G0 F7200 X47.948 Y64.502
G1 F1125 X48.186 Y64.772 E85.86624
G1 X48.303 Y64.896 E85.87711
G1 X49.177 Y65.77 E85.95589
G1 X49.303 Y65.888 E85.96689
G1 X49.589 Y66.137 E85.99106
G1 X49.595 Y66.141 E85.99152
G0 F600 X49.595 Y66.141 Z0.7
G0 F7200 X51.251 Y67.204
;TIME_ELAPSED:87.082485
;LAYER:-3
;TYPE:SUPPORT-INTERFACE
G1 F1500 X51.539 Y67.279 E85.99909
G1 X52.149 Y67.375 E86.01482
G1 X52.668 Y67.405 E86.02806
G1 X67.479 Y67.398 E86.40522
G1 X68.262 Y67.32 E86.42525
G1 X68.747 Y67.2 E86.43798
G1 X51.239 Y67.2 E86.88382
G1 X50.681 Y67.006 E86.89886
G1 X50.363 Y66.85 E86.90788
G1 X69.619 Y66.85 E87.39823
G1 X70.04 Y66.624 E87.4104
G1 X70.211 Y66.5 E87.41577
G1 X49.777 Y66.5 E87.93612
G1 X49.753 Y66.485 E87.93684
G1 X49.345 Y66.15 E87.95029
G1 X70.662 Y66.15 E88.49312
G1 X70.924 Y65.916 E88.50206
G1 X71.04 Y65.8 E88.50624
G1 X48.965 Y65.8 E89.06838
G1 X48.611 Y65.45 E89.08105
G1 X71.39 Y65.45 E89.66112
G1 X71.74 Y65.1 E89.67372
G1 X48.258 Y65.1 E90.27169
G1 X48.18 Y65.022 E90.27449
G1 X47.935 Y64.75 E90.28382
G1 X72.062 Y64.75 E90.89821
G1 X72.198 Y64.599 E90.90338
G1 X72.349 Y64.4 E90.90974
G1 X47.656 Y64.4 E91.53854
G1 X47.456 Y64.123 E91.54724
G1 X47.416 Y64.05 E91.54936
G1 X72.577 Y64.05 E92.19008
G1 X72.709 Y63.839 E92.19642
G1 X72.777 Y63.7 E92.20036
G1 X47.228 Y63.7 E92.85096
G1 X47.119 Y63.496 E92.85685
G1 X47.063 Y63.35 E92.86083
G1 X72.943 Y63.35 E93.51986
G1 X73.064 Y63 E93.52929
G1 X46.931 Y63 E94.19476
G1 X46.903 Y62.925 E94.1968
G1 X46.835 Y62.65 E94.20402
G1 X73.17 Y62.65 E94.87463
G1 X73.2 Y62.538 E94.87758
G1 X73.237 Y62.3 E94.88372
G1 X46.754 Y62.3 E95.5581
G1 X46.719 Y61.95 E95.56706
G1 X73.292 Y61.95 E96.24373
G1 X73.296 Y61.925 E96.24438
G1 X73.314 Y61.6 E96.25267
G1 X46.684 Y61.6 E96.93079
G1 X46.681 Y61.56 E96.93182
G1 X46.68 Y61.25 E96.93971
G1 X73.325 Y61.25 E97.61822
G1 X73.324 Y60.9 E97.62713
G1 X46.679 Y60.9 E98.30564
G1 X46.678 Y60.55 E98.31455
G1 X73.323 Y60.55 E98.99306
G1 X73.323 Y60.2 E99.00198
G1 X46.677 Y60.2 E99.68051
G1 X46.676 Y59.85 E99.68942
G1 X73.322 Y59.85 E100.36796
G1 X73.321 Y59.5 E100.37687
G1 X46.676 Y59.5 E101.05538
G1 X46.676 Y59.15 E101.06429
G1 X73.32 Y59.15 E101.74278
G1 X73.319 Y58.8 E101.75169
G1 X46.675 Y58.8 E102.43017
G1 X46.675 Y58.588 E102.43557
G1 X46.683 Y58.45 E102.43909
G1 X73.319 Y58.45 E103.11737
G1 X73.318 Y58.433 E103.11781
G1 X73.285 Y58.1 E103.12633
G1 X46.703 Y58.1 E103.80323
G1 X46.704 Y58.074 E103.8039
G1 X46.756 Y57.75 E103.81225
G1 X73.25 Y57.75 E104.48692
G1 X73.24 Y57.658 E104.48927
G1 X73.188 Y57.4 E104.49597
G1 X46.814 Y57.4 E105.16758
G1 X46.886 Y57.05 E105.17668
G1 X73.117 Y57.05 E105.84465
G1 X73.046 Y56.7 E105.85374
G1 X46.959 Y56.7 E106.51804
G1 X46.964 Y56.673 E106.51874
G1 X46.986 Y56.35 E106.52699
G1 X73.016 Y56.35 E107.18984
G1 X72.995 Y56 E107.19876
G1 X47.005 Y56 E107.86059
G1 X46.984 Y55.65 E107.86952
G1 X73.014 Y55.65 E108.53237
G1 X73.036 Y55.326 E108.54064
G1 X73.041 Y55.3 E108.54131
G1 X46.954 Y55.3 E109.20561
G1 X46.883 Y54.95 E109.21471
G1 X73.114 Y54.95 E109.88268
G1 X73.187 Y54.6 E109.89178
G1 X46.812 Y54.6 E110.56341
G1 X46.76 Y54.341 E110.57014
G1 X46.75 Y54.25 E110.57247
G1 X73.245 Y54.25 E111.24716
G1 X73.296 Y53.925 E111.25554
G1 X73.297 Y53.9 E111.25618
G1 X46.715 Y53.9 E111.93308
G1 X46.682 Y53.56 E111.94178
G1 X46.681 Y53.55 E111.94204
G1 X73.317 Y53.55 E112.62032
G1 X73.325 Y53.411 E112.62386
G1 X73.325 Y53.2 E112.62924
G1 X46.681 Y53.2 E113.30772
G1 X46.68 Y52.85 E113.31663
G1 X73.324 Y52.85 E113.99512
G1 X73.323 Y52.5 E114.00403
G1 X46.679 Y52.5 E114.68251
G1 X46.678 Y52.15 E114.69142
G1 X73.323 Y52.15 E115.36993
G1 X73.322 Y51.8 E115.37885
G1 X46.677 Y51.8 E116.05736
G1 X46.677 Y51.45 E116.06627
G1 X73.321 Y51.45 E116.74475
G1 X73.32 Y51.1 E116.75367
G1 X46.676 Y51.1 E117.43215
G1 X46.675 Y50.75 E117.44106
G1 X73.319 Y50.75 E118.11955
G1 X73.318 Y50.433 E118.12762
G1 X73.315 Y50.4 E118.12846
G1 X46.686 Y50.4 E118.80656
G1 X46.704 Y50.074 E118.81488
G1 X46.708 Y50.05 E118.8155
G1 X73.28 Y50.05 E119.49215
G1 X73.245 Y49.7 E119.50111
G1 X46.763 Y49.7 E120.17546
G1 X46.801 Y49.459 E120.18168
G1 X46.83 Y49.35 E120.18455
G1 X73.165 Y49.35 E120.85516
G1 X73.096 Y49.074 E120.86241
G1 X73.068 Y49 E120.86442
G1 X46.936 Y49 E121.52987
G1 X47.057 Y48.65 E121.5393
G1 X72.936 Y48.65 E122.1983
G1 X72.878 Y48.499 E122.20242
G1 X72.771 Y48.3 E122.20818
G1 X47.222 Y48.3 E122.85878
G1 X47.291 Y48.16 E122.86275
G1 X47.423 Y47.95 E122.86907
G1 X72.583 Y47.95 E123.50976
G1 X72.543 Y47.876 E123.5119
G1 X72.343 Y47.6 E123.52058
G1 X47.65 Y47.6 E124.14938
G1 X47.794 Y47.41 E124.15546
G1 X47.937 Y47.25 E124.16092
G1 X72.065 Y47.25 E124.77533
G1 X71.815 Y46.973 E124.78484
G1 X71.742 Y46.9 E124.78747
G1 X48.26 Y46.9 E125.38543
G1 X48.61 Y46.55 E125.39803
G1 X71.389 Y46.55 E125.9781
G1 X71.036 Y46.2 E125.99075
G1 X48.96 Y46.2 E126.55292
G1 X49.076 Y46.084 E126.55709
G1 X49.338 Y45.85 E126.56604
G1 X70.656 Y45.85 E127.1089
G1 X70.246 Y45.514 E127.1224
G1 X70.224 Y45.5 E127.12306
G1 X49.789 Y45.5 E127.64343
G1 X49.962 Y45.375 E127.64887
G1 X50.381 Y45.15 E127.66098
G1 X69.638 Y45.15 E128.15135
G1 X69.317 Y44.992 E128.16046
G1 X68.763 Y44.8 E128.1754
G1 X51.253 Y44.8 E128.62128
G1 X51.738 Y44.68 E128.63401
G1 X52.521 Y44.602 E128.65404
G1 X67.331 Y44.594 E129.03118
G1 X67.85 Y44.624 E129.04442
G1 X68.46 Y44.72 E129.06014
G1 X68.748 Y44.795 E129.06772
G0 F600 X68.748 Y44.795 Z1.226
G0 F7200 X67.65 Y53.166
;TIME_ELAPSED:156.047582
;LAYER:0
M106 S255
;TYPE:WALL-INNER
;MESH:Insert_connector.stl
G1 F1800 X67.085 Y53.73 E129.09827
G1 X52.915 Y53.73 E129.64056
G1 X52.35 Y53.166 E129.67111
G1 X52.35 Y50.834 E129.76035
G1 X52.915 Y50.27 E129.79091
G1 X67.085 Y50.27 E130.33319
G1 X67.65 Y50.834 E130.36374
G1 X67.65 Y52.472 E130.42643
G0 F1620 X67.65 Y53.166
G0 F4320 X68 Y53.311
G1 F1800 X67.23 Y54.08 E130.46808
G1 X52.77 Y54.08 E131.02146
G1 X52 Y53.311 E131.06311
G1 X52 Y50.689 E131.16345
G1 X52.77 Y49.92 E131.2051
G1 X67.23 Y49.92 E131.75848
G1 X68 Y50.689 E131.80013
G1 X68 Y52.617 E131.87391
G0 F1620 X68 Y53.311
G0 F4320 X68.325 Y53.446
;TYPE:WALL-OUTER
G1 F1800 X67.365 Y54.405 E131.92584
G1 X52.635 Y54.405 E132.48956
G1 X51.675 Y53.446 E132.54149
G1 X51.675 Y50.554 E132.65216
G1 X52.635 Y49.595 E132.70409
G1 X67.365 Y49.595 E133.26781
G1 X68.325 Y50.554 E133.31974
G1 X68.325 Y52.752 E133.40386
G0 F1620 X68.325 Y53.446
G0 F4320 X68.184 Y53.587
G0 X67.991 Y53.392
G0 X67.31 Y53.024
;TYPE:SKIN
G1 F1800 X66.943 Y53.39 E133.42369
G1 X53.057 Y53.39 E133.95511
G1 X52.69 Y53.024 E133.97494
G1 X52.69 Y50.976 E134.05332
G1 X53.057 Y50.61 E134.07316
G1 X66.943 Y50.61 E134.60457
G1 X67.31 Y50.976 E134.62441
