;FLAVOR:Marlin
;TIME:1373
;Filament used: 0.755932m
;Layer height: 0.175
;MINX:48.782
;MINY:51.082
;MINZ:0.306
;MAXX:70.567
;MAXY:69.396
;MAXZ:19.295
;Generated with Cura_SteamEngine 4.6.1
M140 S70
M105
M190 S70
M104 S235
M105
M109 S235
M82 ;absolute extrusion mode
G21;(metric values)
G90;(absolute positioning)
M82;(set extruder to absolute mode)
M107;(start with the fan off)
G28;(Home the printer)
G92 E0;(Reset the extruder to 0)
G0 Z5 E5 F500;(Move up and prime the nozzle)
G0 X-1 Z0;(Move outside the printable area)
G1 Y60 E8 F500;(Draw a priming/wiping line to the rear)
G1 X-1;(Move a little closer to the print area)
G1 Y10 E16 F500;(draw more priming/wiping)
G1 E15 F250;(Small retract)
G92 E0;(Zero the extruder)
G92 E0
G92 E0
G1 F2400 E-4.5
;LAYER_COUNT:105
;LAYER:-5
M107
G0 F7200 X50.427 Y52.991 Z0.306
;TYPE:SUPPORT-INTERFACE
G1 F2400 E0
G1 F1125 X50.505 Y52.919 E0.0108
G1 X50.798 Y52.662 E0.05047
G1 X51.013 Y52.495 E0.07818
G1 X51.244 Y52.339 E0.10655
G1 X51.512 Y52.181 E0.13821
G1 X51.769 Y52.051 E0.16752
G1 X52.039 Y51.935 E0.19743
G1 X52.295 Y51.843 E0.22512
G1 X52.587 Y51.759 E0.25604
G1 X52.848 Y51.703 E0.28321
G1 X53.168 Y51.655 E0.31614
G1 X53.636 Y51.619 E0.36391
G1 X53.828 Y51.612 E0.38347
G1 X57.306 Y51.612 E0.73744
G1 X57.971 Y51.57 E0.80526
G1 X58.445 Y51.488 E0.85422
G1 X58.864 Y51.396 E0.89788
G1 X59.181 Y51.349 E0.93049
G1 X59.776 Y51.308 E0.99119
G1 X59.827 Y51.31 E0.99639
G1 X60.203 Y51.334 E1.03473
G1 X60.501 Y51.371 E1.0653
G1 X60.785 Y51.426 E1.09474
G1 X61.076 Y51.502 E1.12535
G1 X61.334 Y51.586 E1.15296
G1 X61.613 Y51.697 E1.18352
G1 X61.871 Y51.819 E1.21257
G1 X62.015 Y51.898 E1.22929
G1 X62.621 Y52.184 E1.29749
G1 X63.27 Y52.396 E1.36697
G1 X63.935 Y52.524 E1.4359
G1 X64.298 Y52.557 E1.47299
G1 X64.893 Y52.594 E1.53367
G1 X65.152 Y52.627 E1.56024
G1 X65.57 Y52.701 E1.60344
G1 X65.809 Y52.758 E1.62845
G1 X66.144 Y52.858 E1.66403
G1 X66.416 Y52.956 E1.69346
G1 X66.784 Y53.108 E1.73398
G1 X67.042 Y53.234 E1.7632
G1 X67.285 Y53.373 E1.79169
G1 X67.539 Y53.541 E1.82269
G1 X67.766 Y53.71 E1.85149
G1 X67.979 Y53.893 E1.88007
G1 X68.203 Y54.111 E1.91188
G1 X68.387 Y54.313 E1.93969
G1 X68.595 Y54.575 E1.97374
G1 X68.845 Y54.916 E2.01677
G1 X69.022 Y55.171 E2.04837
G1 X69.143 Y55.376 E2.07259
G1 X69.531 Y56.102 E2.15637
G1 X69.647 Y56.356 E2.18479
G1 X69.754 Y56.638 E2.21549
G1 X69.831 Y56.888 E2.24211
G1 X70.084 Y57.987 E2.35689
G1 X70.16 Y58.449 E2.40454
G1 X70.184 Y58.638 E2.42393
G1 X70.201 Y58.823 E2.44284
G1 X70.235 Y59.404 E2.50207
G1 X70.241 Y59.404 E2.50268
G1 X70.286 Y60.016 E2.56514
G1 X70.295 Y60.268 E2.5908
G1 X70.311 Y60.53 E2.61752
G1 X70.335 Y60.795 E2.6446
G1 X70.341 Y61.078 E2.67341
G1 X70.336 Y61.213 E2.68716
G1 X70.339 Y61.712 E2.73794
G1 X70.346 Y61.83 E2.74998
G1 X70.343 Y62.099 E2.77736
G1 X70.313 Y62.441 E2.8123
G1 X70.301 Y62.517 E2.82013
G1 X70.242 Y63.026 E2.87228
G1 X70.232 Y63.186 E2.88859
G1 X70.225 Y64.129 E2.98457
G1 X70.21 Y64.374 E3.00955
G1 X70.181 Y64.618 E3.03456
G1 X70.106 Y65.109 E3.08511
G1 X70.022 Y65.506 E3.12641
G1 X69.952 Y65.759 E3.15313
G1 X69.789 Y66.219 E3.2028
G1 X69.746 Y66.313 E3.21332
G1 X69.565 Y66.682 E3.25515
G1 X69.439 Y66.899 E3.28069
G1 X69.258 Y67.173 E3.31411
G1 X69.094 Y67.389 E3.34171
G1 X68.908 Y67.605 E3.37072
G1 X68.69 Y67.828 E3.40246
G1 X68.489 Y68.008 E3.42992
G1 X68.258 Y68.191 E3.45992
G1 X68.019 Y68.355 E3.48942
G1 X67.751 Y68.517 E3.52129
G1 X67.518 Y68.639 E3.54806
G1 X67.238 Y68.763 E3.57922
G1 X66.978 Y68.859 E3.60743
G1 X66.693 Y68.944 E3.6377
G1 X66.407 Y69.01 E3.66757
G1 X66.124 Y69.057 E3.69677
G1 X65.843 Y69.085 E3.72551
G1 X64.989 Y69.116 E3.81248
G1 X64.483 Y69.159 E3.86417
G1 X64.266 Y69.168 E3.88627
G1 X59.889 Y69.171 E4.33175
G1 X59.701 Y69.165 E4.35089
G1 X59.358 Y69.143 E4.38587
G1 X59.048 Y69.104 E4.41767
G1 X58.777 Y69.053 E4.44574
G1 X58.487 Y68.978 E4.47622
G1 X58.226 Y68.892 E4.50419
G1 X57.936 Y68.777 E4.53594
G1 X57.692 Y68.662 E4.5634
G1 X57.429 Y68.517 E4.59396
G1 X57.184 Y68.36 E4.62358
G1 X56.95 Y68.186 E4.65325
G1 X56.592 Y67.881 E4.70112
G1 X56.485 Y67.782 E4.71596
G1 X56.327 Y67.61 E4.73973
G1 X55.851 Y67.138 E4.80795
G1 X55.308 Y66.722 E4.87757
G1 X54.719 Y66.379 E4.94694
G1 X54.091 Y66.112 E5.01639
G1 X53.437 Y65.928 E5.08554
G1 X53.064 Y65.864 E5.12406
G1 X52.718 Y65.798 E5.1599
G1 X52.428 Y65.722 E5.19042
G1 X52.162 Y65.636 E5.21887
G1 X51.899 Y65.53 E5.24773
G1 X51.636 Y65.405 E5.27736
G1 X51.38 Y65.264 E5.30711
G1 X51.142 Y65.112 E5.33585
G1 X50.888 Y64.923 E5.36807
G1 X50.535 Y64.62 E5.41542
G1 X50.412 Y64.507 E5.43242
G1 X50.309 Y64.396 E5.44783
G1 X50.058 Y64.11 E5.48656
G1 X49.891 Y63.895 E5.51427
G1 X49.734 Y63.662 E5.54286
G1 X49.577 Y63.396 E5.5743
G1 X49.447 Y63.139 E5.60361
G1 X49.331 Y62.869 E5.63352
G1 X49.239 Y62.613 E5.6612
G1 X49.155 Y62.321 E5.69213
G1 X49.099 Y62.06 E5.7193
G1 X49.051 Y61.74 E5.75223
G1 X49.014 Y61.262 E5.80102
G1 X49.008 Y61.094 E5.81813
G1 X49.012 Y56.265 E6.30961
G1 X49.036 Y55.888 E6.34806
G1 X49.073 Y55.59 E6.37862
G1 X49.128 Y55.306 E6.40806
G1 X49.204 Y55.015 E6.43867
G1 X49.288 Y54.757 E6.46629
G1 X49.399 Y54.478 E6.49685
G1 X49.521 Y54.22 E6.52589
G1 X49.667 Y53.957 E6.55651
G1 X49.804 Y53.742 E6.58245
G1 X50.002 Y53.476 E6.6162
G1 X50.252 Y53.184 E6.65533
G0 F1012.5 X50.312 Y53.115
G0 X50.427 Y52.991
G0 F7200 X51.2 Y52.368
G1 F1125 X51.2 Y65.149 E7.95612
G0 F7200 X52.8 Y65.813
G1 F1125 X52.8 Y51.713 E9.39117
G0 F7200 X54.4 Y51.612
G1 F1125 X54.4 Y66.243 E10.88025
G0 F7200 X56 Y67.285
G1 F1125 X56 Y51.612 E12.47539
G0 F7200 X57.6 Y51.593
G1 F1125 X57.6 Y68.611 E14.20741
G0 F7200 X59.2 Y69.123
G1 F1125 X59.2 Y51.347 E16.01658
G0 F7200 X60.8 Y51.43
G1 F1125 X60.8 Y69.171 E17.82219
G0 F7200 X62.4 Y69.17
G1 F1125 X62.4 Y52.08 E19.56154
G0 F7200 X64 Y52.53
G1 F1125 X64 Y69.169 E21.25499
G0 F7200 X65.6 Y69.094
G1 F1125 X65.6 Y52.709 E22.92259
G0 F7200 X67.2 Y53.325
G1 F1125 X67.2 Y68.778 E24.49534
G0 F7200 X68.8 Y67.716
M104 S230
G1 F1125 X68.8 Y54.855 E25.80428
G0 F7200 X49.6 Y54.077
G1 F1125 X49.6 Y63.434 E26.7566
G0 F600 X49.6 Y63.434 Z0.525
G0 F7200 X49.7 Y63.701
;TIME_ELAPSED:42.213039
;LAYER:-4
M140 S70
;TYPE:SUPPORT
G1 F1125 X51.216 Y65.217 E26.89324
G1 X51.112 Y65.151 E26.90109
G1 X50.859 Y64.963 E26.92118
G1 X50.502 Y64.657 E26.95115
G1 X50.361 Y64.526 E26.96342
G1 X50.279 Y64.437 E26.97113
G1 X50.024 Y64.148 E26.99569
G1 X49.853 Y63.928 E27.01345
G0 F7200 X51.216 Y65.217
G1 F1125 X51.364 Y65.311 E27.02463
G1 X51.599 Y65.442 E27.04177
G1 X51.874 Y65.572 E27.06116
G1 X52.149 Y65.681 E27.08001
G1 X52.41 Y65.768 E27.09755
G1 X52.714 Y65.847 E27.11757
G1 X53.055 Y65.912 E27.13969
G1 X53.21 Y65.938 E27.14971
G1 X48.998 Y61.726 E27.52936
G1 X48.964 Y61.265 E27.55882
G1 X48.957 Y61.093 E27.56979
G1 X48.957 Y60.413 E27.61313
G1 X55.4 Y66.855 E28.19382
G1 X55.817 Y67.175 E28.22732
G1 X56.289 Y67.643 E28.26969
G1 X56.456 Y67.824 E28.28538
G1 X56.56 Y67.919 E28.29436
G1 X56.905 Y68.213 E28.32325
G1 X57.161 Y68.404 E28.34361
G1 X57.407 Y68.561 E28.3622
G1 X57.663 Y68.702 E28.38083
G1 X57.924 Y68.826 E28.39925
G1 X58.198 Y68.935 E28.41804
G1 X58.474 Y69.025 E28.43655
G1 X58.767 Y69.101 E28.45584
G1 X58.953 Y69.135 E28.46789
G1 X48.959 Y59.141 E29.36869
G1 X48.96 Y57.87 E29.4497
G1 X60.31 Y69.22 E30.47273
G1 X61.582 Y69.219 E30.5538
G1 X48.961 Y56.598 E31.69139
G1 X48.962 Y56.262 E31.7128
G1 X48.986 Y55.879 E31.73726
G1 X49.022 Y55.591 E31.75576
G1 X49.054 Y55.418 E31.76697
G1 X62.854 Y69.217 E33.01078
G1 X64.126 Y69.217 E33.09185
G1 X49.356 Y54.447 E34.42314
G1 X49.481 Y54.189 E34.44141
G1 X49.623 Y53.932 E34.46013
G1 X49.762 Y53.712 E34.47671
G1 X49.818 Y53.636 E34.48273
G1 X65.333 Y69.152 E35.88121
G1 X65.85 Y69.133 E35.91418
G1 X66.137 Y69.105 E35.93256
G1 X66.411 Y69.06 E35.95026
G1 X66.494 Y69.04 E35.9557
G1 X50.401 Y52.947 E37.40624
G1 X50.48 Y52.873 E37.41313
G1 X50.758 Y52.628 E37.43675
G1 X50.979 Y52.457 E37.45456
G1 X51.102 Y52.375 E37.46398
G1 X67.45 Y68.723 E38.9375
G1 X67.538 Y68.684 E38.94364
G1 X67.778 Y68.558 E38.96091
G1 X68.054 Y68.392 E38.98144
G1 X68.254 Y68.254 E38.99693
G1 X51.928 Y51.928 E40.46846
G1 X52.019 Y51.888 E40.4748
G1 X52.293 Y51.789 E40.49337
G1 X52.562 Y51.712 E40.5112
G1 X52.842 Y51.652 E40.52945
G1 X52.914 Y51.641 E40.53409
G1 X68.928 Y67.655 E41.97751
G1 X68.948 Y67.634 E41.97936
G1 X69.128 Y67.424 E41.99698
G1 X69.302 Y67.194 E42.01537
G1 X69.475 Y66.934 E42.03527
G0 F7200 X69.477 Y66.931
G1 F1125 X54.107 Y51.562 E43.42059
G1 X55.38 Y51.562 E43.50173
G1 X69.892 Y66.074 E44.80976
G1 X69.998 Y65.775 E44.82998
G1 X70.072 Y65.504 E44.84788
G1 X70.151 Y65.132 E44.87212
G1 X70.161 Y65.07 E44.87612
G1 X56.653 Y51.562 E46.09366
G1 X57.303 Y51.561 E46.13509
G1 X57.888 Y51.524 E46.17245
G1 X70.276 Y63.912 E47.28903
G1 X70.281 Y63.187 E47.33524
G1 X70.291 Y63.03 E47.34527
G1 X70.33 Y62.693 E47.36689
G1 X58.967 Y51.33 E48.39109
G1 X59.17 Y51.299 E48.40418
G1 X59.774 Y51.258 E48.44276
G1 X59.827 Y51.26 E48.44614
G1 X60.192 Y51.282 E48.46945
G1 X70.387 Y61.477 E49.38837
G1 X70.385 Y61.214 E49.40513
G1 X70.39 Y61.08 E49.41368
G1 X70.384 Y60.809 E49.43095
G1 X70.359 Y60.526 E49.44906
G1 X70.343 Y60.266 E49.46566
G1 X70.34 Y60.157 E49.47261
G1 X62.036 Y51.854 E50.22105
G1 X62.639 Y52.137 E50.2635
G1 X63.281 Y52.347 E50.30655
G1 X63.925 Y52.47 E50.34834
G1 X70.247 Y58.792 E50.91817
G1 X70.231 Y58.619 E50.92924
G1 X70.209 Y58.443 E50.94055
G1 X70.137 Y58.001 E50.96909
G1 X69.961 Y57.233 E51.01931
G1 X65.337 Y52.609 E51.43609
G1 X65.573 Y52.651 E51.45136
G1 X65.828 Y52.711 E51.46806
G1 X66.166 Y52.813 E51.49056
G1 X66.445 Y52.914 E51.50947
G1 X66.802 Y53.06 E51.53406
G1 X67.057 Y53.186 E51.55219
G1 X67.313 Y53.332 E51.57097
G1 X67.372 Y53.371 E51.57548
G1 X68.877 Y54.876 E51.71113
G0 F7200 X68.628 Y54.537
G1 F1125 X68.416 Y54.271 E51.73281
G1 X68.243 Y54.08 E51.74923
G1 X68.018 Y53.861 E51.76924
G1 X67.791 Y53.667 E51.78828
G1 X67.568 Y53.501 E51.80599
G1 X67.372 Y53.371 E51.82098
G0 F600 X67.372 Y53.371 Z0.7
G0 F7200 X59.775 Y51.082
;TIME_ELAPSED:63.758017
;LAYER:-3
;TYPE:SUPPORT-INTERFACE
G1 F1500 X59.512 Y51.1 E51.8277
G1 X59.981 Y51.1 E51.83964
G1 X60.541 Y51.149 E51.85395
G1 X61.137 Y51.284 E51.86952
G1 X61.595 Y51.45 E51.88192
G1 X53.013 Y51.45 E52.10046
G1 X52.811 Y51.48 E52.10566
G1 X52.244 Y51.623 E52.12055
G1 X51.794 Y51.8 E52.13286
G1 X62.344 Y51.8 E52.40152
G1 X62.704 Y51.974 E52.4117
G1 X63.244 Y52.15 E52.42616
G1 X51.124 Y52.15 E52.7348
G1 X50.649 Y52.493 E52.74972
G1 X50.642 Y52.5 E52.74997
G1 X65.671 Y52.5 E53.13268
G1 X65.861 Y52.538 E53.13761
G1 X66.369 Y52.696 E53.15116
G1 X66.75 Y52.85 E53.16162
G1 X50.251 Y52.85 E53.58177
G1 X49.945 Y53.2 E53.59361
G1 X67.432 Y53.2 E54.03891
G1 X67.902 Y53.53 E54.05353
G1 X67.924 Y53.55 E54.05429
G1 X49.667 Y53.55 E54.5192
G1 X49.626 Y53.604 E54.52093
G1 X49.45 Y53.9 E54.5297
G1 X68.308 Y53.9 E55.00991
G1 X68.358 Y53.946 E55.01164
G1 X68.616 Y54.25 E55.0218
G1 X49.264 Y54.25 E55.51459
G1 X49.111 Y54.6 E55.52432
G1 X68.891 Y54.6 E56.02801
G1 X69.141 Y54.95 E56.03896
G1 X48.998 Y54.95 E56.5519
G1 X48.909 Y55.252 E56.55992
G1 X48.902 Y55.3 E56.56115
G1 X69.35 Y55.3 E57.08186
G1 X69.542 Y55.65 E57.09202
G1 X48.847 Y55.65 E57.61902
G1 X48.812 Y55.87 E57.62469
G1 X48.805 Y56 E57.62801
G1 X69.732 Y56 E58.16091
G1 X69.878 Y56.35 E58.17056
G1 X48.785 Y56.35 E58.70769
G1 X48.783 Y56.384 E58.70856
G1 X48.783 Y56.7 E58.71661
G1 X70.004 Y56.7 E59.257
G1 X70.099 Y57.05 E59.26623
G1 X48.783 Y57.05 E59.80904
G1 X48.783 Y57.4 E59.81795
G1 X70.183 Y57.4 E60.3629
G1 X70.262 Y57.75 E60.37203
G1 X48.783 Y57.75 E60.91899
G1 X48.783 Y58.1 E60.9279
G1 X70.33 Y58.1 E61.47659
G1 X70.383 Y58.45 E61.48561
G1 X48.783 Y58.45 E62.03565
G1 X48.783 Y58.8 E62.04456
G1 X70.421 Y58.8 E62.59557
G1 X70.446 Y59.15 E62.6045
G1 X48.783 Y59.15 E63.15615
G1 X48.782 Y59.5 E63.16506
G1 X70.474 Y59.5 E63.71744
G1 X70.493 Y59.732 E63.72337
G1 X70.5 Y59.85 E63.72638
G1 X48.782 Y59.85 E64.27942
G1 X48.782 Y60.2 E64.28834
G1 X70.518 Y60.2 E64.84184
G1 X70.52 Y60.256 E64.84327
G1 X70.543 Y60.55 E64.85078
G1 X48.782 Y60.55 E65.40492
G1 X48.782 Y60.9 E65.41383
G1 X70.561 Y60.9 E65.96843
G1 X70.563 Y61.25 E65.97734
G1 X48.792 Y61.25 E66.53173
G1 X48.814 Y61.6 E66.54066
G1 X70.564 Y61.6 E67.09452
G1 X70.564 Y61.704 E67.09717
G1 X70.567 Y61.95 E67.10344
G1 X48.852 Y61.95 E67.6564
G1 X48.874 Y62.092 E67.66006
G1 X48.926 Y62.3 E67.66552
G1 X70.547 Y62.3 E68.2161
G1 X70.509 Y62.65 E68.22506
G1 X49.014 Y62.65 E68.77243
G1 X49.018 Y62.664 E68.7728
G1 X49.15 Y63 E68.78199
G1 X70.471 Y63 E69.32493
G1 X70.467 Y63.045 E69.32608
G1 X70.459 Y63.35 E69.33385
G1 X49.304 Y63.35 E69.87255
G1 X49.496 Y63.7 E69.88272
G1 X70.451 Y63.7 E70.41633
G1 X70.442 Y64.05 E70.42525
G1 X49.736 Y64.05 E70.95252
G1 X49.888 Y64.259 E70.9591
G1 X50.013 Y64.4 E70.9639
G1 X70.432 Y64.4 E71.48387
G1 X70.385 Y64.75 E71.49286
G1 X50.349 Y64.75 E72.00307
G1 X50.748 Y65.1 E72.01659
G1 X70.333 Y65.1 E72.51532
G1 X70.262 Y65.45 E72.52441
G1 X51.269 Y65.45 E73.00806
G1 X51.53 Y65.604 E73.01578
G1 X51.977 Y65.8 E73.02821
G1 X70.163 Y65.8 E73.49131
G1 X70.053 Y66.15 E73.50065
G1 X53.394 Y66.15 E73.92487
G1 X54.015 Y66.325 E73.9413
G1 X54.428 Y66.5 E73.95272
G1 X69.897 Y66.5 E74.34664
G1 X69.77 Y66.774 E74.35433
G1 X69.722 Y66.85 E74.35662
G1 X55.08 Y66.85 E74.72947
G1 X55.182 Y66.909 E74.73247
G1 X55.56 Y67.2 E74.74462
G1 X69.506 Y67.2 E75.09975
G1 X69.451 Y67.289 E75.10242
G1 X69.24 Y67.55 E75.11096
G1 X55.939 Y67.55 E75.44967
G1 X56.284 Y67.9 E75.46219
G1 X68.926 Y67.9 E75.78411
G1 X68.64 Y68.175 E75.79422
G1 X68.539 Y68.25 E75.79742
G1 X56.679 Y68.25 E76.09943
G1 X56.8 Y68.355 E76.10351
G1 X57.071 Y68.556 E76.1121
G1 X57.145 Y68.6 E76.1143
G1 X68.044 Y68.6 E76.39184
G1 X67.616 Y68.842 E76.40436
G1 X67.35 Y68.95 E76.41167
G1 X57.793 Y68.95 E76.65503
G1 X58.148 Y69.104 E76.66489
G1 X58.725 Y69.272 E76.68019
G1 X58.905 Y69.3 E76.68483
G1 X65.934 Y69.3 E76.86382
G1 X65.86 Y69.31 E76.86572
G1 X65.213 Y69.333 E76.88221
G1 X64.503 Y69.384 E76.90034
G1 X59.881 Y69.396 E77.01804
G1 X59.331 Y69.366 E77.03206
G0 F600 X59.331 Y69.366 Z0.898
G0 F7200 X53.783 Y56.388
;TIME_ELAPSED:104.373602
;LAYER:-2
M106 S255
;TYPE:SUPPORT
G1 F820.2 X59.49 Y56.387 E77.19649
G1 X59.601 Y56.276 E77.20101
G1 X59.601 Y56.982 E77.22135
G1 X59.951 Y57.332 E77.23561
G1 X64.297 Y57.332 E77.36083
G1 X64.556 Y57.361 E77.36834
G1 X64.767 Y57.427 E77.37471
G1 X64.934 Y57.71 E77.38418
G1 X65.023 Y57.777 E77.38739
G1 X65.147 Y58.081 E77.39684
G1 X65.24 Y58.196 E77.40111
G1 X65.303 Y58.828 E77.41941
G1 X65.42 Y58.993 E77.42523
G1 X65.439 Y59.33 E77.43496
G1 X65.451 Y59.359 E77.43586
G1 X65.44 Y59.701 E77.44572
G1 X65.487 Y59.816 E77.4493
G1 X65.442 Y60.169 E77.45955
G1 X65.523 Y60.352 E77.46532
G1 X65.461 Y60.682 E77.47499
G1 X65.567 Y61.056 E77.48619
G1 X65.478 Y61.385 E77.49601
G1 X65.517 Y61.603 E77.50239
G1 X65.5 Y61.564 E77.50362
G1 X65.336 Y61.354 E77.5113
G1 X65.294 Y60.985 E77.522
G1 X64.936 Y60.664 E77.53585
G1 X64.707 Y60.663 E77.54245
G1 X64.489 Y60.561 E77.54938
G1 X62.962 Y60.553 E77.59338
G1 X62.961 Y60.479 E77.59551
G1 X62.515 Y60.182 E77.61095
G1 X61.637 Y60.546 E77.63833
G1 X59.705 Y60.539 E77.694
G1 X59.501 Y60.745 E77.70235
G1 X59.501 Y60.81 E77.70422
G1 X59.417 Y60.81 E77.70664
G1 X59.082 Y61.144 E77.72027
G1 X53.802 Y61.143 E77.8724
G1 X53.783 Y61.124 E77.87317
G1 X53.783 Y57.31 E77.98306
G0 F738.1 X53.783 Y56.388
G0 F7200 X53.958 Y58.325
G1 F820.2 X65.078 Y58.325 E78.30344
G0 F7200 X65.324 Y60.335
G1 F820.2 X65.324 Y60.463 E78.30713
G0 F7200 X65.285 Y60.658
G1 F820.2 X65.191 Y60.658 E78.30984
G0 F7200 X62.991 Y60.288
G1 F820.2 X62.991 Y57.507 E78.38997
G0 F7200 X60.658 Y57.507
G1 F820.2 X60.658 Y60.367 E78.47237
G0 F7200 X59.32 Y60.658
G1 F820.2 X53.957 Y60.658 E78.62688
G0 F7200 X55.992 Y60.968
G1 F820.2 X55.992 Y56.562 E78.75383
G0 F7200 X58.325 Y56.562
G1 F820.2 X58.325 Y60.968 E78.88077
G0 F600 X58.325 Y60.968 Z1.096
G0 F7200 X53.783 Y56.388
;TIME_ELAPSED:110.137770
;LAYER:-1
;TYPE:SUPPORT
G1 F809.3 X59.49 Y56.387 E79.0452
G1 X59.601 Y56.276 E79.04972
G1 X59.601 Y56.982 E79.07006
G1 X59.951 Y57.332 E79.08432
G1 X64.297 Y57.332 E79.20954
G1 X64.556 Y57.361 E79.21705
