;FLAVOR:Marlin
;TIME:2638
;Filament used: 0.739382m
;Layer height: 0.087
;MINX:48.782
;MINY:51.261
;MINZ:0.306
;MAXX:70.607
;MAXY:69.865
;MAXZ:19.19
;Generated with Cura_SteamEngine 4.6.1
M140 S70
M105
M190 S70
M104 S235
M105
M109 S235
M82 ;absolute extrusion mode
G21;(metric values)
G90;(absolute positioning)
M82;(set extruder to absolute mode)
M107;(start with the fan off)
G28;(Home the printer)
G92 E0;(Reset the extruder to 0)
G0 Z5 E5 F500;(Move up and prime the nozzle)
G0 X-1 Z0;(Move outside the printable area)
G1 Y60 E8 F500;(Draw a priming/wiping line to the rear)
G1 X-1;(Move a little closer to the print area)
G1 Y10 E16 F500;(draw more priming/wiping)
G1 E15 F250;(Small retract)
G92 E0;(Zero the extruder)
G92 E0
G92 E0
G1 F2400 E-4.5
;LAYER_COUNT:210
;LAYER:-8
M107
G0 F7200 X50.418 Y53.073 Z0.306
;TYPE:SUPPORT-INTERFACE
G1 F2400 E0
G1 F1125 X50.503 Y52.994 E0.01181
G1 X50.798 Y52.735 E0.05176
G1 X51.016 Y52.566 E0.07984
G1 X51.244 Y52.412 E0.10784
G1 X51.512 Y52.254 E0.1395
G1 X51.769 Y52.124 E0.16882
G1 X52.039 Y52.008 E0.19872
G1 X52.295 Y51.916 E0.22641
G1 X52.587 Y51.832 E0.25733
G1 X52.848 Y51.776 E0.2845
G1 X53.168 Y51.728 E0.31743
G1 X53.636 Y51.692 E0.36521
G1 X53.828 Y51.685 E0.38476
G1 X57.73 Y51.685 E0.78189
G1 X58.628 Y51.607 E0.87363
G1 X59.047 Y51.534 E0.91692
G1 X59.302 Y51.504 E0.94305
G1 X59.728 Y51.484 E0.98645
G1 X59.828 Y51.487 E0.99663
G1 X60.203 Y51.511 E1.03488
G1 X60.501 Y51.548 E1.06544
G1 X60.785 Y51.603 E1.09488
G1 X61.076 Y51.679 E1.12549
G1 X61.342 Y51.766 E1.15398
G1 X61.609 Y51.872 E1.18321
G1 X61.923 Y52.021 E1.21859
G1 X62.545 Y52.269 E1.28674
G1 X63.207 Y52.44 E1.35632
G1 X63.88 Y52.524 E1.42535
G1 X64.377 Y52.533 E1.47594
G1 X64.818 Y52.554 E1.52088
G1 X64.992 Y52.568 E1.53864
G1 X65.227 Y52.607 E1.56289
G1 X65.871 Y52.743 E1.62988
G1 X66.087 Y52.799 E1.65259
G1 X66.195 Y52.837 E1.66424
G1 X66.579 Y52.984 E1.70609
G1 X66.818 Y53.094 E1.73286
G1 X67.082 Y53.235 E1.76332
G1 X67.325 Y53.386 E1.79244
G1 X67.578 Y53.566 E1.82404
G1 X67.783 Y53.733 E1.85095
G1 X68.004 Y53.937 E1.88156
G1 X68.217 Y54.161 E1.91302
G1 X68.381 Y54.356 E1.93896
G1 X68.57 Y54.606 E1.97085
G1 X68.724 Y54.8 E1.99606
G1 X68.894 Y55.043 E2.02625
G1 X69.019 Y55.248 E2.05068
G1 X69.205 Y55.568 E2.08835
G1 X69.38 Y55.88 E2.12476
G1 X69.507 Y56.146 E2.15476
G1 X69.616 Y56.415 E2.1843
G1 X69.705 Y56.684 E2.21314
G1 X69.798 Y57.032 E2.2498
G1 X69.942 Y57.503 E2.29993
G1 X70.01 Y57.766 E2.32757
G1 X70.068 Y58.071 E2.35917
G1 X70.105 Y58.318 E2.38459
G1 X70.14 Y58.513 E2.40475
G1 X70.175 Y58.811 E2.43529
G1 X70.219 Y59.678 E2.52364
G1 X70.234 Y59.676 E2.52518
G1 X70.242 Y59.799 E2.53773
G1 X70.331 Y60.455 E2.60511
G1 X70.361 Y60.829 E2.64329
G1 X70.365 Y61.092 E2.67006
G1 X70.349 Y61.452 E2.70674
G1 X70.358 Y62.084 E2.77107
G1 X70.376 Y62.324 E2.79556
G1 X70.382 Y62.563 E2.81989
G1 X70.369 Y62.897 E2.85391
G1 X70.228 Y64.816 E3.04975
G1 X70.176 Y65.195 E3.08868
G1 X70.12 Y65.474 E3.11764
G1 X70.041 Y65.77 E3.14882
G1 X69.953 Y66.034 E3.17715
G1 X69.847 Y66.295 E3.20582
G1 X69.711 Y66.57 E3.23704
G1 X69.401 Y67.096 E3.29918
G1 X69.262 Y67.294 E3.3238
G1 X68.959 Y67.69 E3.37455
G1 X68.774 Y67.91 E3.40381
G1 X68.375 Y68.314 E3.4616
G1 X67.956 Y68.67 E3.51755
G1 X67.758 Y68.814 E3.54247
G1 X67.477 Y68.994 E3.57643
G1 X67.258 Y69.115 E3.6019
G1 X66.972 Y69.25 E3.63409
G1 X66.709 Y69.354 E3.66287
G1 X66.416 Y69.449 E3.69422
G1 X66.153 Y69.519 E3.72192
G1 X65.819 Y69.587 E3.75661
G1 X65.691 Y69.603 E3.76974
G1 X65.312 Y69.64 E3.80849
G1 X65.034 Y69.649 E3.8368
G1 X64.729 Y69.64 E3.86786
G1 X64.443 Y69.613 E3.8971
G1 X64.164 Y69.569 E3.92584
G1 X63.876 Y69.505 E3.95587
G1 X63.442 Y69.379 E4.00186
G1 X62.785 Y69.233 E4.07036
G1 X61.966 Y69.17 E4.15396
G1 X59.89 Y69.171 E4.36525
G1 X59.701 Y69.165 E4.38449
G1 X59.358 Y69.143 E4.41948
G1 X59.048 Y69.104 E4.45127
G1 X58.777 Y69.053 E4.47934
G1 X58.487 Y68.978 E4.50983
G1 X58.226 Y68.892 E4.53779
G1 X57.936 Y68.777 E4.56955
G1 X57.692 Y68.662 E4.597
G1 X57.431 Y68.518 E4.62734
G1 X57.184 Y68.36 E4.65718
G1 X56.95 Y68.186 E4.68686
G1 X56.592 Y67.881 E4.73472
G1 X56.494 Y67.79 E4.74833
G1 X56.393 Y67.683 E4.76331
G1 X56.256 Y67.53 E4.78421
G1 X55.781 Y67.059 E4.85229
G1 X55.239 Y66.643 E4.92183
G1 X54.65 Y66.3 E4.9912
G1 X54.021 Y66.033 E5.06075
G1 X53.367 Y65.848 E5.12992
G1 X53.155 Y65.812 E5.1518
G1 X52.701 Y65.725 E5.19885
G1 X52.411 Y65.649 E5.22936
G1 X52.151 Y65.564 E5.2572
G1 X51.874 Y65.454 E5.28754
G1 X51.615 Y65.331 E5.31672
G1 X51.357 Y65.188 E5.34674
G1 X51.138 Y65.049 E5.37314
G1 X50.872 Y64.851 E5.40689
G1 X50.518 Y64.547 E5.45438
G1 X50.396 Y64.435 E5.47123
G1 X50.317 Y64.35 E5.48305
G1 X50.058 Y64.055 E5.523
G1 X49.891 Y63.84 E5.55071
G1 X49.734 Y63.607 E5.5793
G1 X49.577 Y63.341 E5.61074
G1 X49.447 Y63.084 E5.64005
G1 X49.331 Y62.814 E5.66996
G1 X49.239 Y62.558 E5.69764
G1 X49.155 Y62.266 E5.72857
G1 X49.096 Y61.995 E5.7568
G1 X49.051 Y61.687 E5.78848
G1 X49.014 Y61.207 E5.83747
G1 X49.008 Y61.039 E5.85458
G1 X49.012 Y56.338 E6.33303
G1 X49.036 Y55.961 E6.37148
G1 X49.073 Y55.663 E6.40204
G1 X49.129 Y55.373 E6.4321
G1 X49.204 Y55.088 E6.46209
G1 X49.288 Y54.83 E6.48971
G1 X49.399 Y54.551 E6.52027
G1 X49.521 Y54.293 E6.54932
G1 X49.667 Y54.03 E6.57993
G1 X49.804 Y53.815 E6.60588
G1 X50.002 Y53.549 E6.63963
G1 X50.244 Y53.267 E6.67745
G0 F1012.5 X50.306 Y53.195
G0 X50.418 Y53.073
G0 F7200 X51.2 Y52.441
G1 F1125 X51.2 Y65.088 E7.96461
G0 F7200 X52.8 Y65.743
G1 F1125 X52.8 Y51.786 E9.3851
G0 F7200 X54.4 Y51.685
G1 F1125 X54.4 Y66.193 E10.86166
G0 F7200 X56 Y67.276
G1 F1125 X56 Y51.685 E12.44845
G0 F7200 X57.6 Y51.685
G1 F1125 X57.6 Y68.611 E14.17111
G0 F7200 X59.2 Y69.123
G1 F1125 X59.2 Y51.516 E15.96308
G0 F7200 X60.8 Y51.607
G1 F1125 X60.8 Y69.171 E17.75068
G0 F7200 X62.4 Y69.203
G1 F1125 X62.4 Y52.212 E19.47995
G0 F7200 X64 Y52.527
G1 F1125 X64 Y69.532 E21.21065
G0 F7200 X65.6 Y69.612
G1 F1125 X65.6 Y52.686 E22.93331
G0 F7200 X67.2 Y53.309
G1 F1125 X67.2 Y69.143 E24.54484
G0 F7200 X68.8 Y67.88
M104 S230
G1 F1125 X68.8 Y54.909 E25.86497
G0 F7200 X49.6 Y54.15
G1 F1125 X49.6 Y63.379 E26.80426
G0 F600 X49.6 Y63.379 Z0.525
G0 F7200 X49.814 Y63.815
;TIME_ELAPSED:42.253596
;LAYER:-7
M140 S70
;TYPE:SUPPORT
G1 F1125 X51.031 Y65.031 E26.91391
G1 X50.836 Y64.886 E26.9294
G1 X50.367 Y64.477 E26.96906
G1 X50.271 Y64.374 E26.97804
G1 X50.024 Y64.093 E27.00188
G1 X49.853 Y63.872 E27.01969
G0 F7200 X51.031 Y65.031
G1 F1125 X51.108 Y65.089 E27.02583
G1 X51.335 Y65.232 E27.04293
G1 X51.585 Y65.371 E27.06116
G1 X51.866 Y65.505 E27.08101
G1 X52.114 Y65.603 E27.098
G1 X52.398 Y65.696 E27.11705
G1 X52.695 Y65.774 E27.13662
G1 X53.128 Y65.856 E27.16471
G1 X49.006 Y61.734 E27.53624
G1 X49.001 Y61.696 E27.53868
G1 X48.964 Y61.209 E27.56981
G1 X48.957 Y61.038 E27.58072
G1 X48.957 Y60.413 E27.62055
G1 X55.285 Y66.74 E28.19088
G1 X55.748 Y67.095 E28.22806
G1 X56.219 Y67.564 E28.27043
G1 X56.45 Y67.819 E28.29236
G1 X56.56 Y67.919 E28.30183
G1 X56.905 Y68.213 E28.33072
G1 X57.164 Y68.406 E28.35131
G1 X57.407 Y68.561 E28.36968
G1 X57.663 Y68.702 E28.38831
G1 X57.924 Y68.826 E28.40672
G1 X58.198 Y68.935 E28.42552
G1 X58.474 Y69.025 E28.44402
G1 X58.767 Y69.101 E28.46331
G1 X58.953 Y69.135 E28.47536
G1 X48.959 Y59.141 E29.37617
G1 X48.96 Y57.869 E29.45724
G1 X60.309 Y69.219 E30.48022
G1 X61.582 Y69.219 E30.56135
G1 X48.96 Y56.597 E31.69903
G1 X48.961 Y56.335 E31.71573
G1 X48.986 Y55.952 E31.74019
G1 X49.021 Y55.664 E31.75868
G1 X49.066 Y55.43 E31.77387
G1 X62.957 Y69.321 E33.02593
G1 X63.429 Y69.427 E33.05676
G1 X63.851 Y69.548 E33.08474
G1 X64.16 Y69.618 E33.10493
G1 X64.447 Y69.662 E33.12344
G1 X64.585 Y69.676 E33.13228
G1 X49.38 Y54.471 E34.50278
G1 X49.481 Y54.262 E34.51757
G1 X49.622 Y54.005 E34.53625
G1 X49.763 Y53.785 E34.55291
G1 X49.849 Y53.667 E34.56221
G1 X65.818 Y69.636 E36.00157
G0 F7200 X65.819 Y69.636
G1 F1125 X66.178 Y69.563 E36.02492
G1 X66.423 Y69.499 E36.04106
G1 X66.727 Y69.4 E36.06144
G1 X66.818 Y69.364 E36.06767
G1 X50.439 Y52.984 E37.54403
G1 X50.477 Y52.948 E37.54737
G1 X50.758 Y52.7 E37.57126
G1 X50.978 Y52.53 E37.58898
G1 X51.145 Y52.418 E37.60179
G1 X67.661 Y68.934 E39.09045
G1 X67.781 Y68.858 E39.09951
G1 X67.997 Y68.7 E39.11656
G1 X68.3 Y68.447 E39.14172
G1 X68.376 Y68.376 E39.14835
G1 X51.979 Y51.979 E40.62629
G1 X52.019 Y51.961 E40.62908
G1 X52.293 Y51.863 E40.64763
G1 X52.562 Y51.785 E40.66548
G1 X52.842 Y51.724 E40.68374
G1 X52.977 Y51.705 E40.69243
G1 X68.996 Y67.723 E42.13625
G1 X69.004 Y67.713 E42.13707
G1 X69.3 Y67.324 E42.16822
G1 X69.384 Y67.209 E42.1773
G1 X69.523 Y66.993 E42.19367
G1 X69.529 Y66.984 E42.19436
G1 X54.18 Y51.635 E43.57783
G1 X55.453 Y51.635 E43.65897
G1 X69.962 Y66.144 E44.96673
G1 X69.995 Y66.062 E44.97236
G1 X70.094 Y65.763 E44.99244
G1 X70.165 Y65.498 E45.00992
G1 X70.223 Y65.211 E45.02859
G1 X70.233 Y65.142 E45.03303
G1 X56.726 Y51.635 E46.25048
G1 X57.727 Y51.635 E46.31427
G1 X57.977 Y51.613 E46.33027
G1 X70.339 Y63.975 E47.44451
G1 X70.418 Y62.9 E47.51321
G1 X70.423 Y62.786 E47.52048
G1 X59.114 Y51.477 E48.53982
G1 X59.307 Y51.454 E48.5522
G1 X59.727 Y51.434 E48.579
G1 X59.828 Y51.436 E48.58544
G1 X60.21 Y51.461 E48.60984
G1 X60.393 Y51.484 E48.6216
G1 X70.398 Y61.489 E49.52339
G1 X70.398 Y61.453 E49.52569
G1 X70.413 Y61.094 E49.54859
G1 X70.41 Y60.824 E49.5658
G1 X70.38 Y60.451 E49.58965
G1 X70.34 Y60.158 E49.60849
G1 X62.3 Y52.118 E50.33317
G1 X62.56 Y52.221 E50.351
G1 X63.215 Y52.389 E50.3941
G1 X63.882 Y52.475 E50.43696
G1 X63.931 Y52.476 E50.44008
G1 X70.218 Y58.763 E51.00676
G1 X70.186 Y58.496 E51.0239
G1 X70.113 Y58.049 E51.05276
G1 X70.06 Y57.766 E51.07112
G1 X69.986 Y57.477 E51.09013
G1 X69.889 Y57.161 E51.1112
G1 X65.298 Y52.57 E51.525
G1 X65.879 Y52.694 E51.56287
G1 X66.1 Y52.751 E51.57741
G1 X66.218 Y52.791 E51.58536
G1 X66.586 Y52.934 E51.61052
G1 X66.839 Y53.049 E51.62823
G1 X67.114 Y53.195 E51.64807
G1 X67.332 Y53.332 E51.66448
G1 X68.732 Y54.731 E51.79063
G0 F7200 X68.607 Y54.575
G1 F1125 X68.414 Y54.319 E51.81106
G1 X68.237 Y54.109 E51.82857
G1 X68.044 Y53.906 E51.84642
G1 X67.827 Y53.706 E51.86523
G1 X67.588 Y53.512 E51.88485
G1 X67.351 Y53.343 E51.9034
G1 X67.332 Y53.332 E51.9048
G0 F600 X67.332 Y53.332 Z0.612
G0 F7200 X61.089 Y51.45
;TIME_ELAPSED:63.734046
;LAYER:-6
;TYPE:SUPPORT-INTERFACE
G1 F1500 X57.837 Y51.45 E51.94597
G1 X58.599 Y51.384 E51.95565
G1 X59.281 Y51.281 E51.96438
G1 X59.828 Y51.261 E51.97131
G1 X60.541 Y51.326 E51.98037
G0 F7200 X57.837 Y51.45
G1 F1500 X57.721 Y51.46 E51.98185
G1 X53.82 Y51.46 E52.03123
G1 X53.147 Y51.503 E52.03977
G1 X52.811 Y51.553 E52.04407
G1 X52.244 Y51.696 E52.05147
G1 X51.98 Y51.8 E52.05507
G1 X61.986 Y51.8 E52.18174
G1 X62.013 Y51.813 E52.18212
G1 X62.616 Y52.054 E52.19034
G1 X62.989 Y52.15 E52.19521
G1 X51.254 Y52.15 E52.34378
G1 X51.13 Y52.218 E52.34557
G1 X50.741 Y52.5 E52.35165
G1 X65.814 Y52.5 E52.54247
G1 X65.932 Y52.525 E52.54399
G1 X66.275 Y52.625 E52.54852
G1 X66.816 Y52.85 E52.55593
G1 X50.331 Y52.85 E52.76463
G1 X50.262 Y52.911 E52.76579
G1 X50.009 Y53.2 E52.77066
G1 X67.452 Y53.2 E52.99148
G1 X67.914 Y53.55 E52.99882
G1 X49.721 Y53.55 E53.22913
G1 X49.626 Y53.677 E53.23114
G1 X49.494 Y53.9 E53.23442
G1 X68.275 Y53.9 E53.47218
G1 X68.38 Y54.005 E53.47406
G1 X68.575 Y54.25 E53.47803
G1 X49.296 Y54.25 E53.72209
G1 X49.143 Y54.6 E53.72693
G1 X68.846 Y54.6 E53.97636
G1 X69.084 Y54.922 E53.98143
G1 X69.101 Y54.95 E53.98184
G1 X49.019 Y54.95 E54.23608
G1 X48.917 Y55.3 E54.24069
G1 X69.308 Y55.3 E54.49883
G1 X69.401 Y55.457 E54.50114
G1 X69.502 Y55.65 E54.5039
G1 X48.858 Y55.65 E54.76525
G1 X48.812 Y55.943 E54.769
G1 X48.809 Y56 E54.76972
G1 X69.685 Y56 E55.03401
G1 X69.715 Y56.058 E55.03483
G1 X69.823 Y56.35 E55.03877
G1 X48.79 Y56.35 E55.30504
G1 X48.783 Y56.457 E55.3064
G1 X48.783 Y56.7 E55.30948
G1 X69.945 Y56.7 E55.57738
G1 X70.043 Y57.05 E55.58198
G1 X48.783 Y57.05 E55.85113
G1 X48.783 Y57.4 E55.85556
G1 X70.141 Y57.4 E56.12594
G1 X70.231 Y57.723 E56.13019
G1 X70.236 Y57.75 E56.13053
G1 X48.783 Y57.75 E56.40212
G1 X48.783 Y58.1 E56.40655
G1 X70.296 Y58.1 E56.6789
G1 X70.327 Y58.281 E56.68122
G1 X70.351 Y58.45 E56.68339
G1 X48.783 Y58.45 E56.95643
G1 X48.783 Y58.8 E56.96086
G1 X70.399 Y58.8 E57.23451
G1 X70.418 Y59.15 E57.23895
G1 X48.783 Y59.15 E57.51284
G1 X48.782 Y59.5 E57.51727
G1 X70.441 Y59.5 E57.79146
G1 X70.485 Y59.85 E57.79593
G1 X48.782 Y59.85 E58.07068
G1 X48.782 Y60.2 E58.07511
G1 X70.529 Y60.2 E58.35042
G1 X70.537 Y60.27 E58.35131
G1 X70.563 Y60.55 E58.35487
G1 X48.782 Y60.55 E58.63061
G1 X48.782 Y60.9 E58.63505
G1 X70.584 Y60.9 E58.91105
G1 X70.577 Y61.25 E58.91548
G1 X48.795 Y61.25 E59.19123
G1 X48.818 Y61.6 E59.19568
G1 X70.577 Y61.6 E59.47114
G1 X70.582 Y61.95 E59.47557
G1 X48.86 Y61.95 E59.75056
G1 X48.872 Y62.028 E59.75156
G1 X48.94 Y62.3 E59.75511
G1 X70.594 Y62.3 E60.02924
G1 X70.607 Y62.569 E60.03265
G1 X70.601 Y62.65 E60.03368
G1 X49.034 Y62.65 E60.30671
G1 X49.171 Y63 E60.31147
G1 X70.578 Y63 E60.58247
G1 X70.554 Y63.35 E60.58691
G1 X49.334 Y63.35 E60.85555
G1 X49.526 Y63.7 E60.8606
G1 X70.531 Y63.7 E61.12652
G1 X70.508 Y64.05 E61.13096
G1 X49.776 Y64.05 E61.39342
G1 X49.888 Y64.204 E61.39583
G1 X50.062 Y64.4 E61.39915
G1 X70.484 Y64.4 E61.65768
G1 X70.464 Y64.712 E61.66164
G1 X70.459 Y64.75 E61.66213
G1 X50.414 Y64.75 E61.91589
G1 X50.73 Y65.027 E61.92121
G1 X50.828 Y65.1 E61.92276
G1 X70.414 Y65.1 E62.17071
G1 X70.398 Y65.229 E62.17235
G1 X70.353 Y65.45 E62.17521
G1 X51.373 Y65.45 E62.41549
G1 X51.503 Y65.527 E62.4174
G1 X52.069 Y65.775 E62.42522
G1 X52.154 Y65.8 E62.42635
G1 X70.248 Y65.8 E62.65541
G1 X70.13 Y66.15 E62.66009
G1 X53.606 Y66.15 E62.86927
G1 X53.945 Y66.246 E62.87373
G1 X54.545 Y66.5 E62.88198
G1 X69.991 Y66.5 E63.07752
G1 X69.8 Y66.85 E63.08257
G1 X55.138 Y66.85 E63.26819
G1 X55.593 Y67.2 E63.27545
G1 X69.595 Y67.2 E63.45271
G1 X69.439 Y67.432 E63.45625
G1 X69.345 Y67.55 E63.45816
G1 X55.943 Y67.55 E63.62783
G1 X56.285 Y67.9 E63.63402
G1 X69.068 Y67.9 E63.79585
G1 X68.948 Y68.053 E63.79831
G1 X68.753 Y68.25 E63.80182
G1 X56.679 Y68.25 E63.95467
G1 X56.8 Y68.355 E63.9567
G1 X57.071 Y68.556 E63.96097
G1 X57.145 Y68.6 E63.96206
G1 X68.386 Y68.6 E64.10437
G1 X68.105 Y68.84 E64.10905
G1 X67.943 Y68.95 E64.11153
G1 X57.793 Y68.95 E64.24002
G1 X58.148 Y69.104 E64.24492
G1 X58.725 Y69.272 E64.25253
G1 X58.905 Y69.3 E64.25484
G1 X67.37 Y69.3 E64.362
G1 X67.073 Y69.452 E64.36622
G1 X66.523 Y69.65 E64.37362
G1 X63.587 Y69.65 E64.41079
G0 F7200 X64.126 Y69.791
G1 F1500 X64.714 Y69.865 E64.41829
G1 X65.325 Y69.865 E64.42603
G1 X65.99 Y69.783 E64.43451
G1 X66.482 Y69.665 E64.44092
G1 X66.523 Y69.65 E64.44147
G0 F600 X66.523 Y69.65 Z0.691
G0 F7200 X53.783 Y56.461
;TIME_ELAPSED:104.455093
;LAYER:-5
M106 S255
;TYPE:SUPPORT
G1 F817 X59.447 Y56.46 E64.50658
G1 X59.601 Y56.351 E64.50875
G1 X59.601 Y57.045 E64.51673
G1 X59.951 Y57.395 E64.52242
G1 X64.035 Y57.395 E64.56937
G1 X64.361 Y57.302 E64.57326
G1 X64.561 Y57.325 E64.57558
G1 X64.643 Y57.351 E64.57657
G1 X64.702 Y57.549 E64.57894
G1 X64.875 Y57.648 E64.58123
G1 X64.898 Y57.863 E64.58372
G1 X65.135 Y58.082 E64.58743
G1 X65.154 Y58.558 E64.5929
G1 X65.354 Y58.831 E64.59679
G1 X65.352 Y59.123 E64.60015
G1 X65.413 Y59.221 E64.60148
G1 X65.371 Y59.463 E64.6043
G1 X65.594 Y61.022 E64.6224
G1 X65.539 Y61.17 E64.62422
G1 X65.539 Y61.653 E64.62977
G1 X65.5 Y61.565 E64.63088
G1 X65.381 Y61.411 E64.63312
G1 X65.351 Y61.346 E64.63394
G1 X65.262 Y60.803 E64.64026
G1 X64.899 Y60.493 E64.64575
G1 X64.666 Y60.493 E64.64843
G1 X64.543 Y60.433 E64.65
G1 X64.307 Y60.393 E64.65276
G1 X59.707 Y60.393 E64.70563
G1 X59.501 Y60.599 E64.70898
G1 X59.501 Y60.81 E64.71141
G1 X59.417 Y60.81 E64.71237
G1 X59.156 Y61.07 E64.71661
G1 X53.784 Y61.07 E64.77836
G1 X53.783 Y58.552 E64.80731
G0 F735.3 X53.783 Y56.461
G0 F7200 X53.958 Y58.325
G1 F817 X64.97 Y58.325 E64.9339
G0 F7200 X65.324 Y60.369
G1 F817 X65.324 Y60.626 E64.93685
G0 F7200 X62.991 Y60.218
G1 F817 X62.991 Y57.57 E64.96729
G0 F7200 X60.658 Y57.57
G1 F817 X60.658 Y60.218 E64.99773
G0 F7200 X59.32 Y60.658
G1 F817 X53.957 Y60.658 E65.05938
G0 F7200 X55.992 Y60.895
G1 F817 X55.992 Y56.635 E65.10835
G0 F7200 X58.325 Y56.635
