;FLAVOR:Marlin
;TIME:1419
;Filament used: 0.778444m
;Layer height: 0.175
;MINX:48.782
;MINY:51.083
;MINZ:0.306
;MAXX:71.217
;MAXY:69.561
;MAXZ:19.295
;Generated with Cura_SteamEngine 4.6.1
M140 S70
M105
M190 S70
M104 S235
M105
M109 S235
M82 ;absolute extrusion mode
G21;(metric values)
G90;(absolute positioning)
M82;(set extruder to absolute mode)
M107;(start with the fan off)
G28;(Home the printer)
G92 E0;(Reset the extruder to 0)
G0 Z5 E5 F500;(Move up and prime the nozzle)
G0 X-1 Z0;(Move outside the printable area)
G1 Y60 E8 F500;(Draw a priming/wiping line to the rear)
G1 X-1;(Move a little closer to the print area)
G1 Y10 E16 F500;(draw more priming/wiping)
G1 E15 F250;(Small retract)
G92 E0;(Zero the extruder)
G92 E0
G92 E0
G1 F2400 E-4.5
;LAYER_COUNT:105
;LAYER:-5
M107
G0 F7200 X50.418 Y53.001 Z0.306
;TYPE:SUPPORT-INTERFACE
G1 F2400 E0
G1 F1125 X50.503 Y52.922 E0.01181
G1 X50.798 Y52.663 E0.05176
G1 X51.013 Y52.496 E0.07947
G1 X51.244 Y52.34 E0.10784
G1 X51.512 Y52.182 E0.1395
G1 X51.769 Y52.052 E0.16882
G1 X52.039 Y51.936 E0.19872
G1 X52.295 Y51.844 E0.22641
G1 X52.587 Y51.76 E0.25733
G1 X52.848 Y51.704 E0.2845
G1 X53.168 Y51.656 E0.31744
G1 X53.636 Y51.62 E0.36521
G1 X53.828 Y51.613 E0.38476
G1 X57.305 Y51.613 E0.73864
G1 X57.97 Y51.571 E0.80645
G1 X58.444 Y51.489 E0.85541
G1 X58.863 Y51.397 E0.89907
G1 X59.18 Y51.35 E0.93169
G1 X59.775 Y51.309 E0.99239
G1 X59.827 Y51.311 E0.99768
G1 X60.203 Y51.335 E1.03603
G1 X60.501 Y51.372 E1.06659
G1 X60.785 Y51.427 E1.09603
G1 X61.076 Y51.503 E1.12664
G1 X61.334 Y51.587 E1.15426
G1 X61.613 Y51.698 E1.18482
G1 X61.873 Y51.821 E1.21409
G1 X61.996 Y51.889 E1.2284
G1 X62.602 Y52.176 E1.29664
G1 X63.251 Y52.388 E1.36613
G1 X63.92 Y52.517 E1.43547
G1 X64.588 Y52.559 E1.50359
G1 X66.339 Y52.563 E1.6818
G1 X66.716 Y52.587 E1.72025
G1 X67.014 Y52.624 E1.75081
G1 X67.298 Y52.679 E1.78025
G1 X67.589 Y52.755 E1.81086
G1 X67.847 Y52.839 E1.83848
G1 X68.124 Y52.949 E1.86881
G1 X68.384 Y53.072 E1.89808
G1 X68.643 Y53.216 E1.92824
G1 X68.862 Y53.355 E1.95464
G1 X69.128 Y53.553 E1.98839
G1 X69.482 Y53.857 E2.03588
G1 X69.604 Y53.969 E2.05274
G1 X69.683 Y54.054 E2.06455
G1 X69.942 Y54.349 E2.1045
G1 X70.109 Y54.564 E2.13221
G1 X70.265 Y54.795 E2.16058
G1 X70.423 Y55.063 E2.19224
G1 X70.554 Y55.321 E2.22169
G1 X70.658 Y55.561 E2.24831
G1 X70.765 Y55.859 E2.28054
G1 X70.845 Y56.138 E2.31008
G1 X70.9 Y56.392 E2.33653
G1 X70.949 Y56.719 E2.37018
G1 X70.985 Y57.18 E2.41724
G1 X70.992 Y57.365 E2.43608
G1 X70.987 Y60.882 E2.79403
G1 X70.98 Y60.985 E2.80454
G1 X70.981 Y61.205 E2.82693
G1 X70.965 Y61.205 E2.82856
G1 X70.992 Y61.902 E2.89955
G1 X70.988 Y64.683 E3.18259
G1 X70.964 Y65.06 E3.22103
G1 X70.927 Y65.358 E3.25159
G1 X70.872 Y65.642 E3.28104
G1 X70.796 Y65.933 E3.31165
G1 X70.712 Y66.191 E3.33926
G1 X70.601 Y66.47 E3.36982
G1 X70.479 Y66.728 E3.39887
G1 X70.336 Y66.986 E3.42889
G1 X70.194 Y67.208 E3.45571
G1 X70.003 Y67.466 E3.48838
G1 X69.694 Y67.826 E3.53667
G1 X69.582 Y67.948 E3.55352
G1 X69.497 Y68.027 E3.56533
G1 X69.204 Y68.284 E3.605
G1 X68.987 Y68.453 E3.63299
G1 X68.756 Y68.609 E3.66136
G1 X68.488 Y68.767 E3.69302
G1 X68.231 Y68.897 E3.72234
G1 X67.962 Y69.012 E3.75211
G1 X67.705 Y69.105 E3.77993
G1 X67.413 Y69.189 E3.81085
G1 X67.152 Y69.245 E3.83802
G1 X66.832 Y69.293 E3.87095
G1 X66.364 Y69.329 E3.91872
G1 X66.172 Y69.336 E3.93828
G1 X59.729 Y69.332 E4.59402
G1 X59.352 Y69.308 E4.63247
G1 X59.054 Y69.271 E4.66303
G1 X58.77 Y69.216 E4.69247
G1 X58.479 Y69.14 E4.72308
G1 X58.219 Y69.055 E4.75092
G1 X57.942 Y68.945 E4.78126
G1 X57.683 Y68.822 E4.81044
G1 X57.425 Y68.679 E4.84046
G1 X57.206 Y68.54 E4.86686
G1 X56.932 Y68.336 E4.90163
G1 X56.585 Y68.038 E4.94818
G1 X56.463 Y67.925 E4.9651
G1 X56.389 Y67.846 E4.97612
G1 X56.178 Y67.606 E5.00864
G1 X55.704 Y67.132 E5.07687
G1 X55.165 Y66.714 E5.14629
G1 X54.576 Y66.368 E5.21581
G1 X53.946 Y66.096 E5.28565
G1 X53.168 Y65.884 E5.36772
G1 X52.724 Y65.799 E5.41373
G1 X52.428 Y65.721 E5.44488
G1 X52.162 Y65.635 E5.47334
G1 X51.899 Y65.529 E5.50219
G1 X51.636 Y65.404 E5.53183
G1 X51.38 Y65.263 E5.56158
G1 X51.142 Y65.111 E5.59032
G1 X50.888 Y64.922 E5.62254
G1 X50.535 Y64.619 E5.66989
G1 X50.412 Y64.506 E5.68689
G1 X50.309 Y64.395 E5.7023
G1 X50.058 Y64.109 E5.74103
G1 X49.891 Y63.894 E5.76873
G1 X49.734 Y63.661 E5.79733
G1 X49.577 Y63.395 E5.82876
G1 X49.447 Y63.138 E5.85808
G1 X49.331 Y62.868 E5.88799
G1 X49.239 Y62.612 E5.91567
G1 X49.155 Y62.32 E5.9466
G1 X49.099 Y62.059 E5.97376
G1 X49.051 Y61.739 E6.0067
G1 X49.014 Y61.261 E6.05549
G1 X49.008 Y61.093 E6.0726
G1 X49.012 Y56.266 E6.56387
G1 X49.036 Y55.889 E6.60232
G1 X49.074 Y55.585 E6.6335
G1 X49.128 Y55.307 E6.66232
G1 X49.204 Y55.016 E6.69293
G1 X49.288 Y54.758 E6.72055
G1 X49.399 Y54.479 E6.75111
G1 X49.521 Y54.221 E6.78015
G1 X49.667 Y53.957 E6.81086
G1 X49.804 Y53.744 E6.83663
G1 X50.002 Y53.477 E6.87046
G1 X50.244 Y53.195 E6.90828
G0 F1012.5 X50.306 Y53.123
G0 X50.418 Y53.001
G0 F7200 X51.2 Y52.369
G1 F1125 X51.2 Y65.148 E8.20888
G0 F7200 X52.8 Y65.813
G1 F1125 X52.8 Y51.714 E9.64382
G0 F7200 X54.4 Y51.613
G1 F1125 X54.4 Y66.292 E11.13779
G0 F7200 X56 Y67.428
G1 F1125 X56 Y51.613 E12.74738
G0 F7200 X57.6 Y51.594
G1 F1125 X57.6 Y68.775 E14.49599
G0 F7200 X59.2 Y69.289
G1 F1125 X59.2 Y51.348 E16.32196
G0 F7200 X60.8 Y51.431
G1 F1125 X60.8 Y69.332 E18.14385
G0 F7200 X62.4 Y69.333
G1 F1125 X62.4 Y52.081 E19.89969
G0 F7200 X64 Y52.523
G1 F1125 X64 Y69.334 E21.61064
G0 F7200 X65.6 Y69.335
G1 F1125 X65.6 Y52.562 E23.31773
G0 F7200 X67.2 Y52.661
G1 F1125 X67.2 Y69.235 E25.00457
G0 F7200 X68.8 Y68.58
G1 F1125 X68.8 Y53.316 E26.55808
G0 F7200 X70.4 Y55.024
M104 S230
G1 F1125 X70.4 Y66.871 E27.76382
G0 F7200 X49.6 Y63.433
G1 F1125 X49.6 Y54.078 E28.71593
G0 F600 X49.6 Y54.078 Z0.525
G0 F7200 X49.703 Y63.703
;TIME_ELAPSED:43.525506
;LAYER:-4
M140 S70
;TYPE:SUPPORT
G1 F1125 X51.214 Y65.215 E28.85217
G1 X51.113 Y65.15 E28.85983
G1 X50.86 Y64.962 E28.87992
G1 X50.502 Y64.656 E28.90993
G1 X50.36 Y64.525 E28.92225
G1 X50.278 Y64.436 E28.92996
G1 X50.024 Y64.147 E28.95448
G1 X49.854 Y63.927 E28.9722
G0 F7200 X51.214 Y65.215
G1 F1125 X51.363 Y65.31 E28.98346
G1 X51.6 Y65.441 E29.00072
G1 X51.875 Y65.572 E29.02014
G1 X52.149 Y65.681 E29.03893
G1 X52.411 Y65.767 E29.05651
G1 X52.721 Y65.847 E29.07691
G1 X53.156 Y65.932 E29.10516
G1 X53.221 Y65.949 E29.10944
G1 X48.998 Y61.726 E29.49008
G1 X48.963 Y61.264 E29.51961
G1 X48.957 Y61.091 E29.53064
G1 X48.957 Y60.413 E29.57385
G1 X56.971 Y68.426 E30.29615
G1 X57.177 Y68.58 E30.31254
G1 X57.402 Y68.723 E30.32953
G1 X57.654 Y68.862 E30.34787
G1 X57.934 Y68.996 E30.36766
G1 X58.182 Y69.094 E30.38465
G1 X58.467 Y69.186 E30.40374
G1 X58.763 Y69.265 E30.42327
G1 X59.054 Y69.321 E30.44215
G1 X59.15 Y69.333 E30.44832
G1 X48.959 Y59.141 E31.36693
G1 X48.96 Y57.87 E31.44793
G1 X60.471 Y69.381 E32.48547
G1 X61.745 Y69.382 E32.56667
G1 X48.961 Y56.598 E33.71895
G1 X48.962 Y56.263 E33.7403
G1 X48.986 Y55.88 E33.76476
G1 X49.021 Y55.592 E33.78325
G1 X49.054 Y55.418 E33.79454
G1 X63.019 Y69.383 E35.05327
G1 X64.292 Y69.384 E35.1344
G1 X49.357 Y54.448 E36.4806
G1 X49.484 Y54.182 E36.49939
G1 X49.612 Y53.95 E36.51628
G1 X49.763 Y53.713 E36.53419
G1 X49.819 Y53.637 E36.54021
G1 X65.566 Y69.384 E37.95955
G1 X66.173 Y69.385 E37.99824
G1 X66.369 Y69.378 E38.01074
G1 X66.799 Y69.345 E38.03823
G1 X50.402 Y52.948 E39.51616
G1 X50.478 Y52.876 E39.52284
G1 X50.762 Y52.626 E39.54695
G1 X50.978 Y52.458 E39.56439
G1 X51.102 Y52.375 E39.5739
G1 X67.836 Y69.109 E41.08221
G1 X67.98 Y69.058 E41.09195
G1 X68.264 Y68.936 E41.11165
G1 X68.512 Y68.809 E41.12941
G1 X68.699 Y68.699 E41.14323
G1 X51.929 Y51.929 E42.65479
G1 X52.019 Y51.89 E42.66104
G1 X52.293 Y51.791 E42.67961
G1 X52.562 Y51.713 E42.69746
G1 X52.842 Y51.652 E42.71573
G1 X52.914 Y51.642 E42.72036
G1 X69.426 Y68.153 E44.20861
G1 X69.521 Y68.071 E44.21661
G1 X69.627 Y67.972 E44.22586
G1 X70.04 Y67.498 E44.26593
G0 F7200 X70.042 Y67.496
G1 F1125 X54.108 Y51.562 E45.70213
G1 X55.381 Y51.562 E45.78326
G1 X70.538 Y66.719 E47.14943
G1 X70.651 Y66.477 E47.16646
G1 X70.75 Y66.23 E47.18342
G1 X70.843 Y65.944 E47.20258
G1 X70.883 Y65.792 E47.2126
G1 X56.654 Y51.562 E48.49517
G1 X57.301 Y51.562 E48.53641
G1 X57.89 Y51.526 E48.57402
G1 X71.038 Y64.674 E49.75911
G1 X71.039 Y63.402 E49.84018
G1 X58.967 Y51.331 E50.92823
G1 X59.169 Y51.3 E50.94126
G1 X59.773 Y51.258 E50.97985
G1 X59.826 Y51.26 E50.98323
G1 X60.193 Y51.284 E51.00667
G1 X71.041 Y62.132 E51.98445
G1 X71.041 Y61.9 E51.99924
G1 X71.016 Y61.255 E52.04037
G1 X71.031 Y61.255 E52.04133
G1 X71.029 Y60.987 E52.05841
G1 X71.036 Y60.886 E52.06487
G1 X71.037 Y60.855 E52.06684
G1 X62.035 Y51.852 E52.87828
G1 X62.619 Y52.13 E52.9195
G1 X63.262 Y52.34 E52.96261
G1 X63.921 Y52.465 E53.00536
G1 X71.038 Y59.583 E53.6469
G1 X71.04 Y58.312 E53.7279
G1 X65.239 Y52.511 E54.25077
G1 X66.34 Y52.513 E54.32094
G1 X66.526 Y52.525 E54.33282
G1 X71.022 Y57.021 E54.73807
G1 X70.998 Y56.709 E54.75801
G1 X70.95 Y56.389 E54.77864
G1 X70.889 Y56.109 E54.7969
G1 X70.815 Y55.854 E54.81382
G1 X70.704 Y55.543 E54.83487
G1 X70.618 Y55.345 E54.84863
G1 X68.206 Y52.933 E55.06603
G1 X68.413 Y53.032 E55.08066
G1 X68.664 Y53.171 E55.09894
G1 X68.889 Y53.313 E55.1159
G1 X69.162 Y53.515 E55.13755
G1 X69.63 Y53.926 E55.17724
G1 X69.72 Y54.02 E55.18554
G1 X69.973 Y54.31 E55.21007
G1 X70.145 Y54.529 E55.22781
G1 X70.318 Y54.788 E55.24766
G1 X70.466 Y55.038 E55.26618
G1 X70.596 Y55.295 E55.28454
G0 F600 X70.596 Y55.295 Z0.7
G0 F7200 X59.774 Y51.083
;TIME_ELAPSED:66.344663
;LAYER:-3
;TYPE:SUPPORT-INTERFACE
G1 F1500 X59.526 Y51.1 E55.29087
G1 X59.969 Y51.1 E55.30215
G1 X60.541 Y51.15 E55.31677
G1 X61.137 Y51.285 E55.33233
G1 X61.592 Y51.45 E55.34466
G1 X53.02 Y51.45 E55.56294
G1 X52.811 Y51.481 E55.56832
G1 X52.244 Y51.624 E55.58321
G1 X51.796 Y51.8 E55.59547
G1 X62.342 Y51.8 E55.86402
G1 X62.685 Y51.966 E55.87372
G1 X63.249 Y52.15 E55.88883
G1 X51.125 Y52.15 E56.19757
G1 X50.649 Y52.494 E56.21252
G1 X50.643 Y52.5 E56.21274
G1 X67.493 Y52.5 E56.64182
G1 X67.93 Y52.628 E56.65341
G1 X68.437 Y52.85 E56.66751
G1 X50.253 Y52.85 E57.13056
G1 X49.946 Y53.2 E57.14242
G1 X69.033 Y53.2 E57.62846
G1 X69.269 Y53.376 E57.63596
G1 X69.468 Y53.55 E57.64269
G1 X49.667 Y53.55 E58.14692
G1 X49.625 Y53.605 E58.14868
G1 X49.45 Y53.9 E58.15742
G1 X69.845 Y53.9 E58.67677
G1 X70.111 Y54.199 E58.68696
G1 X70.148 Y54.25 E58.68857
G1 X49.264 Y54.25 E59.22037
G1 X49.111 Y54.6 E59.2301
G1 X70.402 Y54.6 E59.77227
G1 X70.459 Y54.68 E59.77477
G1 X70.608 Y54.95 E59.78262
G1 X48.998 Y54.95 E60.33292
G1 X48.909 Y55.253 E60.34096
G1 X48.902 Y55.3 E60.34217
G1 X70.787 Y55.3 E60.89947
G1 X70.925 Y55.65 E60.90905
G1 X48.847 Y55.65 E61.47126
G1 X48.812 Y55.871 E61.47696
G1 X48.805 Y56 E61.48025
G1 X71.034 Y56 E62.0463
G1 X71.122 Y56.35 E62.05549
G1 X48.785 Y56.35 E62.6243
G1 X48.783 Y56.385 E62.62519
G1 X48.783 Y56.7 E62.63321
G1 X71.175 Y56.7 E63.20342
G1 X71.197 Y57.05 E63.21235
G1 X48.783 Y57.05 E63.78312
G1 X48.783 Y57.4 E63.79203
G1 X71.217 Y57.4 E64.36331
G1 X71.217 Y57.75 E64.37222
G1 X48.783 Y57.75 E64.9435
G1 X48.783 Y58.1 E64.95241
G1 X71.217 Y58.1 E65.52369
G1 X71.217 Y58.45 E65.5326
G1 X48.783 Y58.45 E66.10388
G1 X48.783 Y58.8 E66.11279
G1 X71.217 Y58.8 E66.68407
G1 X71.217 Y59.15 E66.69298
G1 X48.783 Y59.15 E67.26426
G1 X48.782 Y59.5 E67.27317
G1 X71.217 Y59.5 E67.84447
G1 X71.217 Y59.85 E67.85339
G1 X48.782 Y59.85 E68.42469
G1 X48.782 Y60.2 E68.4336
G1 X71.217 Y60.2 E69.00491
G1 X71.217 Y60.55 E69.01382
G1 X48.782 Y60.55 E69.58512
G1 X48.782 Y60.9 E69.59403
G1 X71.214 Y60.9 E70.16526
G1 X71.21 Y61.25 E70.17417
G1 X48.792 Y61.25 E70.74504
G1 X48.814 Y61.6 E70.75397
G1 X71.209 Y61.6 E71.32426
G1 X71.21 Y61.95 E71.33317
G1 X48.853 Y61.95 E71.90249
G1 X48.874 Y62.091 E71.90612
G1 X48.926 Y62.3 E71.9116
G1 X71.211 Y62.3 E72.47908
G1 X71.212 Y62.65 E72.488
G1 X49.014 Y62.65 E73.05326
G1 X49.018 Y62.663 E73.05361
G1 X49.15 Y63 E73.06283
G1 X71.213 Y63 E73.62466
G1 X71.214 Y63.35 E73.63357
G1 X49.305 Y63.35 E74.19148
G1 X49.497 Y63.7 E74.20164
G1 X71.215 Y63.7 E74.75469
G1 X71.216 Y64.05 E74.7636
G1 X49.737 Y64.05 E75.31056
G1 X49.888 Y64.258 E75.3171
G1 X50.014 Y64.4 E75.32194
G1 X71.217 Y64.4 E75.86187
G1 X71.217 Y64.563 E75.86602
G1 X71.206 Y64.75 E75.87079
G1 X50.35 Y64.75 E76.40188
G1 X50.749 Y65.1 E76.4154
G1 X71.184 Y65.1 E76.93577
G1 X71.129 Y65.45 E76.94479
G1 X51.253 Y65.45 E77.45093
G1 X51.258 Y65.453 E77.45108
G1 X51.796 Y65.73 E77.46649
G1 X51.987 Y65.8 E77.47167
G1 X71.06 Y65.8 E77.95736
G1 X70.958 Y66.15 E77.96664
G1 X53.288 Y66.15 E78.4166
G1 X53.871 Y66.309 E78.43199
G1 X54.313 Y66.5 E78.44425
G1 X70.823 Y66.5 E78.86468
G1 X70.676 Y66.837 E78.87404
G1 X70.668 Y66.85 E78.87443
G1 X54.95 Y66.85 E79.27468
G1 X55.037 Y66.901 E79.27725
G1 X55.423 Y67.2 E79.28969
G1 X70.46 Y67.2 E79.6726
G1 X70.38 Y67.335 E79.6766
G1 X70.22 Y67.55 E79.68342
G1 X55.803 Y67.55 E80.05055
G1 X56.013 Y67.76 E80.05811
G1 X56.138 Y67.9 E80.06289
G1 X69.922 Y67.9 E80.4139
G1 X69.738 Y68.11 E80.42101
G1 X69.58 Y68.25 E80.42638
G1 X56.492 Y68.25 E80.75966
G1 X56.794 Y68.515 E80.7699
G1 X56.908 Y68.6 E80.77352
G1 X69.15 Y68.6 E81.08526
G1 X68.87 Y68.803 E81.09406
G1 X68.602 Y68.95 E81.10185
G1 X57.456 Y68.95 E81.38568
G1 X57.571 Y69.018 E81.38908
G1 X58.137 Y69.266 E81.40482
G1 X58.253 Y69.3 E81.40789
G1 X67.819 Y69.3 E81.65149
G1 X67.756 Y69.325 E81.65322
G1 X67.189 Y69.468 E81.66811
G1 X66.853 Y69.518 E81.67676
G1 X66.18 Y69.561 E81.69393
G1 X59.847 Y69.561 E81.8552
G1 X59.328 Y69.531 E81.86844
G1 X58.715 Y69.435 E81.88424
G0 F600 X58.715 Y69.435 Z0.898
G0 F7200 X53.783 Y56.389
;TIME_ELAPSED:109.138701
;LAYER:-2
M106 S255
;TYPE:SUPPORT
G1 F865.5 X59.489 Y56.388 E82.04864
G1 X59.601 Y56.276 E82.0532
G1 X59.601 Y56.984 E82.0736
G1 X59.951 Y57.334 E82.08786
G1 X66.216 Y57.334 E82.26836
G1 X66.217 Y60.539 E82.3607
G1 X59.705 Y60.548 E82.54833
G1 X59.501 Y60.754 E82.55668
G1 X59.501 Y60.814 E82.55841
G1 X59.417 Y60.814 E82.56083
G1 X59.087 Y61.143 E82.57425
G1 X53.802 Y61.142 E82.72652
G1 X53.783 Y61.123 E82.7273
G1 X53.783 Y57.311 E82.83713
G0 F779 X53.783 Y56.389
G0 F7200 X53.958 Y58.325
G1 F865.5 X66.042 Y58.325 E83.18529
G0 F7200 X65.324 Y57.509
G1 F865.5 X65.324 Y60.366 E83.2676
G0 F7200 X62.991 Y60.369
G1 F865.5 X62.991 Y57.509 E83.35
G0 F7200 X60.658 Y57.509
G1 F865.5 X60.658 Y60.372 E83.43249
G0 F7200 X59.324 Y60.658
G1 F865.5 X53.957 Y60.658 E83.58712
G0 F7200 X55.992 Y60.967
G1 F865.5 X55.992 Y56.563 E83.71401
G0 F7200 X58.325 Y56.563
G1 F865.5 X58.325 Y60.967 E83.84089
G0 F600 X58.325 Y60.967 Z1.096
G0 F7200 X53.783 Y56.389
;TIME_ELAPSED:114.860082
;LAYER:-1
;TYPE:SUPPORT
G1 F854.3 X59.489 Y56.388 E84.00529
G1 X59.601 Y56.276 E84.00986
G1 X59.601 Y56.984 E84.03025
G1 X59.951 Y57.334 E84.04452
G1 X66.216 Y57.334 E84.22502
G1 X66.217 Y60.539 E84.31736
G1 X59.705 Y60.548 E84.50498
G1 X59.501 Y60.754 E84.51334
G1 X59.501 Y60.814 E84.51506
G1 X59.417 Y60.814 E84.51748
G1 X59.087 Y61.143 E84.53091
G1 X53.802 Y61.142 E84.68318
G1 X53.783 Y61.123 E84.68395
G1 X53.783 Y57.311 E84.79378
G0 F768.9 X53.783 Y56.389
G0 F7200 X53.958 Y58.325
G1 F854.3 X66.042 Y58.325 E85.14194
G0 F7200 X65.324 Y57.509
G1 F854.3 X65.324 Y60.366 E85.22426
G0 F7200 X62.991 Y60.369
G1 F854.3 X62.991 Y57.509 E85.30666
G0 F7200 X60.658 Y57.509
G1 F854.3 X60.658 Y60.372 E85.38915
G0 F7200 X59.324 Y60.658
G1 F854.3 X53.957 Y60.658 E85.54378
G0 F7200 X55.992 Y60.967
G1 F854.3 X55.992 Y56.563 E85.67066
G0 F7200 X58.325 Y56.563
G1 F854.3 X58.325 Y60.967 E85.79755
G0 F600 X58.325 Y60.967 Z1.226
G0 F7200 X60.526 Y63.886
;TIME_ELAPSED:120.554772
;LAYER:0
;TYPE:WALL-INNER
;MESH:female-straight_edge.stl
G1 F757.4 X60.526 Y62.539 E85.8491
G1 X65.542 Y62.539 E86.04106
G1 X65.542 Y63.886 E86.09261
G1 X61.22 Y63.886 E86.25801
G0 F681.7 X60.526 Y63.886
G0 F4320 X60.176 Y64.236
G1 F757.4 X60.176 Y62.189 E86.33635
G1 X65.892 Y62.189 E86.5551
G1 X65.892 Y64.236 E86.63344
G1 X60.87 Y64.236 E86.82563
G0 F681.7 X60.176 Y64.236
G0 F4320 X65.972 Y64.316
G0 X66.217 Y64.561
;TYPE:WALL-OUTER
G1 F757.4 X59.851 Y64.561 E87.06926
G1 X59.851 Y61.864 E87.17247
G1 X66.217 Y61.864 E87.4161
