;FLAVOR:Marlin
;TIME:1439
;Filament used: 0.766028m
;Layer height: 0.175
;MINX:45.919
;MINY:49.134
;MINZ:0.306
;MAXX:74.085
;MAXY:70.875
;MAXZ:18.07
;Generated with Cura_SteamEngine 4.5.0
M140 S70
M105
M190 S70
M104 S235
M105
M109 S235
M82 ;absolute extrusion mode
G21;(metric values)
G90;(absolute positioning)
M82;(set extruder to absolute mode)
M107;(start with the fan off)
G28;(Home the printer)
G92 E0;(Reset the extruder to 0)
G0 Z5 E5 F500;(Move up and prime the nozzle)
G0 X-1 Z0;(Move outside the printable area)
G1 Y60 E8 F500;(Draw a priming/wiping line to the rear)
G1 X-1;(Move a little closer to the print area)
G1 Y10 E16 F500;(draw more priming/wiping)
G1 E15 F250;(Small retract)
G92 E0;(Zero the extruder)
G92 E0
G92 E0
G1 F2400 E-4.5
;LAYER_COUNT:98
;LAYER:-5
M107
G0 F7200 X50.37 Y53.245 Z0.306
;TYPE:SUPPORT-INTERFACE
G1 F2400 E0
G1 F1125 X50.974 Y52.694 E0.08321
G1 X51.087 Y52.6 E0.09817
G1 X51.582 Y52.203 E0.16275
G1 X51.84 Y52.011 E0.19548
G1 X52.337 Y51.663 E0.25723
G1 X52.646 Y51.465 E0.29458
G1 X53.21 Y51.131 E0.36129
G1 X53.49 Y50.978 E0.39377
G1 X54.038 Y50.701 E0.45626
G1 X54.337 Y50.563 E0.48978
G1 X54.897 Y50.326 E0.55167
G1 X55.23 Y50.201 E0.58787
G1 X55.822 Y49.997 E0.65159
G1 X56.167 Y49.895 E0.68821
G1 X56.75 Y49.74 E0.74961
G1 X57.04 Y49.673 E0.7799
G1 X57.679 Y49.548 E0.84617
G1 X58.043 Y49.493 E0.88363
G1 X58.675 Y49.417 E0.94842
G1 X58.975 Y49.391 E0.97907
G1 X59.61 Y49.358 E1.04378
G1 X59.924 Y49.352 E1.07574
G1 X60.597 Y49.365 E1.14425
G1 X60.927 Y49.383 E1.17789
G1 X61.499 Y49.433 E1.23633
G1 X61.871 Y49.479 E1.27448
G1 X62.48 Y49.575 E1.33722
G1 X62.808 Y49.639 E1.37123
G1 X63.455 Y49.79 E1.43885
G1 X63.739 Y49.866 E1.46877
G1 X64.347 Y50.05 E1.53343
G1 X64.671 Y50.163 E1.56835
G1 X65.259 Y50.388 E1.63243
G1 X65.565 Y50.518 E1.66626
G1 X66.124 Y50.778 E1.72901
G1 X66.459 Y50.95 E1.76734
G1 X67.01 Y51.256 E1.83148
G1 X67.253 Y51.401 E1.86028
G1 X67.807 Y51.76 E1.92747
G1 X68.081 Y51.952 E1.96152
G1 X68.596 Y52.341 E2.02721
G1 X68.837 Y52.535 E2.05869
G1 X69.317 Y52.952 E2.12341
G1 X69.544 Y53.162 E2.15488
G1 X69.991 Y53.606 E2.219
G1 X70.237 Y53.87 E2.25573
G1 X70.654 Y54.347 E2.32021
G1 X70.891 Y54.64 E2.35857
G1 X71.248 Y55.114 E2.41896
G1 X71.43 Y55.373 E2.45118
G1 X71.805 Y55.95 E2.52122
G1 X71.931 Y56.157 E2.54588
G1 X72.238 Y56.704 E2.60972
G1 X72.425 Y57.073 E2.65182
G1 X72.676 Y57.608 E2.71197
G1 X72.798 Y57.892 E2.74342
G1 X73.049 Y58.54 E2.81415
G1 X73.143 Y58.811 E2.84334
G1 X73.34 Y59.451 E2.9115
G1 X73.431 Y59.792 E2.94742
G1 X73.564 Y60.357 E3.00649
G1 X73.637 Y60.741 E3.04627
G1 X73.735 Y61.355 E3.10956
G1 X73.771 Y61.64 E3.13879
G1 X73.841 Y62.479 E3.22448
G1 X73.847 Y62.641 E3.24098
G1 X73.86 Y63.25 E3.30297
G1 X73.857 Y63.557 E3.33422
G1 X73.827 Y64.189 E3.39861
G1 X73.804 Y64.489 E3.42924
G1 X73.723 Y65.174 E3.49944
G1 X73.67 Y65.509 E3.53396
G1 X73.5 Y66.364 E3.62268
G1 X73.456 Y66.545 E3.64164
G1 X73.408 Y66.719 E3.66001
G1 X73.301 Y67.065 E3.69687
G1 X73.196 Y67.341 E3.72692
G1 X73.079 Y67.597 E3.75557
G1 X72.942 Y67.854 E3.78521
G1 X72.789 Y68.1 E3.8147
G1 X72.614 Y68.347 E3.8455
G1 X72.431 Y68.572 E3.87502
G1 X72.257 Y68.762 E3.90124
G1 X72.014 Y68.995 E3.93551
G1 X71.825 Y69.154 E3.96064
G1 X71.569 Y69.344 E3.99309
G1 X71.319 Y69.505 E4.02335
G1 X71.079 Y69.639 E4.05133
G1 X70.817 Y69.764 E4.08087
G1 X70.552 Y69.871 E4.10996
G1 X70.252 Y69.971 E4.14214
G1 X69.97 Y70.045 E4.17182
G1 X69.721 Y70.096 E4.19769
G1 X69.344 Y70.149 E4.23643
G1 X68.468 Y70.238 E4.32605
G1 X67.514 Y70.327 E4.42356
G1 X66.451 Y70.412 E4.5321
G1 X65.453 Y70.481 E4.63391
G1 X64.461 Y70.538 E4.73504
G1 X63.467 Y70.582 E4.8363
G1 X62.462 Y70.617 E4.93865
G1 X61.468 Y70.639 E5.03984
G1 X60.526 Y70.65 E5.13572
G1 X59.475 Y70.65 E5.24269
G1 X58.481 Y70.638 E5.34386
G1 X57.477 Y70.615 E5.44607
G1 X56.484 Y70.58 E5.5472
G1 X55.479 Y70.534 E5.64959
G1 X54.494 Y70.478 E5.75
G1 X53.497 Y70.408 E5.85172
G1 X52.461 Y70.325 E5.9575
G1 X51.476 Y70.233 E6.05818
G1 X50.501 Y70.128 E6.15799
G1 X50.13 Y70.066 E6.19627
G1 X49.863 Y70.003 E6.22419
G1 X49.582 Y69.919 E6.25404
G1 X49.296 Y69.813 E6.28508
G1 X49.053 Y69.704 E6.31219
G1 X48.775 Y69.559 E6.3441
G1 X48.536 Y69.414 E6.37255
G1 X48.297 Y69.248 E6.40217
G1 X48.074 Y69.07 E6.43121
G1 X47.853 Y68.87 E6.46154
G1 X47.649 Y68.66 E6.49134
G1 X47.455 Y68.433 E6.52173
G1 X47.291 Y68.216 E6.54941
G1 X47.126 Y67.966 E6.5799
G1 X46.98 Y67.711 E6.60981
G1 X46.859 Y67.463 E6.63789
G1 X46.734 Y67.161 E6.67116
G1 X46.651 Y66.921 E6.697
G1 X46.536 Y66.5 E6.74142
G1 X46.399 Y65.881 E6.80594
G1 X46.345 Y65.587 E6.83637
G1 X46.248 Y64.934 E6.90355
G1 X46.213 Y64.624 E6.93531
G1 X46.153 Y63.814 E7.01797
G1 X46.148 Y63.646 E7.03508
G1 X46.14 Y63.062 E7.09452
G1 X46.148 Y62.724 E7.12893
G1 X46.202 Y61.884 E7.2146
G1 X46.217 Y61.752 E7.22812
G1 X46.298 Y61.119 E7.29307
G1 X46.354 Y60.782 E7.32784
G1 X46.472 Y60.193 E7.38897
G1 X46.561 Y59.822 E7.4278
G1 X46.713 Y59.267 E7.48637
G1 X46.802 Y58.978 E7.51715
G1 X47.018 Y58.355 E7.58426
G1 X47.163 Y57.988 E7.62442
G1 X47.389 Y57.461 E7.68278
G1 X47.541 Y57.139 E7.71902
G1 X47.824 Y56.589 E7.78197
G1 X47.996 Y56.286 E7.81743
G1 X48.313 Y55.76 E7.87993
G1 X48.504 Y55.471 E7.91519
G1 X48.877 Y54.943 E7.98098
G1 X49.08 Y54.678 E8.01496
G1 X49.498 Y54.169 E8.08199
G1 X49.696 Y53.946 E8.11234
G1 X50.106 Y53.507 E8.17348
G1 X50.185 Y53.429 E8.18478
G0 F1012.5 X50.37 Y53.245
G0 F7200 X51.2 Y52.509
G1 F1125 X51.2 Y70.203 E9.9856
G0 F7200 X52.8 Y70.352
G1 F1125 X52.8 Y51.373 E11.91721
G0 F7200 X54.4 Y50.536
G1 F1125 X54.4 Y70.471 E13.94611
G0 F7200 X56 Y70.557
G1 F1125 X56 Y49.944 E16.04402
G0 F7200 X57.6 Y49.563
G1 F1125 X57.6 Y70.617 E18.18682
G0 F7200 X59.2 Y70.646
G1 F1125 X59.2 Y49.379 E20.35129
G0 F7200 X60.8 Y49.377
G1 F1125 X60.8 Y70.647 E22.51606
G0 F7200 X62.4 Y70.619
G1 F1125 X62.4 Y49.563 E24.65906
G0 F7200 X64 Y49.945
G1 F1125 X64 Y70.559 E26.75707
G0 F7200 X65.6 Y70.471
G1 F1125 X65.6 Y50.535 E28.78608
G0 F7200 X67.2 Y51.37
G1 F1125 X67.2 Y70.353 E30.71809
G0 F7200 X68.8 Y70.205
G1 F1125 X68.8 Y52.506 E32.51942
G0 F7200 X70.4 Y54.057
G1 F1125 X70.4 Y69.922 E34.1341
G0 F7200 X72 Y69.007
G1 F1125 X72 Y56.28 E35.4294
G0 F7200 X73.6 Y60.547
G1 F1125 X73.6 Y65.862 E35.97034
G0 F7200 X49.6 Y69.924
G1 F1125 X49.6 Y54.054 E37.58553
G0 F7200 X48 Y56.279
M104 S230
G1 F1125 X48 Y69.003 E38.88053
G0 F7200 X46.4 Y65.885
G1 F1125 X46.4 Y60.552 E39.4233
G0 F600 X46.4 Y60.552 Z0.525
G0 F7200 X46.695 Y67.198
;TIME_ELAPSED:49.557054
;LAYER:-4
M140 S70
;TYPE:SUPPORT
G1 F1125 X46.808 Y67.474 E39.4423
G1 X46.932 Y67.726 E39.46021
G1 X47.086 Y67.993 E39.47985
G1 X47.25 Y68.244 E39.49896
G1 X47.419 Y68.467 E39.51679
G1 X47.606 Y68.688 E39.53524
G1 X47.808 Y68.895 E39.55368
G1 X48.045 Y69.109 E39.57403
G1 X48.273 Y69.29 E39.59258
G1 X48.508 Y69.454 E39.61085
G1 X48.747 Y69.6 E39.6287
G1 X49.018 Y69.742 E39.6482
G1 X49.286 Y69.862 E39.66691
G1 X49.566 Y69.964 E39.68591
G1 X49.614 Y69.978 E39.68909
G1 X46.621 Y66.986 E39.95882
G1 X46.6 Y66.924 E39.96299
G1 X46.488 Y66.511 E39.99026
G1 X46.35 Y65.89 E40.03081
G1 X46.296 Y65.593 E40.05005
G1 X46.259 Y65.351 E40.06565
G1 X51.156 Y70.248 E40.50704
G1 X51.47 Y70.282 E40.52717
G1 X52.46 Y70.374 E40.59054
G1 X52.563 Y70.382 E40.59712
G1 X46.109 Y63.928 E41.17885
G1 X46.098 Y63.647 E41.19678
G1 X46.089 Y63.06 E41.23419
G1 X46.098 Y62.721 E41.25581
G1 X46.102 Y62.648 E41.26047
G1 X53.942 Y70.488 E41.96712
G1 X54.49 Y70.527 E42.00214
G1 X55.299 Y70.572 E42.05378
G1 X46.2 Y61.474 E42.87387
G1 X46.248 Y61.11 E42.89727
G1 X46.304 Y60.772 E42.9191
G1 X46.382 Y60.383 E42.94439
G1 X56.633 Y70.634 E43.86836
G1 X57.475 Y70.664 E43.92206
G1 X57.946 Y70.674 E43.95208
G1 X46.635 Y59.363 E44.97159
G1 X46.666 Y59.249 E44.97912
G1 X46.755 Y58.959 E44.99846
G1 X46.948 Y58.403 E45.03597
G1 X59.24 Y70.695 E46.1439
G1 X59.474 Y70.698 E46.15882
G1 X60.516 Y70.698 E46.22523
G1 X47.317 Y57.499 E47.41491
G1 X47.344 Y57.438 E47.41917
G1 X47.499 Y57.108 E47.4424
G1 X47.737 Y56.647 E47.47547
G1 X61.771 Y70.68 E48.74037
G1 X62.462 Y70.666 E48.78442
G1 X63.01 Y70.647 E48.81937
G1 X48.204 Y55.84 E50.15395
G1 X48.27 Y55.732 E50.16201
G1 X48.46 Y55.446 E50.1839
G1 X48.717 Y55.081 E50.21235
G1 X64.232 Y70.596 E51.61078
G1 X64.461 Y70.586 E51.62539
G1 X65.439 Y70.531 E51.68782
G1 X49.271 Y54.363 E53.14512
G1 X49.459 Y54.135 E53.16395
G1 X49.658 Y53.911 E53.18305
G1 X49.867 Y53.686 E53.20262
G1 X66.628 Y70.446 E54.71332
G1 X67.518 Y70.376 E54.77022
G1 X67.803 Y70.348 E54.78847
G1 X50.505 Y53.051 E56.34758
G1 X50.789 Y52.789 E56.3722
G1 X51.055 Y52.559 E56.39461
G1 X51.183 Y52.456 E56.40509
G1 X68.963 Y70.236 E58.00768
G1 X69.354 Y70.197 E58.03272
G1 X69.72 Y70.146 E58.05627
G1 X69.972 Y70.094 E58.07267
G1 X70.068 Y70.068 E58.07901
G1 X51.904 Y51.904 E59.71622
G1 X52.309 Y51.62 E59.74774
G1 X52.618 Y51.422 E59.77113
G1 X52.666 Y51.393 E59.77471
G1 X71.002 Y69.729 E61.42741
G1 X71.088 Y69.688 E61.43349
G1 X71.356 Y69.54 E61.453
G1 X71.61 Y69.374 E61.47234
G1 X71.788 Y69.242 E61.48646
G1 X53.475 Y50.93 E63.13705
G1 X54.015 Y50.655 E63.17567
G1 X54.309 Y50.52 E63.19629
G1 X54.33 Y50.512 E63.19772
G1 X72.446 Y68.628 E64.8306
G1 X72.479 Y68.59 E64.83381
G1 X72.65 Y68.38 E64.85107
G1 X72.831 Y68.127 E64.8709
G1 X72.979 Y67.888 E64.88881
G1 X55.235 Y50.144 E66.48816
G1 X55.813 Y49.948 E66.52706
G1 X56.148 Y49.848 E66.54934
G1 X56.199 Y49.835 E66.5527
G1 X73.371 Y67.007 E68.10049
G1 X73.455 Y66.733 E68.11875
G1 X73.507 Y66.545 E68.13118
G1 X73.576 Y66.253 E68.15031
G1 X73.627 Y65.99 E68.16738
G1 X57.223 Y49.586 E69.64595
G1 X57.67 Y49.498 E69.67498
G1 X58.041 Y49.443 E69.69889
G1 X58.319 Y49.409 E69.71674
G1 X73.805 Y64.896 E71.11261
G1 X73.852 Y64.494 E71.1384
G1 X73.876 Y64.193 E71.15765
G1 X73.899 Y63.717 E71.18802
G1 X59.496 Y49.314 E72.48623
G1 X59.607 Y49.307 E72.49332
G1 X59.923 Y49.302 E72.51346
G1 X60.594 Y49.315 E72.55623
G1 X60.78 Y49.325 E72.5681
G1 X73.887 Y62.431 E73.74945
G1 X73.82 Y61.644 E73.79979
G1 X73.784 Y61.353 E73.81848
G1 X73.728 Y61 E73.84126
G1 X62.21 Y49.482 E74.87943
G1 X62.478 Y49.524 E74.89672
G1 X62.817 Y49.59 E74.91873
G1 X63.469 Y49.742 E74.9614
G1 X63.752 Y49.817 E74.98006
G1 X63.848 Y49.847 E74.98647
G1 X73.365 Y59.364 E75.84428
G1 X73.191 Y58.803 E75.88172
G1 X73.095 Y58.522 E75.90064
G1 X72.843 Y57.872 E75.94507
G1 X72.721 Y57.588 E75.96478
G1 X72.597 Y57.324 E75.98336
G1 X65.886 Y50.613 E76.58826
G1 X66.142 Y50.732 E76.60625
G1 X66.487 Y50.908 E76.63093
G1 X67.035 Y51.212 E76.67088
G1 X67.279 Y51.359 E76.68903
G1 X67.834 Y51.719 E76.73119
G1 X68.104 Y51.908 E76.7522
G1 X68.627 Y52.301 E76.79389
G1 X68.867 Y52.497 E76.81364
G1 X69.35 Y52.914 E76.85431
G1 X69.577 Y53.124 E76.87402
G1 X70.017 Y53.561 E76.91355
G1 X70.272 Y53.836 E76.93745
G1 X70.692 Y54.315 E76.97805
G1 X70.934 Y54.615 E77.00262
G1 X71.283 Y55.077 E77.03952
G1 X71.47 Y55.345 E77.06035
G1 X71.846 Y55.924 E77.10435
G1 X71.98 Y56.142 E77.12066
G1 X72.281 Y56.683 E77.16012
G1 X72.469 Y57.051 E77.18645
G0 F600 X72.469 Y57.051 Z0.7
G0 F7200 X62.498 Y49.35
;TIME_ELAPSED:81.666765
;LAYER:-3
;TYPE:SUPPORT-INTERFACE
G1 F1500 X57.525 Y49.35 E77.31309
G1 X57.576 Y49.339 E77.31442
G1 X58.534 Y49.206 E77.33905
G1 X59.53 Y49.135 E77.36448
G1 X60.483 Y49.134 E77.38874
G1 X61.525 Y49.208 E77.41534
G1 X62.469 Y49.344 E77.43963
G0 F7200 X57.525 Y49.35
G1 F1500 X56.603 Y49.545 E77.46363
G1 X56.06 Y49.7 E77.47801
G1 X63.95 Y49.7 E77.67893
G1 X64.366 Y49.819 E77.68994
G1 X64.998 Y50.05 E77.70708
G1 X55.005 Y50.05 E77.96155
G1 X54.778 Y50.132 E77.9677
G1 X54.176 Y50.4 E77.98448
G1 X65.834 Y50.4 E78.28134
G1 X66.189 Y50.558 E78.29124
G1 X66.548 Y50.75 E78.30161
G1 X53.46 Y50.75 E78.63489
G1 X52.967 Y51.011 E78.64909
G1 X52.824 Y51.1 E78.65338
G1 X67.177 Y51.1 E79.01888
G1 X67.742 Y51.45 E79.0358
G1 X52.26 Y51.45 E79.43005
G1 X52.156 Y51.514 E79.43316
G1 X51.763 Y51.8 E79.44554
G1 X68.242 Y51.8 E79.86517
G1 X68.652 Y52.098 E79.87808
G1 X68.715 Y52.15 E79.88016
G1 X51.287 Y52.15 E80.32396
G1 X50.869 Y52.5 E80.33784
G1 X69.134 Y52.5 E80.80296
G1 X69.409 Y52.73 E80.81209
G1 X69.534 Y52.85 E80.8165
G1 X50.469 Y52.85 E81.30198
G1 X50.106 Y53.2 E81.31482
G1 X69.897 Y53.2 E81.8188
G1 X70.146 Y53.441 E81.82762
G1 X70.245 Y53.55 E81.83137
G1 X49.762 Y53.55 E82.35297
G1 X49.446 Y53.9 E82.36498
G1 X70.56 Y53.9 E82.90264
G1 X70.744 Y54.105 E82.90965
G1 X70.864 Y54.25 E82.91445
G1 X49.142 Y54.25 E83.46759
G1 X48.867 Y54.6 E83.47893
G1 X71.145 Y54.6 E84.04623
G1 X71.379 Y54.912 E84.05616
G1 X71.405 Y54.95 E84.05734
G1 X48.595 Y54.95 E84.63819
G1 X48.358 Y55.3 E84.64895
G1 X71.643 Y55.3 E85.2419
G1 X71.88 Y55.65 E85.25266
G1 X48.122 Y55.65 E85.85766
G1 X48.07 Y55.726 E85.86
G1 X47.91 Y56 E85.86808
G1 X72.089 Y56 E86.48379
G1 X72.293 Y56.35 E86.49411
G1 X47.705 Y56.35 E87.12024
G1 X47.607 Y56.517 E87.12517
G1 X47.517 Y56.7 E87.13036
G1 X72.487 Y56.7 E87.76622
G1 X72.658 Y57.05 E87.77614
G1 X47.345 Y57.05 E88.42073
G1 X47.172 Y57.4 E88.43067
G1 X72.829 Y57.4 E89.08402
G1 X72.842 Y57.428 E89.08481
G1 X72.974 Y57.75 E89.09367
G1 X47.027 Y57.75 E89.7544
G1 X46.884 Y58.1 E89.76403
G1 X73.117 Y58.1 E90.43205
G1 X73.216 Y58.343 E90.43873
G1 X73.252 Y58.45 E90.4416
G1 X46.748 Y58.45 E91.11652
G1 X46.632 Y58.8 E91.12591
G1 X73.368 Y58.8 E91.80674
G1 X73.483 Y59.15 E91.81612
G1 X46.515 Y59.15 E92.50286
G1 X46.492 Y59.219 E92.50471
G1 X46.419 Y59.5 E92.5121
G1 X73.582 Y59.5 E93.2038
G1 X73.67 Y59.85 E93.21299
G1 X46.329 Y59.85 E93.90922
G1 X46.243 Y60.181 E93.91793
G1 X46.24 Y60.2 E93.91842
G1 X73.759 Y60.2 E94.61919
G1 X73.771 Y60.249 E94.62047
G1 X73.825 Y60.55 E94.62826
G1 X46.177 Y60.55 E95.33231
G1 X46.114 Y60.9 E95.34137
G1 X73.888 Y60.9 E96.04863
G1 X73.939 Y61.188 E96.05607
G1 X73.946 Y61.25 E96.05766
G1 X46.053 Y61.25 E96.76795
G1 X46.015 Y61.6 E96.77692
G1 X73.985 Y61.6 E97.48917
G1 X74.024 Y61.95 E97.49813
G1 X45.977 Y61.95 E98.21235
G1 X45.953 Y62.166 E98.21788
G1 X45.948 Y62.3 E98.22129
G1 X74.053 Y62.3 E98.93698
G1 X74.072 Y62.634 E98.9455
G1 X74.073 Y62.65 E98.94591
G1 X45.935 Y62.65 E99.66244
G1 X45.922 Y63 E99.67136
G1 X74.08 Y63 E100.38839
G1 X74.085 Y63.251 E100.39479
G1 X74.081 Y63.35 E100.39731
G1 X45.919 Y63.35 E101.11445
G1 X45.931 Y63.7 E101.12337
G1 X74.07 Y63.7 E101.83992
G1 X74.058 Y64.05 E101.84884
G1 X45.943 Y64.05 E102.56478
G1 X45.947 Y64.153 E102.56741
G1 X45.971 Y64.4 E102.57373
G1 X74.029 Y64.4 E103.28822
G1 X73.994 Y64.75 E103.29717
G1 X46.006 Y64.75 E104.00988
G1 X46.04 Y65.086 E104.01848
G1 X46.042 Y65.1 E104.01884
G1 X73.958 Y65.1 E104.72972
G1 X73.899 Y65.45 E104.73876
G1 X46.101 Y65.45 E105.44663
G1 X46.161 Y65.8 E105.45567
G1 X73.839 Y65.8 E106.16048
G1 X73.795 Y66.063 E106.16727
G1 X73.775 Y66.15 E106.16955
G1 X46.225 Y66.15 E106.8711
G1 X46.306 Y66.5 E106.88025
G1 X73.697 Y66.5 E107.57776
G1 X73.685 Y66.555 E107.57919
G1 X73.598 Y66.85 E107.58702
G1 X46.4 Y66.85 E108.27961
G1 X46.51 Y67.2 E108.28896
G1 X73.487 Y67.2 E108.97592
G1 X73.34 Y67.55 E108.98559
G1 X46.66 Y67.55 E109.66499
G1 X46.779 Y67.814 E109.67236
G1 X46.831 Y67.9 E109.67492
G1 X73.164 Y67.9 E110.34549
G1 X72.98 Y68.22 E110.35488
G1 X72.957 Y68.25 E110.35585
G1 X47.046 Y68.25 E111.01567
G1 X47.102 Y68.34 E111.01837
G1 X47.311 Y68.6 E111.02686
G1 X72.692 Y68.6 E111.67318
G1 X72.606 Y68.715 E111.67684
G1 X72.374 Y68.95 E111.68525
G1 X47.624 Y68.95 E112.3155
G1 X47.922 Y69.237 E112.32604
G1 X48.006 Y69.3 E112.32871
G1 X71.988 Y69.3 E112.93941
G1 X71.7 Y69.527 E112.94875
G1 X71.495 Y69.65 E112.95483
G1 X48.497 Y69.65 E113.54047
G1 X48.946 Y69.903 E113.5536
G1 X49.184 Y70 E113.56014
G1 X70.817 Y70 E114.11102
G1 X70.627 Y70.084 E114.11631
G1 X70.018 Y70.265 E114.13249
G1 X69.502 Y70.35 E114.14581
G1 X50.485 Y70.35 E114.63007
G1 X50.623 Y70.372 E114.63363
G1 X51.535 Y70.466 E114.65698
G1 X52.542 Y70.558 E114.68273
G1 X53.527 Y70.636 E114.70789
G1 X54.451 Y70.7 E114.73147
G1 X65.541 Y70.7 E115.01388
G1 X65.526 Y70.701 E115.01426
G1 X64.526 Y70.759 E115.03977
G1 X63.526 Y70.805 E115.06526
G1 X62.53 Y70.84 E115.09064
G1 X61.524 Y70.863 E115.11626
G1 X60.528 Y70.875 E115.14163
G1 X59.471 Y70.875 E115.16854
G1 X58.527 Y70.864 E115.19258
G1 X57.531 Y70.842 E115.21795
