;FLAVOR:Marlin
;TIME:944
;Filament used: 0.558637m
;Layer height: 0.175
;MINX:46.189
;MINY:44.445
;MINZ:0.306
;MAXX:73.811
;MAXY:67.554
;MAXZ:6.17
;Generated with Cura_SteamEngine 4.6.1
M140 S70
M105
M190 S70
M104 S235
M105
M109 S235
M82 ;absolute extrusion mode
G21;(metric values)
G90;(absolute positioning)
M82;(set extruder to absolute mode)
M107;(start with the fan off)
G28;(Home the printer)
G92 E0;(Reset the extruder to 0)
G0 Z5 E5 F500;(Move up and prime the nozzle)
G0 X-1 Z0;(Move outside the printable area)
G1 Y60 E8 F500;(Draw a priming/wiping line to the rear)
G1 X-1;(Move a little closer to the print area)
G1 Y10 E16 F500;(draw more priming/wiping)
G1 E15 F250;(Small retract)
G92 E0;(Zero the extruder)
G92 E0
G92 E0
G1 F2400 E-4.5
;LAYER_COUNT:30
;LAYER:-5
M107
G0 F7200 X47.832 Y47.071 Z0.306
;TYPE:SUPPORT-INTERFACE
G1 F2400 E0
G1 F1125 X48.903 Y46.007 E0.15365
G1 X49.198 Y45.748 E0.1936
G1 X49.406 Y45.586 E0.22044
G1 X49.656 Y45.417 E0.25115
G1 X49.912 Y45.268 E0.28129
G1 X50.369 Y45.042 E0.33318
G1 X50.437 Y45.016 E0.34059
G1 X50.816 Y44.884 E0.38144
G1 X51.07 Y44.814 E0.40825
G1 X51.348 Y44.754 E0.4372
G1 X51.659 Y44.71 E0.46917
G1 X52.098 Y44.678 E0.51396
G1 X52.285 Y44.671 E0.53301
G1 X67.875 Y44.675 E2.1197
G1 X68.252 Y44.699 E2.15814
G1 X68.547 Y44.736 E2.1884
G1 X68.834 Y44.792 E2.21816
G1 X69.109 Y44.863 E2.24707
G1 X69.66 Y45.054 E2.30642
G1 X69.72 Y45.082 E2.31316
G1 X70.073 Y45.258 E2.35331
G1 X70.314 Y45.398 E2.38167
G1 X70.569 Y45.568 E2.41286
G1 X70.787 Y45.735 E2.44081
G1 X71.186 Y46.089 E2.4951
G1 X72.242 Y47.15 E2.64745
G1 X72.499 Y47.443 E2.68712
G1 X72.671 Y47.663 E2.71554
G1 X72.84 Y47.913 E2.74625
G1 X72.989 Y48.169 E2.7764
G1 X73.209 Y48.61 E2.82656
G1 X73.241 Y48.694 E2.83571
G1 X73.373 Y49.073 E2.87655
G1 X73.442 Y49.321 E2.90275
G1 X73.503 Y49.605 E2.93232
G1 X73.547 Y49.916 E2.96428
G1 X73.579 Y50.355 E3.00908
G1 X73.586 Y50.542 E3.02813
G1 X73.582 Y53.618 E3.34119
G1 X73.558 Y53.995 E3.37964
G1 X73.521 Y54.29 E3.4099
G1 X73.323 Y55.283 E3.51295
G1 X73.276 Y55.964 E3.58242
G1 X73.316 Y56.648 E3.65216
G1 X73.34 Y56.769 E3.66471
G1 X73.325 Y56.772 E3.66627
G1 X73.503 Y57.602 E3.75266
G1 X73.547 Y57.916 E3.78493
G1 X73.579 Y58.355 E3.82973
G1 X73.586 Y58.542 E3.84878
G1 X73.582 Y61.618 E4.16184
G1 X73.558 Y61.995 E4.20029
G1 X73.521 Y62.293 E4.23085
G1 X73.467 Y62.572 E4.25977
G1 X73.394 Y62.852 E4.28922
G1 X73.203 Y63.403 E4.34857
G1 X73.18 Y63.453 E4.35418
G1 X72.999 Y63.816 E4.39546
G1 X72.859 Y64.057 E4.42383
G1 X72.693 Y64.306 E4.45428
G1 X72.522 Y64.53 E4.48296
G1 X72.168 Y64.929 E4.53725
G1 X71.097 Y65.993 E4.6909
G1 X70.804 Y66.25 E4.73057
G1 X70.594 Y66.414 E4.75769
G1 X70.344 Y66.583 E4.7884
G1 X70.088 Y66.732 E4.81854
G1 X69.631 Y66.958 E4.87043
G1 X69.563 Y66.984 E4.87784
G1 X69.185 Y67.116 E4.91859
G1 X68.93 Y67.186 E4.9455
G1 X68.652 Y67.246 E4.97445
G1 X68.341 Y67.29 E5.00642
G1 X67.902 Y67.322 E5.05122
G1 X67.715 Y67.329 E5.07026
G1 X52.125 Y67.325 E6.65695
G1 X51.748 Y67.301 E6.6954
G1 X51.453 Y67.264 E6.72566
G1 X51.166 Y67.208 E6.75542
G1 X50.891 Y67.137 E6.78432
G1 X50.34 Y66.946 E6.84367
G1 X50.28 Y66.918 E6.85041
G1 X49.925 Y66.741 E6.89079
G1 X49.686 Y66.602 E6.91893
G1 X49.431 Y66.432 E6.95012
G1 X49.213 Y66.265 E6.97807
G1 X48.814 Y65.911 E7.03235
G1 X47.843 Y64.94 E7.17211
G1 X47.742 Y64.831 E7.18724
G1 X47.491 Y64.545 E7.22596
G1 X47.329 Y64.337 E7.2528
G1 X47.16 Y64.087 E7.28351
G1 X47.008 Y63.826 E7.31425
G1 X46.783 Y63.37 E7.366
G1 X46.751 Y63.286 E7.37515
G1 X46.627 Y62.928 E7.41371
G1 X46.557 Y62.673 E7.44062
G1 X46.497 Y62.395 E7.46957
G1 X46.453 Y62.084 E7.50153
G1 X46.42 Y61.631 E7.54776
G1 X46.414 Y61.458 E7.56538
G1 X46.418 Y58.382 E7.87844
G1 X46.442 Y58.005 E7.91689
G1 X46.479 Y57.707 E7.94745
G1 X46.547 Y57.377 E7.98174
G1 X46.677 Y56.717 E8.05021
G1 X46.724 Y56.036 E8.11968
G1 X46.684 Y55.352 E8.18941
G1 X46.66 Y55.231 E8.20197
G1 X46.675 Y55.228 E8.20353
G1 X46.497 Y54.398 E8.28992
G1 X46.453 Y54.084 E8.32219
G1 X46.42 Y53.631 E8.36842
G1 X46.414 Y53.458 E8.38604
G1 X46.418 Y50.382 E8.6991
G1 X46.442 Y50.005 E8.73755
G1 X46.479 Y49.71 E8.7678
G1 X46.535 Y49.423 E8.79757
G1 X46.607 Y49.144 E8.82689
G1 X46.795 Y48.601 E8.88537
G1 X46.82 Y48.547 E8.89143
G1 X47.003 Y48.18 E8.93317
G1 X47.141 Y47.943 E8.96108
G1 X47.311 Y47.688 E8.99227
G1 X47.478 Y47.47 E9.02022
G1 X47.659 Y47.266 E9.04798
G0 F1012.5 X47.832 Y47.071
G0 F7200 X48 Y46.904
G1 F1125 X48 Y65.097 E10.89959
G0 F7200 X49.6 Y66.544
G1 F1125 X49.6 Y45.454 E13.04604
G0 F7200 X51.2 Y44.785
G1 F1125 X51.2 Y67.214 E15.32878
G0 F7200 X52.8 Y67.325
G1 F1125 X52.8 Y44.672 E17.63431
G0 F7200 X54.4 Y44.672
G1 F1125 X54.4 Y67.325 E19.93984
G0 F7200 X56 Y67.325
G1 F1125 X56 Y44.672 E22.24538
G0 F7200 X57.6 Y44.673
G1 F1125 X57.6 Y67.326 E24.55091
G0 F7200 X59.2 Y67.326
G1 F1125 X59.2 Y44.673 E26.85644
G0 F7200 X60.8 Y44.674
G1 F1125 X60.8 Y67.327 E29.16197
G0 F7200 X62.4 Y67.327
G1 F1125 X62.4 Y44.674 E31.4675
G0 F7200 X64 Y44.675
G1 F1125 X64 Y67.328 E33.77304
G0 F7200 X65.6 Y67.328
G1 F1125 X65.6 Y44.675 E36.07857
G0 F7200 X67.2 Y44.675
G1 F1125 X67.2 Y67.328 E38.3841
G0 F7200 X68.8 Y67.215
G1 F1125 X68.8 Y44.786 E40.66683
G0 F7200 X70.4 Y45.456
G1 F1125 X70.4 Y66.546 E42.81329
G0 F7200 X72 Y65.096
M104 S230
G1 F1125 X72 Y46.907 E44.66449
G0 F600 X72 Y46.907 Z0.525
G0 F7200 X73.418 Y49.056
;TIME_ELAPSED:51.656683
;LAYER:-4
M140 S70
;TYPE:SUPPORT
G1 F1125 X73.287 Y48.677 E44.69005
G1 X73.252 Y48.586 E44.69627
G1 X73.027 Y48.135 E44.72839
G1 X72.877 Y47.88 E44.74724
G1 X72.712 Y47.637 E44.76596
G1 X72.541 Y47.416 E44.78377
G1 X72.278 Y47.116 E44.8092
G1 X71.23 Y46.061 E44.90398
G1 X70.83 Y45.706 E44.93806
G1 X70.579 Y45.515 E44.95817
G1 X70.35 Y45.362 E44.97572
G1 X70.085 Y45.208 E44.99525
G1 X69.74 Y45.035 E45.01985
G1 X69.685 Y45.01 E45.0237
G1 X69.133 Y44.817 E45.06097
G1 X68.955 Y44.772 E45.07268
G1 X73.488 Y49.305 E45.48125
G0 F7200 X68.955 Y44.772
G1 F1125 X68.843 Y44.743 E45.48863
G1 X68.546 Y44.685 E45.50792
G1 X68.259 Y44.648 E45.52636
G1 X67.875 Y44.624 E45.55088
G1 X67.535 Y44.624 E45.57255
G1 X73.635 Y50.725 E46.12242
G1 X73.633 Y51.996 E46.20342
G1 X66.262 Y44.624 E46.86785
G1 X64.989 Y44.624 E46.94898
G1 X73.631 Y53.267 E47.72797
G1 X73.631 Y53.619 E47.75041
G1 X73.606 Y54.003 E47.77493
G1 X73.57 Y54.29 E47.79337
G1 X73.539 Y54.447 E47.80357
G1 X63.715 Y44.624 E48.689
G1 X62.443 Y44.624 E48.77007
G1 X73.354 Y55.535 E49.75353
G1 X73.324 Y55.963 E49.78088
G1 X73.365 Y56.642 E49.82423
G1 X73.398 Y56.808 E49.83502
G1 X73.384 Y56.811 E49.83593
G1 X73.392 Y56.845 E49.83816
G1 X61.169 Y44.623 E50.93983
G1 X59.896 Y44.623 E51.02096
G1 X73.628 Y58.355 E52.25869
G1 X73.635 Y58.527 E52.26966
G1 X73.633 Y59.633 E52.34015
G1 X58.624 Y44.623 E53.69302
G1 X57.35 Y44.622 E53.77422
G1 X73.632 Y60.904 E55.24179
G1 X73.631 Y61.62 E55.28743
G1 X73.606 Y62.003 E55.31189
G1 X73.59 Y62.135 E55.32036
G1 X56.077 Y44.622 E56.89889
G1 X54.804 Y44.621 E56.98002
G1 X73.338 Y63.156 E58.65062
G1 X73.224 Y63.476 E58.67227
G1 X73.048 Y63.829 E58.69741
G1 X72.934 Y64.024 E58.71181
G1 X53.531 Y44.621 E60.46069
G1 X52.282 Y44.621 E60.54029
G1 X52.259 Y44.622 E60.54176
G1 X72.39 Y64.754 E62.3563
G1 X72.195 Y64.973 E62.37499
G1 X71.766 Y65.402 E62.41366
G1 X51.116 Y44.752 E64.27494
G1 X51.061 Y44.764 E64.27853
G1 X50.797 Y44.836 E64.29597
G1 X50.43 Y44.964 E64.32074
G1 X50.334 Y45.001 E64.3273
G1 X50.173 Y45.082 E64.33878
G1 X71.125 Y66.033 E66.22724
G1 X70.84 Y66.284 E66.25144
G1 X70.619 Y66.456 E66.26929
G1 X70.413 Y66.595 E66.28513
G1 X49.37 Y45.551 E68.18188
G1 X49.158 Y45.715 E68.19896
G1 X48.869 Y45.969 E68.22348
G1 X48.759 Y46.07 E68.233
G1 X48.687 Y46.142 E68.23949
G1 X69.576 Y67.03 E70.12226
G1 X69.572 Y67.033 E70.12258
G1 X69.199 Y67.163 E70.14776
G1 X68.937 Y67.235 E70.16508
G1 X68.67 Y67.293 E70.18249
G1 X68.578 Y67.305 E70.1884
G1 X48.051 Y46.778 E72.03859
G1 X47.803 Y47.026 E72.06095
G1 X47.448 Y47.426 E72.09503
G1 X47.439 Y47.439 E72.09604
G1 X67.378 Y67.378 E73.89323
G1 X66.105 Y67.378 E73.97437
G1 X46.932 Y48.205 E75.70252
G1 X46.775 Y48.523 E75.72512
G1 X46.749 Y48.578 E75.729
G1 X46.565 Y49.11 E75.76488
G1 X64.831 Y67.377 E77.41132
G1 X63.559 Y67.377 E77.49239
G1 X46.379 Y50.197 E79.0409
G1 X46.368 Y50.379 E79.05252
G1 X46.366 Y51.457 E79.12123
G1 X62.285 Y67.376 E80.55608
G1 X61.012 Y67.375 E80.63721
G1 X46.364 Y52.728 E81.95746
G1 X46.364 Y53.472 E82.00488
G1 X46.371 Y53.646 E82.01597
G1 X46.398 Y54.035 E82.04083
G1 X59.739 Y67.375 E83.24327
G1 X58.465 Y67.375 E83.32447
G1 X46.645 Y55.555 E84.38986
G1 X46.673 Y56.034 E84.42044
G1 X46.628 Y56.709 E84.46355
G1 X46.611 Y56.793 E84.46901
G1 X57.192 Y67.375 E85.42277
G1 X55.919 Y67.374 E85.50391
G1 X46.408 Y57.863 E86.36118
G1 X46.392 Y57.996 E86.36972
G1 X46.368 Y58.379 E86.39417
G1 X46.367 Y59.095 E86.43981
G1 X54.646 Y67.374 E87.18603
G1 X53.373 Y67.373 E87.26717
G1 X46.365 Y60.366 E87.89878
G1 X46.364 Y61.472 E87.96927
G1 X46.37 Y61.644 E87.98024
G1 X52.098 Y67.371 E88.49649
G1 X51.74 Y67.35 E88.51934
G1 X51.452 Y67.314 E88.53784
G1 X51.155 Y67.256 E88.55713
G1 X50.865 Y67.18 E88.57624
G1 X50.511 Y67.057 E88.60012
G1 X46.677 Y63.223 E88.9457
G0 F7200 X46.707 Y63.308
G1 F1125 X46.746 Y63.409 E88.9526
G1 X46.97 Y63.862 E88.98481
G1 X47.12 Y64.119 E89.00377
G1 X47.287 Y64.362 E89.02257
G1 X47.458 Y64.582 E89.04032
G1 X47.712 Y64.872 E89.06489
G1 X47.813 Y64.981 E89.07437
G1 X48.769 Y65.937 E89.16053
G1 X49.168 Y66.291 E89.19453
G1 X49.418 Y66.482 E89.21458
G1 X49.648 Y66.637 E89.23226
G1 X49.913 Y66.791 E89.25179
G1 X50.259 Y66.963 E89.27642
G1 X50.314 Y66.989 E89.2803
G1 X50.511 Y67.057 E89.29358
G0 F600 X50.511 Y67.057 Z0.7
G0 F7200 X52.173 Y67.55
;TIME_ELAPSED:89.551246
;LAYER:-3
;TYPE:SUPPORT-INTERFACE
G1 F1500 X61.191 Y67.55 E89.52322
G1 X52.243 Y67.554 E89.75108
G0 F7200 X61.191 Y67.55
G1 F1500 X67.904 Y67.547 E89.92203
G1 X68.687 Y67.469 E89.94206
G1 X69.269 Y67.325 E89.95733
G1 X69.62 Y67.2 E89.96682
G1 X50.385 Y67.2 E90.45663
G1 X50.256 Y67.155 E90.46011
G1 X49.815 Y66.938 E90.47263
G1 X49.674 Y66.85 E90.47686
G1 X70.323 Y66.85 E91.00268
G1 X70.726 Y66.596 E91.01481
G1 X70.838 Y66.5 E91.01857
G1 X49.161 Y66.5 E91.57057
G1 X48.743 Y66.153 E91.58441
G1 X48.739 Y66.15 E91.58453
G1 X71.249 Y66.15 E92.15775
G1 X71.353 Y66.062 E92.16121
G1 X71.613 Y65.8 E92.17061
G1 X48.387 Y65.8 E92.76206
G1 X48.036 Y65.45 E92.77468
G1 X71.96 Y65.45 E93.3839
G1 X72.308 Y65.1 E93.39647
G1 X47.684 Y65.1 E94.02351
G1 X47.68 Y65.096 E94.02366
G1 X47.371 Y64.75 E94.03547
G1 X72.615 Y64.75 E94.6783
G1 X72.876 Y64.436 E94.6887
G1 X72.898 Y64.4 E94.68978
G1 X47.108 Y64.4 E95.34651
G1 X46.969 Y64.208 E95.35255
G1 X46.884 Y64.05 E95.35712
G1 X73.117 Y64.05 E96.02514
G1 X73.195 Y63.926 E96.02887
G1 X73.306 Y63.7 E96.03528
G1 X46.695 Y63.7 E96.71292
G1 X46.633 Y63.583 E96.71629
G1 X46.544 Y63.35 E96.72265
G1 X73.459 Y63.35 E97.40803
G1 X73.58 Y63 E97.41746
G1 X46.414 Y63 E98.10924
G1 X46.327 Y62.65 E98.11842
G1 X73.679 Y62.65 E98.81493
G1 X73.686 Y62.625 E98.81559
G1 X73.736 Y62.3 E98.82397
G1 X46.26 Y62.3 E99.52364
G1 X46.225 Y61.95 E99.5326
G1 X73.785 Y61.95 E100.23441
G1 X73.805 Y61.6 E100.24333
G1 X46.194 Y61.6 E100.94644
G1 X46.194 Y61.25 E100.95535
G1 X73.811 Y61.25 E101.65862
G1 X73.81 Y60.9 E101.66753
G1 X46.193 Y60.9 E102.37079
G1 X46.192 Y60.55 E102.3797
G1 X73.809 Y60.55 E103.08296
G1 X73.809 Y60.2 E103.09188
G1 X46.191 Y60.2 E103.79516
G1 X46.191 Y59.85 E103.80407
G1 X73.808 Y59.85 E104.50734
G1 X73.807 Y59.5 E104.51625
G1 X46.19 Y59.5 E105.21951
G1 X46.19 Y59.15 E105.22842
G1 X73.806 Y59.15 E105.93166
G1 X73.806 Y58.8 E105.94057
G1 X46.189 Y58.8 E106.64383
G1 X46.189 Y58.501 E106.65145
G1 X46.192 Y58.45 E106.65275
G1 X73.805 Y58.45 E107.35591
G1 X73.804 Y58.346 E107.35855
G1 X73.78 Y58.1 E107.36485
G1 X46.212 Y58.1 E108.06686
G1 X46.218 Y57.987 E108.06974
G1 X46.256 Y57.75 E108.07586
G1 X73.745 Y57.75 E108.77586
G1 X73.726 Y57.571 E108.78044
G1 X73.693 Y57.4 E108.78488
G1 X46.31 Y57.4 E109.48218
G1 X46.314 Y57.373 E109.48287
G1 X46.38 Y57.05 E109.49127
G1 X73.625 Y57.05 E110.18506
G1 X73.557 Y56.7 E110.19414
G1 X46.452 Y56.7 E110.88436
G1 X46.454 Y56.687 E110.88469
G1 X46.477 Y56.35 E110.8933
G1 X73.525 Y56.35 E111.58207
G1 X73.505 Y56 E111.59099
G1 X46.495 Y56 E112.2788
G1 X46.475 Y55.65 E112.28773
G1 X73.523 Y55.65 E112.9765
G1 X73.546 Y55.312 E112.98512
G1 X73.548 Y55.3 E112.98543
G1 X46.444 Y55.3 E113.67563
G1 X46.375 Y54.95 E113.68472
G1 X73.619 Y54.95 E114.37848
G1 X73.687 Y54.621 E114.38703
G1 X73.69 Y54.6 E114.38757
G1 X46.307 Y54.6 E115.08488
G1 X46.274 Y54.428 E115.08934
G1 X46.256 Y54.25 E115.09389
G1 X73.744 Y54.25 E115.79387
G1 X73.782 Y54.012 E115.80001
G1 X73.788 Y53.9 E115.80286
G1 X46.221 Y53.9 E116.50485
G1 X46.196 Y53.647 E116.51132
G1 X46.195 Y53.55 E116.51379
G1 X73.808 Y53.55 E117.21695
G1 X73.811 Y53.498 E117.21828
G1 X73.811 Y53.2 E117.22587
G1 X46.195 Y53.2 E117.9291
G1 X46.194 Y52.85 E117.93802
G1 X73.81 Y52.85 E118.64125
G1 X73.809 Y52.5 E118.65016
G1 X46.193 Y52.5 E119.3534
G1 X46.192 Y52.15 E119.36231
G1 X73.809 Y52.15 E120.06557
G1 X73.808 Y51.8 E120.07449
G1 X46.191 Y51.8 E120.77775
G1 X46.191 Y51.45 E120.78666
G1 X73.807 Y51.45 E121.4899
G1 X73.806 Y51.1 E121.49881
G1 X46.19 Y51.1 E122.20204
G1 X46.189 Y50.75 E122.21096
G1 X73.805 Y50.75 E122.91419
G1 X73.805 Y50.4 E122.92311
G1 X46.195 Y50.4 E123.62619
G1 X46.215 Y50.05 E123.63512
G1 X73.775 Y50.05 E124.33693
G1 X73.739 Y49.7 E124.34589
G1 X46.264 Y49.7 E125.04553
G1 X46.315 Y49.372 E125.05398
G1 X46.321 Y49.35 E125.05456
G1 X73.672 Y49.35 E125.75105
G1 X73.586 Y49 E125.76023
G1 X46.42 Y49 E126.45201
G1 X46.541 Y48.65 E126.46144
G1 X73.455 Y48.65 E127.1468
G1 X73.364 Y48.412 E127.15328
G1 X73.304 Y48.3 E127.15652
G1 X46.694 Y48.3 E127.83414
G1 X46.805 Y48.073 E127.84057
G1 X46.882 Y47.95 E127.84427
G1 X73.116 Y47.95 E128.51231
G1 X73.03 Y47.791 E128.51691
G1 X72.892 Y47.6 E128.52291
G1 X47.101 Y47.6 E129.17968
G1 X47.124 Y47.563 E129.18079
G1 X47.384 Y47.25 E129.19115
G1 X72.629 Y47.25 E129.83401
G1 X72.319 Y46.903 E129.84586
G0 F7200 X72.316 Y46.9
G1 F1500 X47.691 Y46.9 E130.47293
G1 X48.039 Y46.55 E130.48549
G1 X71.964 Y46.55 E131.09474
G1 X71.613 Y46.2 E131.10736
G1 X48.387 Y46.2 E131.69881
G1 X48.647 Y45.938 E131.70821
G1 X48.746 Y45.85 E131.71158
G1 X71.261 Y45.85 E132.28492
G1 X71.256 Y45.846 E132.28508
G1 X70.839 Y45.5 E132.29888
G1 X49.159 Y45.5 E132.85096
G1 X49.535 Y45.227 E132.86279
G1 X49.679 Y45.15 E132.86695
G1 X70.327 Y45.15 E133.39274
G1 X70.184 Y45.061 E133.39703
G1 X69.742 Y44.843 E133.40958
G1 X69.618 Y44.8 E133.41293
G1 X50.401 Y44.8 E133.90228
G1 X50.731 Y44.675 E133.91127
G1 X51.313 Y44.531 E133.92654
G1 X52.096 Y44.453 E133.94657
G1 X57.969 Y44.45 E134.09613
G1 X67.843 Y44.45 E134.34757
G0 F7200 X67.756 Y44.445
G1 F1500 X57.969 Y44.45 E134.59679
G0 F600 X57.969 Y44.45 Z1.226
G0 F7200 X68.136 Y53.254
;TIME_ELAPSED:162.321624
;LAYER:0
M106 S255
;TYPE:WALL-INNER
;MESH:Insert_connector.stl
G1 F1800 X67.511 Y53.879 E134.63062
G1 X52.489 Y53.879 E135.20551
G1 X51.864 Y53.254 E135.23934
G1 X51.864 Y50.746 E135.33532
G1 X52.489 Y50.121 E135.36914
G1 X67.511 Y50.121 E135.94403
G1 X68.136 Y50.746 E135.97786
G1 X68.136 Y52.56 E136.04728
G0 F1620 X68.136 Y53.254
G0 F4320 X68.486 Y53.398
G1 F1800 X67.655 Y54.229 E136.09226
G1 X52.345 Y54.229 E136.67817
G1 X51.514 Y53.398 E136.72315
G1 X51.514 Y50.602 E136.83015
G1 X52.345 Y49.771 E136.87512
G1 X67.655 Y49.771 E137.46104
G1 X68.486 Y50.602 E137.50601
G1 X68.486 Y52.704 E137.58645
G0 F1620 X68.486 Y53.398
G0 F4320 X68.811 Y53.533
;TYPE:WALL-OUTER
G1 F1800 X67.79 Y54.554 E137.64171
G1 X52.21 Y54.554 E138.23796
G1 X51.189 Y53.533 E138.29322
G1 X51.189 Y50.467 E138.41055
G1 X52.21 Y49.446 E138.46581
G1 X67.79 Y49.446 E139.06206
G1 X68.811 Y50.467 E139.11732
G1 X68.811 Y52.839 E139.20809
G0 F1620 X68.811 Y53.533
G0 F4320 X68.67 Y53.674
G0 X68.476 Y53.48
G0 X67.796 Y53.112
;TYPE:SKIN
G1 F1800 X67.369 Y53.539 E139.2312
G1 X52.631 Y53.539 E139.79522
G1 X52.204 Y53.112 E139.81833
G1 X52.204 Y50.888 E139.90345
G1 X52.631 Y50.461 E139.92656
G1 X67.369 Y50.461 E140.49058
G1 X67.796 Y50.888 E140.51369
