;FLAVOR:Marlin
;TIME:1640
;Filament used: 0.879711m
;Layer height: 0.175
;MINX:48.435
;MINY:50.902
;MINZ:0.306
;MAXX:70.875
;MAXY:69.997
;MAXZ:20.345
;Generated with Cura_SteamEngine 4.6.1
M140 S70
M105
M190 S70
M104 S235
M105
M109 S235
M82 ;absolute extrusion mode
G21;(metric values)
G90;(absolute positioning)
M82;(set extruder to absolute mode)
M107;(start with the fan off)
G28;(Home the printer)
G92 E0;(Reset the extruder to 0)
G0 Z5 E5 F500;(Move up and prime the nozzle)
G0 X-1 Z0;(Move outside the printable area)
G1 Y60 E8 F500;(Draw a priming/wiping line to the rear)
G1 X-1;(Move a little closer to the print area)
G1 Y10 E16 F500;(draw more priming/wiping)
G1 E15 F250;(Small retract)
G92 E0;(Zero the extruder)
G92 E0
G92 E0
G1 F2400 E-4.5
;LAYER_COUNT:111
;LAYER:-5
M107
G0 F7200 X50.073 Y52.837 Z0.306
;TYPE:SUPPORT-INTERFACE
G1 F2400 E0
G1 F1125 X50.175 Y52.742 E0.01419
G1 X50.47 Y52.483 E0.05414
G1 X50.685 Y52.316 E0.08185
G1 X50.916 Y52.16 E0.11022
G1 X51.184 Y52.002 E0.14188
G1 X51.441 Y51.872 E0.17119
G1 X51.711 Y51.756 E0.2011
G1 X51.967 Y51.664 E0.22879
G1 X52.259 Y51.58 E0.25971
G1 X52.52 Y51.524 E0.28688
G1 X52.84 Y51.476 E0.31981
G1 X53.307 Y51.44 E0.36748
G1 X53.5 Y51.433 E0.38714
G1 X57.279 Y51.432 E0.77175
G1 X57.944 Y51.39 E0.83956
G1 X58.415 Y51.308 E0.88822
G1 X58.83 Y51.217 E0.93146
G1 X59.154 Y51.169 E0.9648
G1 X59.752 Y51.128 E1.0258
G1 X59.808 Y51.13 E1.03151
G1 X60.184 Y51.154 E1.06985
G1 X60.482 Y51.191 E1.10041
G1 X60.766 Y51.246 E1.12986
G1 X61.057 Y51.322 E1.16047
G1 X61.314 Y51.406 E1.18798
G1 X61.594 Y51.517 E1.21864
G1 X61.852 Y51.639 E1.24768
G1 X62.601 Y52.054 E1.33483
G1 X62.606 Y52.046 E1.33579
G1 X63.248 Y52.299 E1.40602
G1 X63.911 Y52.468 E1.47566
G1 X64.614 Y52.551 E1.54771
G1 X64.953 Y52.567 E1.58225
G1 X65.231 Y52.593 E1.61066
G1 X65.397 Y52.616 E1.62772
G1 X65.765 Y52.678 E1.6657
G1 X66.007 Y52.733 E1.69096
G1 X66.486 Y52.877 E1.74186
G1 X66.628 Y52.931 E1.75733
G1 X67.022 Y53.09 E1.80057
G1 X67.214 Y53.178 E1.82206
G1 X67.43 Y53.293 E1.84697
G1 X67.729 Y53.468 E1.88223
G1 X68.054 Y53.679 E1.92167
G1 X68.283 Y53.85 E1.95075
G1 X68.498 Y54.032 E1.97942
G1 X68.714 Y54.242 E2.01008
G1 X68.894 Y54.439 E2.03724
G1 X69.1 Y54.695 E2.07069
G1 X69.242 Y54.897 E2.09582
G1 X69.409 Y55.168 E2.12821
G1 X69.546 Y55.426 E2.15794
G1 X69.662 Y55.685 E2.18683
G1 X69.905 Y56.339 E2.25784
G1 X69.99 Y56.546 E2.28061
G1 X70.08 Y56.812 E2.30919
G1 X70.157 Y57.099 E2.33943
G1 X70.198 Y57.309 E2.36121
G1 X70.304 Y57.749 E2.40727
G1 X70.352 Y57.911 E2.42447
G1 X70.413 Y58.197 E2.45423
G1 X70.459 Y58.502 E2.48562
G1 X70.484 Y58.747 E2.51069
G1 X70.478 Y58.748 E2.51131
G1 X70.572 Y59.651 E2.60371
G1 X70.583 Y59.871 E2.62613
G1 X70.605 Y60.172 E2.65684
G1 X70.62 Y60.529 E2.69321
G1 X70.626 Y60.882 E2.72914
G1 X70.64 Y61.137 E2.75513
G1 X70.635 Y61.513 E2.7934
G1 X70.638 Y61.794 E2.822
G1 X70.655 Y62.24 E2.86743
G1 X70.648 Y62.543 E2.89828
G1 X70.623 Y62.832 E2.9278
G1 X70.598 Y63.009 E2.94599
G1 X70.591 Y63.009 E2.9467
G1 X70.54 Y63.502 E2.99715
G1 X70.514 Y63.909 E3.03865
G1 X70.506 Y64.26 E3.07439
G1 X70.494 Y64.447 E3.09346
G1 X70.455 Y64.831 E3.13274
G1 X70.423 Y65.047 E3.15497
G1 X70.299 Y65.681 E3.22071
G1 X70.242 Y65.912 E3.24493
G1 X70.187 Y66.082 E3.26311
G1 X70.058 Y66.438 E3.30165
G1 X69.951 Y66.689 E3.32942
G1 X69.768 Y67.05 E3.37061
G1 X69.685 Y67.19 E3.38718
G1 X69.475 Y67.517 E3.42673
G1 X69.313 Y67.738 E3.45462
G1 X69.085 Y68.012 E3.4909
G1 X68.892 Y68.226 E3.52023
G1 X68.729 Y68.395 E3.54412
G1 X68.448 Y68.642 E3.5822
G1 X67.967 Y69.002 E3.64335
G1 X67.827 Y69.097 E3.66057
G1 X67.749 Y69.141 E3.66968
G1 X67.429 Y69.311 E3.70656
G1 X67.162 Y69.431 E3.73635
G1 X66.871 Y69.54 E3.76798
G1 X66.612 Y69.619 E3.79554
G1 X66.323 Y69.687 E3.82576
G1 X66.041 Y69.736 E3.85489
G1 X65.749 Y69.766 E3.88476
G1 X65.453 Y69.779 E3.91492
G1 X65.172 Y69.772 E3.94352
G1 X64.875 Y69.748 E3.97385
G1 X64.583 Y69.705 E4.00389
G1 X64.3 Y69.644 E4.03335
G1 X64.12 Y69.594 E4.05237
G1 X63.463 Y69.452 E4.12078
G1 X62.68 Y69.395 E4.20068
G1 X59.848 Y69.398 E4.48891
G1 X59.703 Y69.393 E4.50368
G1 X59.349 Y69.372 E4.53977
G1 X59.037 Y69.333 E4.57177
G1 X58.756 Y69.279 E4.60089
G1 X58.472 Y69.206 E4.63073
G1 X58.2 Y69.117 E4.65986
G1 X57.924 Y69.007 E4.6901
G1 X57.662 Y68.883 E4.7196
G1 X57.415 Y68.747 E4.7483
G1 X57.177 Y68.594 E4.7771
G1 X56.923 Y68.407 E4.8092
G1 X56.576 Y68.11 E4.85568
G1 X56.47 Y68.012 E4.87038
G1 X56.375 Y67.912 E4.88441
G1 X56.171 Y67.682 E4.9157
G1 X55.695 Y67.21 E4.98393
G1 X55.154 Y66.794 E5.05338
G1 X54.564 Y66.45 E5.12289
G1 X53.936 Y66.182 E5.19239
G1 X53.282 Y65.997 E5.26156
G1 X52.82 Y65.919 E5.30925
G1 X52.657 Y65.898 E5.32597
G1 X52.367 Y65.843 E5.35601
G1 X52.077 Y65.767 E5.38652
G1 X51.811 Y65.681 E5.41498
G1 X51.548 Y65.575 E5.44384
G1 X51.285 Y65.45 E5.47347
G1 X51.022 Y65.305 E5.50404
G1 X50.802 Y65.164 E5.53063
G1 X50.533 Y64.963 E5.56481
G1 X50.169 Y64.647 E5.61387
G1 X50.027 Y64.514 E5.63367
G1 X49.928 Y64.406 E5.64858
G1 X49.706 Y64.151 E5.68299
G1 X49.517 Y63.901 E5.71489
G1 X49.365 Y63.674 E5.74269
G1 X49.205 Y63.396 E5.77534
G1 X49.089 Y63.161 E5.80201
G1 X48.97 Y62.88 E5.83307
G1 X48.874 Y62.607 E5.86252
G1 X48.802 Y62.348 E5.88988
G1 X48.74 Y62.048 E5.92106
G1 X48.699 Y61.754 E5.95127
G1 X48.667 Y61.311 E5.99647
G1 X48.661 Y61.133 E6.0146
G1 X48.665 Y56.105 E6.52633
G1 X48.689 Y55.728 E6.56478
G1 X48.726 Y55.43 E6.59534
G1 X48.781 Y55.146 E6.62478
G1 X48.857 Y54.855 E6.65539
G1 X48.941 Y54.597 E6.68301
G1 X49.052 Y54.318 E6.71357
G1 X49.174 Y54.06 E6.74261
G1 X49.32 Y53.797 E6.77323
G1 X49.457 Y53.582 E6.79917
G1 X49.655 Y53.316 E6.83292
G1 X49.899 Y53.031 E6.87111
G0 F1012.5 X49.959 Y52.962
G0 X50.073 Y52.837
G0 F7200 X49.6 Y53.389
G1 F1125 X49.6 Y64.01 E7.95207
G0 F7200 X51.2 Y65.403
G1 F1125 X51.2 Y51.993 E9.31689
G0 F7200 X52.8 Y51.482
G1 F1125 X52.8 Y65.916 E10.78592
G0 F7200 X54.4 Y66.38
G1 F1125 X54.4 Y51.432 E12.30727
G0 F7200 X56 Y51.432
G1 F1125 X56 Y67.512 E13.94383
G0 F7200 X57.6 Y68.848
G1 F1125 X57.6 Y51.411 E15.7185
G0 F7200 X59.2 Y51.165
G1 F1125 X59.2 Y69.353 E17.5696
G0 F7200 X60.8 Y69.397
G1 F1125 X60.8 Y51.255 E19.41602
G0 F7200 X62.4 Y51.943
G1 F1125 X62.4 Y69.396 E21.19232
G0 F7200 X64 Y69.568
G1 F1125 X64 Y52.479 E22.93157
G0 F7200 X65.6 Y52.651
G1 F1125 X65.6 Y69.773 E24.67418
G0 F7200 X67.2 Y69.414
G1 F1125 X67.2 Y53.172 E26.32722
G0 F7200 X68.8 Y54.337
M104 S230
G1 F1125 X68.8 Y68.322 E27.75056
G0 F7200 X70.4 Y65.165
G1 F1125 X70.4 Y58.137 E28.46584
G0 F600 X70.4 Y58.137 Z0.525
G0 F7200 X69.732 Y55.732
;TIME_ELAPSED:43.093457
;LAYER:-4
M140 S70
;TYPE:SUPPORT
G1 F1125 X67.048 Y53.047 E28.70781
G1 X67.231 Y53.132 E28.72067
G1 X67.462 Y53.253 E28.73729
G1 X67.756 Y53.426 E28.75903
G1 X68.075 Y53.634 E28.7833
G1 X68.305 Y53.805 E28.80157
G1 X68.538 Y54.001 E28.82097
G1 X68.748 Y54.206 E28.83968
G1 X68.935 Y54.411 E28.85736
G1 X69.138 Y54.662 E28.87794
G1 X69.289 Y54.878 E28.89473
G1 X69.45 Y55.14 E28.91433
G1 X69.59 Y55.404 E28.93338
G1 X69.706 Y55.662 E28.95141
G0 F7200 X67.048 Y53.047
G1 F1125 X67.04 Y53.043 E28.95198
G1 X66.635 Y52.88 E28.9798
G1 X66.514 Y52.835 E28.98803
G1 X66.016 Y52.684 E29.0212
G1 X65.78 Y52.629 E29.03664
G1 X65.403 Y52.567 E29.06099
G1 X65.277 Y52.549 E29.0691
G1 X70.316 Y57.588 E29.52329
G1 X70.352 Y57.735 E29.53294
G1 X70.4 Y57.901 E29.54395
G1 X70.456 Y58.165 E29.56115
G1 X70.51 Y58.513 E29.5836
G1 X70.536 Y58.798 E29.60184
G1 X70.531 Y58.798 E29.60216
G1 X70.565 Y59.11 E29.62216
G1 X63.859 Y52.404 E30.2266
G1 X63.262 Y52.252 E30.26586
G1 X62.633 Y52.005 E30.30893
G1 X62.586 Y51.979 E30.31236
G1 X62.581 Y51.987 E30.31296
G1 X61.881 Y51.598 E30.364
G1 X61.69 Y51.507 E30.37748
G1 X70.667 Y60.485 E31.18667
G1 X70.668 Y60.529 E31.18947
G1 X70.675 Y60.88 E31.21185
G1 X70.689 Y61.16 E31.22971
G1 X70.684 Y61.513 E31.25221
G1 X70.687 Y61.777 E31.26904
G1 X60.002 Y51.092 E32.23213
G1 X59.809 Y51.079 E32.24446
G1 X59.616 Y51.082 E32.25676
G1 X59.143 Y51.118 E32.28699
G1 X58.824 Y51.166 E32.30755
G1 X58.807 Y51.171 E32.30868
G1 X70.647 Y63.01 E33.37583
G1 X70.64 Y63.059 E33.37899
G1 X70.635 Y63.059 E33.3793
G1 X70.589 Y63.505 E33.40788
G1 X70.563 Y63.911 E33.43381
G1 X70.557 Y64.193 E33.45179
G1 X57.718 Y51.354 E34.60902
G1 X57.276 Y51.381 E34.63725
G1 X56.473 Y51.382 E34.68843
G1 X70.418 Y65.327 E35.94535
G1 X70.345 Y65.693 E35.96914
G1 X70.286 Y65.934 E35.98495
G1 X70.232 Y66.098 E35.99596
G1 X70.149 Y66.331 E36.01172
G1 X55.201 Y51.383 E37.35905
G1 X53.928 Y51.383 E37.44019
G1 X69.74 Y67.194 E38.86535
G1 X69.726 Y67.217 E38.86706
G1 X69.515 Y67.547 E38.89203
G1 X69.352 Y67.768 E38.90953
G1 X69.208 Y67.935 E38.92359
G1 X52.716 Y51.443 E40.41008
G1 X52.513 Y51.473 E40.42316
G1 X52.233 Y51.533 E40.44141
G1 X51.965 Y51.61 E40.45919
G1 X51.705 Y51.705 E40.47683
G1 X68.585 Y68.585 E41.9983
G1 X68.475 Y68.683 E42.00769
G1 X67.996 Y69.04 E42.04576
G1 X67.86 Y69.133 E42.05626
G1 X50.863 Y52.136 E43.58828
G1 X50.65 Y52.278 E43.6046
G1 X50.43 Y52.448 E43.62232
G1 X50.15 Y52.696 E43.64616
G1 X66.999 Y69.544 E45.16479
G1 X66.883 Y69.588 E45.17269
G1 X66.622 Y69.667 E45.19007
G1 X66.341 Y69.734 E45.20849
G1 X66.04 Y69.785 E45.22794
G1 X65.973 Y69.792 E45.23224
G1 X49.551 Y53.369 E46.71247
G1 X49.416 Y53.552 E46.72697
G1 X49.276 Y53.771 E46.74353
G1 X49.134 Y54.028 E46.76225
G1 X49.07 Y54.161 E46.77165
G1 X64.678 Y69.769 E48.17847
G1 X64.579 Y69.755 E48.18484
G1 X64.295 Y69.693 E48.20337
G1 X64.107 Y69.641 E48.2158
G1 X63.455 Y69.501 E48.25831
G1 X63.112 Y69.476 E48.28022
G1 X48.74 Y55.104 E49.57564
G1 X48.733 Y55.13 E49.57735
G1 X48.675 Y55.43 E49.59683
G1 X48.638 Y55.719 E49.6154
G1 X48.615 Y56.101 E49.63979
G1 X48.614 Y56.251 E49.64935
G1 X61.808 Y69.444 E50.83854
G1 X60.536 Y69.446 E50.91961
G1 X48.613 Y57.523 E51.99428
G1 X48.612 Y58.794 E52.07529
G1 X59.224 Y69.406 E53.0318
G1 X59.034 Y69.382 E53.044
G1 X58.737 Y69.324 E53.06329
G1 X58.454 Y69.253 E53.08189
G1 X58.187 Y69.165 E53.0998
G1 X57.912 Y69.056 E53.11866
G1 X57.63 Y68.923 E53.13853
G1 X57.398 Y68.794 E53.15545
G1 X57.236 Y68.691 E53.16768
G1 X48.611 Y60.066 E53.94509
G1 X48.61 Y61.146 E54.01393
G1 X48.617 Y61.325 E54.02535
G1 X48.619 Y61.347 E54.02675
G1 X53.334 Y66.062 E54.45174
G1 X53.27 Y66.045 E54.45596
G1 X52.813 Y65.968 E54.4855
G1 X52.657 Y65.948 E54.49552
G1 X52.361 Y65.892 E54.51472
G1 X52.06 Y65.813 E54.53455
G1 X51.798 Y65.726 E54.55215
G1 X51.678 Y65.678 E54.56039
G1 X48.943 Y62.943 E54.8069
G0 F7200 X49.039 Y63.173
G1 F1125 X49.172 Y63.438 E54.8258
G1 X49.321 Y63.698 E54.8449
G1 X49.476 Y63.931 E54.86274
G1 X49.657 Y64.17 E54.88184
G1 X49.892 Y64.438 E54.90456
G1 X49.998 Y64.555 E54.91462
G1 X50.128 Y64.676 E54.92594
G1 X50.505 Y65.004 E54.95779
G1 X50.772 Y65.204 E54.97905
G1 X51.005 Y65.352 E54.99665
G1 X51.248 Y65.487 E55.01436
G1 X51.524 Y65.618 E55.03384
G1 X51.678 Y65.678 E55.04437
G0 F600 X51.678 Y65.678 Z0.7
G0 F7200 X63.085 Y69.65
;TIME_ELAPSED:65.969965
;LAYER:-3
;TYPE:SUPPORT-INTERFACE
G1 F1500 X67.217 Y69.65 E55.14959
G1 X66.669 Y69.836 E55.16433
G1 X65.768 Y69.991 E55.18761
G1 X65.15 Y69.997 E55.20335
G1 X64.549 Y69.928 E55.21875
G1 X63.43 Y69.675 E55.24796
G0 F7200 X67.217 Y69.65
G1 F1500 X67.241 Y69.642 E55.24861
G1 X67.864 Y69.334 E55.26631
G1 X67.917 Y69.3 E55.26791
G1 X58.058 Y69.3 E55.51897
G1 X57.563 Y69.086 E55.5327
G1 X57.333 Y68.95 E55.5395
G1 X68.412 Y68.95 E55.82163
G1 X68.586 Y68.82 E55.82716
G1 X68.835 Y68.6 E55.83562
G1 X56.806 Y68.6 E56.14194
G1 X56.783 Y68.583 E56.14266
G1 X56.401 Y68.25 E56.15557
G1 X69.168 Y68.25 E56.48068
G1 X69.47 Y67.9 E56.49245
G1 X56.063 Y67.9 E56.83386
G1 X56.006 Y67.837 E56.83602
G1 X55.716 Y67.55 E56.84641
G1 X69.712 Y67.55 E57.20282
G1 X69.871 Y67.317 E57.21
G1 X69.933 Y67.2 E57.21337
G1 X55.311 Y67.2 E57.58572
G1 X55.027 Y66.981 E57.59485
G1 X54.802 Y66.85 E57.60148
G1 X70.119 Y66.85 E57.99152
G1 X70.157 Y66.78 E57.99355
G1 X70.265 Y66.5 E58.00119
G1 X54.106 Y66.5 E58.41268
G1 X53.86 Y66.395 E58.41949
G1 X53.231 Y66.217 E58.43614
G1 X52.807 Y66.15 E58.44707
G1 X70.4 Y66.15 E58.89507
G1 X70.498 Y65.8 E58.90432
G1 X51.51 Y65.8 E59.38785
G1 X51.445 Y65.776 E59.38961
G1 X50.907 Y65.499 E59.40502
G1 X50.836 Y65.45 E59.40722
G1 X70.569 Y65.45 E59.90972
G1 X70.634 Y65.1 E59.91878
G1 X50.347 Y65.1 E60.43539
G1 X50.014 Y64.811 E60.44661
G1 X49.953 Y64.75 E60.44881
G1 X70.687 Y64.75 E60.9768
G1 X70.718 Y64.4 E60.98575
G1 X49.632 Y64.4 E61.5227
G1 X49.345 Y64.05 E61.53422
G1 X70.74 Y64.05 E62.07904
G1 X70.756 Y63.7 E62.08796
G1 X49.126 Y63.7 E62.63877
G1 X49.013 Y63.516 E62.64427
G1 X48.936 Y63.35 E62.64893
G1 X70.785 Y63.35 E63.20531
G1 X70.829 Y63 E63.21429
G1 X48.776 Y63 E63.77586
G1 X48.761 Y62.967 E63.77679
G1 X48.661 Y62.65 E63.78525
G1 X70.857 Y62.65 E64.35047
G1 X70.875 Y62.3 E64.35939
G1 X48.564 Y62.3 E64.92754
G1 X48.503 Y61.95 E64.93658
G1 X70.873 Y61.95 E65.50623
G1 X70.863 Y61.6 E65.51515
G1 X48.463 Y61.6 E66.08556
G1 X48.441 Y61.25 E66.09449
G1 X70.857 Y61.25 E66.66531
G1 X70.852 Y60.9 E66.67422
G1 X48.435 Y60.9 E67.24507
G1 X48.435 Y60.55 E67.25398
G1 X70.842 Y60.55 E67.82457
G1 X70.832 Y60.2 E67.83348
G1 X48.435 Y60.2 E68.40382
G1 X48.435 Y59.85 E68.41273
G1 X70.811 Y59.85 E68.98253
G1 X70.797 Y59.631 E68.98812
G1 X70.785 Y59.5 E68.99147
G1 X48.435 Y59.5 E69.56061
G1 X48.436 Y59.15 E69.56952
G1 X70.75 Y59.15 E70.13774
G1 X70.715 Y58.8 E70.1467
G1 X48.436 Y58.8 E70.71403
G1 X48.436 Y58.45 E70.72294
G1 X70.678 Y58.45 E71.28933
G1 X70.615 Y58.1 E71.29839
G1 X48.436 Y58.1 E71.86317
G1 X48.436 Y57.75 E71.87208
G1 X70.544 Y57.75 E72.43506
G1 X70.454 Y57.4 E72.44426
G1 X48.436 Y57.4 E73.00494
G1 X48.436 Y57.05 E73.01386
G1 X70.369 Y57.05 E73.57238
G1 X70.296 Y56.747 E73.58031
G1 X70.279 Y56.7 E73.58159
G1 X48.436 Y56.7 E74.13781
G1 X48.436 Y56.35 E74.14673
G1 X70.149 Y56.35 E74.69964
G1 X70.019 Y56 E74.70915
G1 X48.449 Y56 E75.25843
G1 X48.465 Y55.71 E75.26582
G1 X48.475 Y55.65 E75.26737
G1 X69.889 Y55.65 E75.81267
G1 X69.867 Y55.592 E75.81425
G1 X69.724 Y55.3 E75.82253
G1 X48.53 Y55.3 E76.36223
G1 X48.562 Y55.092 E76.36759
G1 X48.604 Y54.95 E76.37136
G1 X69.536 Y54.95 E76.90439
G1 X69.306 Y54.6 E76.91506
G1 X48.706 Y54.6 E77.43963
G1 X48.731 Y54.514 E77.44191
G1 X48.847 Y54.25 E77.44926
G1 X69.017 Y54.25 E77.96288
G1 X68.864 Y54.072 E77.96886
G1 X68.674 Y53.9 E77.97538
G1 X49.008 Y53.9 E78.47617
G1 X49.216 Y53.55 E78.48654
G1 X68.247 Y53.55 E78.97116
G1 X67.856 Y53.281 E78.98325
G1 X67.713 Y53.2 E78.98743
G1 X49.461 Y53.2 E79.45222
G1 X49.479 Y53.175 E79.453
G1 X49.764 Y52.85 E79.46401
G1 X67.017 Y52.85 E79.90335
G1 X66.707 Y52.719 E79.91192
G1 X66.303 Y52.582 E79.92279
G1 X65.981 Y52.5 E79.93125
G1 X50.113 Y52.5 E80.33532
G1 X50.321 Y52.314 E80.34243
G1 X50.548 Y52.15 E80.34956
G1 X63.578 Y52.15 E80.68137
G1 X63.317 Y52.084 E80.68822
G1 X62.638 Y51.8 E80.70696
G1 X51.104 Y51.8 E81.00067
G1 X51.338 Y51.671 E81.00748
G1 X51.901 Y51.45 E81.02288
G1 X61.977 Y51.45 E81.27946
G1 X61.964 Y51.443 E81.27984
G1 X61.677 Y51.307 E81.28793
G1 X61.118 Y51.104 E81.30307
G1 X61.101 Y51.1 E81.30352
G1 X58.255 Y51.1 E81.37599
G1 X58.79 Y50.995 E81.38987
G1 X59.133 Y50.944 E81.3987
G1 X59.752 Y50.902 E81.4145
G1 X60.522 Y50.969 E81.43418
G0 F600 X60.522 Y50.969 Z0.898
G0 F7200 X53.456 Y56.208
;TIME_ELAPSED:108.517256
;LAYER:-2
M106 S255
;TYPE:SUPPORT
G1 F947.4 X59.463 Y56.207 E81.60726
G1 X59.582 Y56.088 E81.6121
G1 X59.582 Y56.972 E81.63757
G1 X59.932 Y57.322 E81.65183
G1 X64.544 Y57.322 E81.78471
G1 X64.788 Y57.346 E81.79178
G1 X65.049 Y57.432 E81.79969
G1 X65.26 Y57.551 E81.80667
G1 X65.332 Y57.971 E81.81895
G1 X65.522 Y58.224 E81.82807
G1 X65.609 Y58.912 E81.84805
G1 X65.721 Y59.079 E81.85384
G1 X65.724 Y59.41 E81.86338
G1 X65.746 Y59.449 E81.86467
G1 X65.735 Y59.796 E81.87467
G1 X65.815 Y60.01 E81.88125
G1 X65.783 Y60.355 E81.89124
G1 X65.849 Y60.569 E81.89769
G1 X65.783 Y60.91 E81.9077
G1 X65.871 Y61.264 E81.91821
G1 X65.818 Y61.597 E81.92792
G1 X65.853 Y61.943 E81.93794
G1 X65.726 Y61.659 E81.9469
G1 X65.547 Y61.448 E81.95488
G1 X65.487 Y61.055 E81.96633
G1 X65.125 Y60.744 E81.98008
G1 X64.904 Y60.744 E81.98645
G1 X64.743 Y60.673 E81.99152
G1 X64.537 Y60.644 E81.99751
