;FLAVOR:Marlin
;TIME:1971
;Filament used: 1.09943m
;Layer height: 0.175
;MINX:45.415
;MINY:48.808
;MINZ:0.306
;MAXX:74.584
;MAXY:71.202
;MAXZ:18.945
;Generated with Cura_SteamEngine 4.5.0
M140 S70
M105
M190 S70
M104 S235
M105
M109 S235
M82 ;absolute extrusion mode
G21;(metric values)
G90;(absolute positioning)
M82;(set extruder to absolute mode)
M107;(start with the fan off)
G28;(Home the printer)
G92 E0;(Reset the extruder to 0)
G0 Z5 E5 F500;(Move up and prime the nozzle)
G0 X-1 Z0;(Move outside the printable area)
G1 Y60 E8 F500;(Draw a priming/wiping line to the rear)
G1 X-1;(Move a little closer to the print area)
G1 Y10 E16 F500;(draw more priming/wiping)
G1 E15 F250;(Small retract)
G92 E0;(Zero the extruder)
G92 E0
G92 E0
G1 F2400 E-4.5
;LAYER_COUNT:103
;LAYER:-5
M107
G0 F7200 X50.029 Y53.053 Z0.306
;TYPE:SUPPORT-INTERFACE
G1 F2400 E0
G1 F1125 X50.483 Y52.632 E0.06302
G1 X50.738 Y52.413 E0.09723
G1 X51.288 Y51.971 E0.16904
G1 X51.535 Y51.787 E0.20039
G1 X52.063 Y51.419 E0.26589
G1 X52.389 Y51.21 E0.3053
G1 X52.943 Y50.881 E0.37088
G1 X53.234 Y50.721 E0.40468
G1 X53.828 Y50.42 E0.47245
G1 X54.096 Y50.296 E0.5025
G1 X54.741 Y50.024 E0.57375
G1 X55.054 Y49.906 E0.60779
G1 X55.681 Y49.692 E0.67522
G1 X55.99 Y49.598 E0.70809
G1 X56.602 Y49.435 E0.77255
G1 X56.948 Y49.355 E0.80869
G1 X57.578 Y49.232 E0.87402
G1 X57.922 Y49.178 E0.90946
G1 X58.562 Y49.099 E0.97509
G1 X58.924 Y49.067 E1.01208
G1 X59.626 Y49.032 E1.08362
G1 X59.912 Y49.026 E1.11273
G1 X60.623 Y49.039 E1.1851
G1 X60.927 Y49.056 E1.21609
G1 X61.595 Y49.114 E1.28433
G1 X61.944 Y49.158 E1.32014
G1 X62.578 Y49.259 E1.38548
G1 X62.925 Y49.328 E1.42148
G1 X63.583 Y49.48 E1.49022
G1 X63.871 Y49.557 E1.52056
G1 X64.542 Y49.763 E1.59199
G1 X64.822 Y49.859 E1.62212
G1 X65.428 Y50.09 E1.68812
G1 X65.786 Y50.243 E1.72775
G1 X66.382 Y50.521 E1.79468
G1 X66.662 Y50.663 E1.82663
G1 X67.249 Y50.989 E1.89497
G1 X67.541 Y51.166 E1.92972
G1 X68.087 Y51.518 E1.99584
G1 X68.339 Y51.693 E2.02707
G1 X68.897 Y52.114 E2.09821
G1 X69.164 Y52.33 E2.13316
G1 X69.674 Y52.773 E2.20191
G1 X69.914 Y52.998 E2.2354
G1 X70.356 Y53.437 E2.2988
G1 X70.595 Y53.693 E2.33444
G1 X71.034 Y54.194 E2.40224
G1 X71.244 Y54.453 E2.43617
G1 X71.628 Y54.957 E2.50066
G1 X71.863 Y55.295 E2.54256
G1 X72.322 Y56.011 E2.62912
G1 X72.386 Y56.121 E2.64207
G1 X72.683 Y56.65 E2.70382
G1 X72.876 Y57.031 E2.74728
G1 X73.265 Y57.888 E2.84307
G1 X73.502 Y58.495 E2.90939
G1 X73.619 Y58.832 E2.9457
G1 X73.827 Y59.507 E3.01758
G1 X73.912 Y59.832 E3.05177
G1 X74.057 Y60.449 E3.11628
G1 X74.112 Y60.726 E3.14502
G1 X74.226 Y61.428 E3.21741
G1 X74.27 Y61.797 E3.25523
G1 X74.328 Y62.437 E3.32063
G1 X74.346 Y62.784 E3.35599
G1 X74.36 Y63.429 E3.42166
G1 X74.356 Y63.744 E3.45372
G1 X74.324 Y64.424 E3.523
G1 X74.297 Y64.752 E3.5565
G1 X74.225 Y65.372 E3.62002
G1 X74.184 Y65.644 E3.64802
G1 X74.041 Y66.4 E3.72633
G1 X73.95 Y66.777 E3.7658
G1 X73.815 Y67.228 E3.81371
G1 X73.687 Y67.58 E3.85183
G1 X73.57 Y67.846 E3.88141
G1 X73.441 Y68.095 E3.90995
G1 X73.284 Y68.356 E3.94095
G1 X73.119 Y68.594 E3.97042
G1 X72.941 Y68.821 E3.99978
G1 X72.746 Y69.038 E4.02947
G1 X72.542 Y69.239 E4.05862
G1 X72.319 Y69.432 E4.08863
G1 X72.093 Y69.604 E4.11754
G1 X71.846 Y69.769 E4.14777
G1 X71.592 Y69.915 E4.17759
G1 X71.336 Y70.042 E4.20667
G1 X71.08 Y70.15 E4.23495
G1 X70.815 Y70.243 E4.26354
G1 X70.488 Y70.329 E4.29795
G1 X69.988 Y70.423 E4.34973
G1 X69.782 Y70.454 E4.37093
G1 X68.816 Y70.553 E4.46976
G1 X67.85 Y70.64 E4.56847
G1 X66.806 Y70.724 E4.67507
G1 X65.738 Y70.798 E4.78403
G1 X64.708 Y70.857 E4.88903
G1 X63.632 Y70.904 E4.99865
G1 X62.61 Y70.94 E5.10272
G1 X61.566 Y70.964 E5.20901
G1 X60.522 Y70.976 E5.31527
G1 X59.47 Y70.977 E5.42234
G1 X58.423 Y70.965 E5.5289
G1 X57.372 Y70.941 E5.6359
G1 X56.326 Y70.905 E5.74242
G1 X55.266 Y70.857 E5.85041
G1 X54.302 Y70.801 E5.94869
G1 X53.157 Y70.722 E6.0655
G1 X52.114 Y70.639 E6.17199
G1 X51.082 Y70.544 E6.27746
G1 X50.034 Y70.431 E6.38474
G1 X49.68 Y70.371 E6.42129
G1 X49.384 Y70.302 E6.45222
G1 X49.106 Y70.217 E6.48181
G1 X48.833 Y70.116 E6.51143
G1 X48.581 Y70.003 E6.53954
G1 X48.311 Y69.862 E6.57054
G1 X48.071 Y69.716 E6.59913
G1 X47.823 Y69.542 E6.62996
G1 X47.603 Y69.367 E6.65858
G1 X47.389 Y69.173 E6.68797
G1 X47.183 Y68.961 E6.71806
G1 X46.995 Y68.742 E6.74743
G1 X46.817 Y68.505 E6.7776
G1 X46.664 Y68.272 E6.80597
G1 X46.509 Y67.999 E6.83792
G1 X46.384 Y67.743 E6.86691
G1 X46.272 Y67.472 E6.89676
G1 X46.185 Y67.228 E6.92312
G1 X46.102 Y66.938 E6.95382
G1 X45.947 Y66.322 E7.01847
G1 X45.85 Y65.829 E7.06961
G1 X45.751 Y65.171 E7.13733
G1 X45.719 Y64.885 E7.16662
G1 X45.662 Y64.179 E7.23871
G1 X45.65 Y63.871 E7.27008
G1 X45.64 Y63.226 E7.33573
G1 X45.648 Y62.893 E7.36963
G1 X45.689 Y62.183 E7.44202
G1 X45.716 Y61.899 E7.47105
G1 X45.8 Y61.238 E7.53887
G1 X45.864 Y60.856 E7.57829
G1 X45.988 Y60.241 E7.64214
G1 X46.069 Y59.903 E7.67751
G1 X46.247 Y59.254 E7.746
G1 X46.323 Y59.004 E7.7726
G1 X46.55 Y58.35 E7.84305
G1 X46.688 Y57.999 E7.88144
G1 X46.946 Y57.399 E7.94791
G1 X47.082 Y57.112 E7.98024
G1 X47.405 Y56.486 E8.05193
G1 X47.529 Y56.263 E8.0779
G1 X47.881 Y55.681 E8.14712
G1 X48.084 Y55.373 E8.18466
G1 X48.456 Y54.845 E8.2504
G1 X48.672 Y54.559 E8.28688
G1 X49.085 Y54.053 E8.35335
G1 X49.322 Y53.785 E8.38976
G1 X49.757 Y53.321 E8.4545
G1 X49.843 Y53.236 E8.4668
G0 F1012.5 X50.029 Y53.053
G0 F7200 X49.6 Y53.488
G1 F1125 X49.6 Y70.352 E10.18315
G0 F7200 X51.2 Y70.554
G1 F1125 X51.2 Y52.041 E12.06733
G0 F7200 X52.8 Y50.965
G1 F1125 X52.8 Y70.693 E14.07517
G0 F7200 X54.4 Y70.806
G1 F1125 X54.4 Y50.167 E16.17572
G0 F7200 X56 Y49.595
G1 F1125 X56 Y70.89 E18.34304
G0 F7200 X57.6 Y70.946
G1 F1125 X57.6 Y49.228 E20.55342
G0 F7200 X59.2 Y49.053
G1 F1125 X59.2 Y70.973 E22.78435
G0 F7200 X60.8 Y70.973
G1 F1125 X60.8 Y49.049 E25.01568
G0 F7200 X62.4 Y49.231
G1 F1125 X62.4 Y70.945 E27.22565
G0 F7200 X64 Y70.888
G1 F1125 X64 Y49.597 E29.39256
G0 F7200 X65.6 Y50.164
G1 F1125 X65.6 Y70.806 E31.49342
G0 F7200 X67.2 Y70.693
G1 F1125 X67.2 Y50.962 E33.50156
G0 F7200 X68.8 Y52.041
G1 F1125 X68.8 Y70.555 E35.38584
G0 F7200 X70.4 Y70.346
G1 F1125 X70.4 Y53.485 E37.10189
G0 F7200 X72 Y55.509
G1 F1125 X72 Y69.667 E38.54283
G0 F7200 X73.6 Y67.778
G1 F1125 X73.6 Y58.778 E39.45882
G0 F7200 X48 Y55.5
M104 S230
G1 F1125 X48 Y69.666 E40.90058
G0 F7200 X46.4 Y67.775
G1 F1125 X46.4 Y58.782 E41.81585
G0 F600 X46.4 Y58.782 Z0.525
G0 F7200 X46.568 Y68.206
;TIME_ELAPSED:50.764939
;LAYER:-4
M140 S70
;TYPE:SUPPORT
G1 F1125 X48.238 Y69.876 E41.96637
G1 X48.04 Y69.755 E41.98116
G1 X47.8 Y69.586 E41.99987
G1 X47.562 Y69.397 E42.01924
G1 X47.354 Y69.208 E42.03715
G1 X47.152 Y69 E42.05563
G1 X46.952 Y68.768 E42.07516
G1 X46.781 Y68.539 E42.09337
G1 X46.612 Y68.282 E42.11298
G0 F7200 X48.238 Y69.876
G1 F1125 X48.289 Y69.907 E42.11678
G1 X48.559 Y70.048 E42.13619
G1 X48.805 Y70.157 E42.15334
G1 X49.09 Y70.263 E42.17272
G1 X49.375 Y70.35 E42.19171
G1 X49.663 Y70.418 E42.21057
G1 X50.022 Y70.478 E42.23377
G1 X50.127 Y70.492 E42.24052
G1 X45.881 Y66.246 E42.62323
G1 X45.8 Y65.835 E42.64993
G1 X45.702 Y65.176 E42.6924
G1 X45.669 Y64.894 E42.71049
G1 X45.657 Y64.749 E42.71977
G1 X51.543 Y70.635 E43.2503
G1 X52.115 Y70.688 E43.28691
G1 X52.934 Y70.753 E43.33927
G1 X45.592 Y63.411 E44.00104
G1 X45.59 Y63.223 E44.01302
G1 X45.597 Y62.889 E44.03432
G1 X45.638 Y62.185 E44.07926
G1 X54.298 Y70.844 E44.85978
G1 X55.263 Y70.906 E44.92141
G1 X55.65 Y70.923 E44.9461
G1 X45.779 Y61.053 E45.83577
G1 X45.814 Y60.846 E45.84915
G1 X45.937 Y60.239 E45.88863
G1 X45.995 Y59.995 E45.90461
G1 X56.975 Y70.975 E46.89429
G1 X57.371 Y70.989 E46.91954
G1 X58.282 Y71.01 E46.97762
G1 X46.271 Y58.999 E48.06023
G1 X46.275 Y58.986 E48.06109
G1 X46.502 Y58.331 E48.10528
G1 X46.608 Y58.063 E48.12364
G1 X59.57 Y71.026 E49.29201
G1 X60.521 Y71.025 E49.35262
G1 X60.838 Y71.021 E49.37283
G1 X46.995 Y57.177 E50.62061
G1 X47.039 Y57.083 E50.62722
G1 X47.362 Y56.459 E50.67201
G1 X47.429 Y56.338 E50.68082
G1 X62.091 Y71 E52.00237
G1 X62.611 Y70.989 E52.03552
G1 X63.327 Y70.963 E52.08119
G1 X47.909 Y55.546 E53.47084
G1 X48.042 Y55.344 E53.48625
G1 X48.418 Y54.812 E53.52777
G1 X48.431 Y54.795 E53.52913
G1 X64.548 Y70.912 E54.98183
G1 X64.71 Y70.905 E54.99217
G1 X65.741 Y70.847 E55.05798
G1 X65.755 Y70.846 E55.05888
G1 X48.994 Y54.085 E56.56962
G1 X49.048 Y54.019 E56.57506
G1 X49.281 Y53.755 E56.5975
G1 X49.597 Y53.416 E56.62704
G1 X66.943 Y70.761 E58.19046
G1 X67.855 Y70.689 E58.24877
G1 X68.119 Y70.665 E58.26567
G1 X50.242 Y52.787 E59.87705
G1 X50.449 Y52.593 E59.89513
G1 X50.705 Y52.373 E59.91664
G1 X50.925 Y52.197 E59.9346
G1 X69.282 Y70.555 E61.58924
G1 X69.797 Y70.502 E61.62224
G1 X69.982 Y70.474 E61.63416
G1 X70.396 Y70.396 E61.66101
G1 X51.647 Y51.647 E63.35095
G1 X52.034 Y51.376 E63.38106
G1 X52.366 Y51.164 E63.40616
G1 X52.411 Y51.138 E63.40948
G1 X71.359 Y70.086 E65.11735
G0 F7200 X71.36 Y70.086
G1 F1125 X71.623 Y69.954 E65.1361
G1 X71.87 Y69.812 E65.15426
G1 X72.123 Y69.644 E65.17362
G1 X72.16 Y69.615 E65.17661
G1 X53.218 Y50.673 E66.88394
G1 X53.797 Y50.379 E66.92533
G1 X54.071 Y50.253 E66.94455
G1 X72.833 Y69.015 E68.63565
G1 X72.981 Y68.85 E68.64978
G1 X73.164 Y68.616 E68.66871
G1 X73.325 Y68.382 E68.68681
G1 X73.381 Y68.29 E68.69368
G1 X54.973 Y49.882 E70.35288
G1 X55.034 Y49.858 E70.35705
G1 X55.665 Y49.643 E70.39954
G1 X55.928 Y49.564 E70.41704
G1 X73.793 Y67.429 E72.0273
G1 X73.86 Y67.245 E72.03978
G1 X73.916 Y67.076 E72.05112
G1 X73.969 Y66.895 E72.06314
G1 X74.081 Y66.444 E72.09276
G1 X56.941 Y49.305 E73.63762
G1 X57.567 Y49.182 E73.67828
G1 X57.918 Y49.127 E73.70093
G1 X58.024 Y49.114 E73.70773
G1 X74.274 Y65.364 E75.17242
G1 X74.345 Y64.758 E75.21131
G1 X74.372 Y64.428 E75.23241
G1 X74.384 Y64.201 E75.2469
G1 X59.186 Y49.003 E76.61676
G1 X59.623 Y48.981 E76.64465
G1 X59.91 Y48.975 E76.66295
G1 X60.441 Y48.986 E76.6968
G1 X74.398 Y62.943 E77.9548
G1 X74.395 Y62.783 E77.965
G1 X74.377 Y62.433 E77.98734
G1 X74.319 Y61.791 E78.02842
G1 X74.292 Y61.564 E78.04299
G1 X61.82 Y49.093 E79.16711
G1 X61.95 Y49.109 E79.17545
G1 X62.577 Y49.207 E79.2159
G1 X62.934 Y49.278 E79.2391
G1 X63.384 Y49.383 E79.26855
G1 X74.002 Y60.002 E80.22564
G1 X73.958 Y59.813 E80.23801
G1 X73.874 Y59.493 E80.2591
G1 X73.666 Y58.817 E80.30418
G1 X73.548 Y58.478 E80.32705
G1 X73.418 Y58.145 E80.34984
G1 X65.236 Y49.963 E81.08732
G1 X65.446 Y50.042 E81.10162
G1 X65.806 Y50.197 E81.1266
G1 X66.398 Y50.473 E81.16823
G1 X66.685 Y50.618 E81.18872
G1 X67.273 Y50.946 E81.23164
G1 X67.566 Y51.123 E81.25345
G1 X67.858 Y51.312 E81.27562
G1 X72.073 Y55.526 E81.65549
G0 F7200 X71.904 Y55.267
G1 F1125 X71.675 Y54.939 E81.68099
G1 X71.279 Y54.418 E81.7227
G1 X71.072 Y54.162 E81.74368
G1 X70.632 Y53.66 E81.78623
G1 X70.381 Y53.392 E81.80963
G1 X69.948 Y52.962 E81.84852
G1 X69.707 Y52.735 E81.86962
G1 X69.195 Y52.291 E81.91282
G1 X68.928 Y52.074 E81.93474
G1 X68.368 Y51.653 E81.9794
G1 X68.114 Y51.477 E81.99909
G1 X67.858 Y51.312 E82.0185
G0 F600 X67.858 Y51.312 Z0.7
G0 F7200 X61.545 Y48.882
;TIME_ELAPSED:84.991745
;LAYER:-3
;TYPE:SUPPORT-INTERFACE
G1 F1500 X60.502 Y48.808 E82.04513
G1 X59.495 Y48.81 E82.07077
G1 X58.539 Y48.875 E82.09517
G1 X57.617 Y49 E82.11887
G1 X62.372 Y49 E82.23995
G1 X62.554 Y49.026 E82.24463
G1 X63.522 Y49.232 E82.26984
G1 X63.936 Y49.35 E82.2808
G1 X56.071 Y49.35 E82.48108
G1 X55.53 Y49.503 E82.4954
G1 X54.983 Y49.7 E82.5102
G1 X65.018 Y49.7 E82.76574
G1 X65.49 Y49.872 E82.77853
G1 X65.889 Y50.05 E82.78966
G1 X54.118 Y50.05 E83.0894
G1 X53.64 Y50.262 E83.10272
G1 X53.38 Y50.4 E83.11022
G1 X66.626 Y50.4 E83.44752
G1 X67.288 Y50.75 E83.46659
G1 X52.722 Y50.75 E83.83751
G1 X52.155 Y51.1 E83.85448
G1 X67.85 Y51.1 E84.25415
G1 X68.139 Y51.281 E84.26283
G1 X68.372 Y51.45 E84.27016
G1 X51.633 Y51.45 E84.69642
G1 X51.151 Y51.8 E84.71159
G1 X68.854 Y51.8 E85.16239
G1 X68.976 Y51.889 E85.16623
G1 X69.288 Y52.15 E85.17659
G1 X50.716 Y52.15 E85.64952
G1 X50.296 Y52.5 E85.66345
G1 X69.705 Y52.5 E86.15769
G1 X69.761 Y52.547 E86.15955
G1 X70.075 Y52.85 E86.17067
G1 X49.927 Y52.85 E86.68373
G1 X49.562 Y53.2 E86.69661
G1 X70.437 Y53.2 E87.22819
G1 X70.511 Y53.272 E87.23081
G1 X70.761 Y53.55 E87.24034
G1 X49.242 Y53.55 E87.78831
G1 X48.923 Y53.9 E87.80037
G1 X71.075 Y53.9 E88.36447
G1 X71.17 Y54.006 E88.36809
G1 X71.361 Y54.25 E88.37598
G1 X48.642 Y54.25 E88.95452
G1 X48.367 Y54.6 E88.96585
G1 X71.635 Y54.6 E89.55837
G1 X71.812 Y54.827 E89.5657
G1 X71.895 Y54.95 E89.56948
G1 X48.108 Y54.95 E90.17521
G1 X47.869 Y55.3 E90.186
G1 X72.131 Y55.3 E90.80383
G1 X72.351 Y55.628 E90.81388
G1 X72.364 Y55.65 E90.81453
G1 X47.638 Y55.65 E91.44418
G1 X47.433 Y56 E91.45451
G1 X72.567 Y56 E92.09454
G1 X72.77 Y56.35 E92.10484
G1 X47.228 Y56.35 E92.75526
G1 X47.163 Y56.461 E92.75854
G1 X47.046 Y56.7 E92.76531
G1 X72.959 Y56.7 E93.42518
G1 X73.129 Y57.05 E93.43509
G1 X46.874 Y57.05 E94.10367
G1 X46.701 Y57.4 E94.11361
G1 X73.299 Y57.4 E94.79092
G1 X73.443 Y57.75 E94.80056
G1 X46.556 Y57.75 E95.48523
G1 X46.412 Y58.1 E95.49487
G1 X73.586 Y58.1 E96.18685
G1 X73.695 Y58.367 E96.1942
G1 X73.723 Y58.45 E96.19643
G1 X46.28 Y58.45 E96.89526
G1 X46.165 Y58.8 E96.90464
G1 X73.838 Y58.8 E97.60932
G1 X73.952 Y59.15 E97.6187
G1 X46.05 Y59.15 E98.32922
G1 X45.992 Y59.325 E98.33391
G1 X45.947 Y59.5 E98.33851
G1 X74.054 Y59.5 E99.05425
G1 X74.142 Y59.85 E99.06344
G1 X45.858 Y59.85 E99.78369
G1 X45.77 Y60.2 E99.79288
G1 X74.23 Y60.2 E100.51761
G1 X74.254 Y60.297 E100.52015
G1 X74.3 Y60.55 E100.5267
G1 X45.7 Y60.55 E101.25499
G1 X45.635 Y60.9 E101.26406
G1 X74.363 Y60.9 E101.99561
G1 X74.426 Y61.25 E102.00467
G1 X45.57 Y61.25 E102.73948
G1 X45.568 Y61.259 E102.73971
G1 X45.531 Y61.6 E102.74845
G1 X74.468 Y61.6 E103.48532
G1 X74.506 Y61.95 E103.49429
G1 X45.492 Y61.95 E104.23312
G1 X45.456 Y62.272 E104.24137
G1 X45.455 Y62.3 E104.24209
G1 X74.544 Y62.3 E104.98283
G1 X74.558 Y62.65 E104.99175
G1 X45.441 Y62.65 E105.73321
G1 X45.427 Y63 E105.74213
G1 X74.572 Y63 E106.4843
G1 X74.584 Y63.307 E106.49212
G1 X74.582 Y63.35 E106.49322
G1 X45.415 Y63.35 E107.23595
G1 X45.425 Y63.7 E107.24487
G1 X74.573 Y63.7 E107.98712
G1 X74.563 Y64.05 E107.99603
G1 X45.435 Y64.05 E108.73777
G1 X45.443 Y64.302 E108.74419
G1 X45.452 Y64.4 E108.7467
G1 X74.547 Y64.4 E109.4876
G1 X74.512 Y64.75 E109.49655
G1 X45.487 Y64.75 E110.23567
G1 X45.522 Y65.1 E110.24462
G1 X74.478 Y65.1 E110.98198
G1 X74.454 Y65.344 E110.98823
G1 X74.437 Y65.45 E110.99096
G1 X45.563 Y65.45 E111.72623
G1 X45.616 Y65.8 E111.73525
G1 X74.382 Y65.8 E112.46777
G1 X74.372 Y65.867 E112.46949
G1 X74.317 Y66.15 E112.47683
G1 X45.683 Y66.15 E113.20599
G1 X45.74 Y66.429 E113.21324
G1 X45.757 Y66.5 E113.2151
G1 X74.248 Y66.5 E113.94062
G1 X74.161 Y66.85 E113.9498
G1 X45.846 Y66.85 E114.67084
G1 X45.884 Y66.998 E114.67473
G1 X45.948 Y67.2 E114.68012
G1 X74.052 Y67.2 E115.39579
G1 X73.934 Y67.55 E115.40519
G1 X46.06 Y67.55 E116.115
G1 X46.217 Y67.9 E116.12477
G1 X73.782 Y67.9 E116.8267
G1 X73.634 Y68.212 E116.8355
G1 X73.609 Y68.25 E116.83666
G1 X46.396 Y68.25 E117.52963
G1 X46.61 Y68.6 E117.54008
G1 X73.383 Y68.6 E118.22184
G1 X73.303 Y68.724 E118.2256
G1 X73.113 Y68.95 E118.23312
G1 X46.885 Y68.95 E118.90101
G1 X47.022 Y69.12 E118.90657
G1 X47.209 Y69.3 E118.91318
G1 X72.793 Y69.3 E119.56467
G1 X72.47 Y69.6 E119.5759
G1 X72.399 Y69.65 E119.57811
G1 X47.605 Y69.65 E120.20948
G1 X47.948 Y69.905 E120.22037
G1 X48.116 Y70 E120.22528
G1 X71.89 Y70 E120.83068
G1 X71.419 Y70.252 E120.84428
G1 X71.164 Y70.35 E120.85124
G1 X48.837 Y70.35 E121.41979
G1 X49.043 Y70.434 E121.42546
G1 X49.617 Y70.588 E121.44059
G1 X50.171 Y70.676 E121.45488
G1 X50.402 Y70.7 E121.46079
G1 X69.54 Y70.7 E121.94814
G1 X68.951 Y70.766 E121.96323
G1 X67.916 Y70.861 E121.98969
G1 X66.878 Y70.945 E122.01621
G1 X65.828 Y71.017 E122.04301
G1 X65.257 Y71.05 E122.05758
G1 X54.716 Y71.05 E122.326
G0 F7200 X55.32 Y71.085
G1 F1500 X56.369 Y71.132 E122.35274
G1 X57.457 Y71.169 E122.38046
G1 X58.472 Y71.191 E122.40632
G1 X59.525 Y71.202 E122.43313
G1 X60.574 Y71.201 E122.45985
G1 X61.623 Y71.188 E122.48656
G1 X62.678 Y71.163 E122.51343
G1 X63.722 Y71.126 E122.54004
G1 X64.774 Y71.078 E122.56685
